/* XPM */
static char *eee8819971c146bc9c72b666f0094bd9l6rAqtWiHqqsFtXC[] = {
/* columns rows colors chars-per-pixel */
"67 23 205 2 ",
"   c #010D00",
".  c #021401",
"X  c #061B01",
"o  c #091C00",
"O  c #062000",
"+  c #0D2401",
"@  c #0D2A01",
"#  c #132700",
"$  c #132C00",
"%  c #153301",
"&  c #1A3501",
"*  c #133B01",
"=  c #1C3C02",
"-  c #213E02",
";  c #1E4301",
":  c #224402",
">  c #254B01",
",  c #2A4D03",
"<  c #314F06",
"1  c #2C5303",
"2  c #2F5904",
"3  c #325403",
"4  c #345B03",
"5  c #3A5E05",
"6  c #345909",
"7  c #3B5E0A",
"8  c #356203",
"9  c #3C6504",
"0  c #3F6A02",
"q  c #3F6A09",
"w  c #3F7001",
"e  c #406604",
"r  c #426C05",
"t  c #446D09",
"y  c #457304",
"u  c #4A7405",
"i  c #477A05",
"p  c #4C7B05",
"a  c #46740A",
"s  c #4A740A",
"d  c #4D7B0A",
"f  c #527E06",
"g  c #50770B",
"h  c #537D09",
"j  c #466B12",
"k  c #547B10",
"l  c #4F8106",
"z  c #558306",
"x  c #5B8605",
"c  c #5D8B06",
"v  c #55830A",
"b  c #5B850B",
"n  c #578908",
"m  c #5C8A0A",
"M  c #5F9006",
"N  c #5F920D",
"B  c #588710",
"V  c #5D8A13",
"C  c #618F07",
"Z  c #628D0B",
"A  c #629206",
"S  c #669A07",
"D  c #64930B",
"F  c #69950D",
"G  c #669A09",
"H  c #6C9B0C",
"J  c #719D0D",
"K  c #628D11",
"L  c #669311",
"P  c #6A9412",
"I  c #6C9A12",
"U  c #729D13",
"Y  c #6EA20C",
"T  c #75A507",
"R  c #74A30D",
"E  c #79A50E",
"W  c #75AB0B",
"Q  c #7BAB0D",
"!  c #7EB207",
"~  c #76B008",
"^  c #7DB30E",
"/  c #6FA110",
"(  c #74A312",
")  c #7AA713",
"_  c #76A913",
"`  c #7CAB13",
"'  c #75A21B",
"]  c #7BA71F",
"[  c #7DAB19",
"{  c #7DB113",
"}  c #7AB41A",
"|  c #81AE0E",
" . c #83B40E",
".. c #88B60E",
"X. c #85BB0D",
"o. c #8ABC0E",
"O. c #90BF0F",
"+. c #82AE14",
"@. c #82AF1A",
"#. c #83B313",
"$. c #89B515",
"%. c #86BA13",
"&. c #8BBB14",
"*. c #85B31A",
"=. c #89B61C",
"-. c #85B91B",
";. c #8CBC1B",
":. c #91BF15",
">. c #91BE1B",
",. c #82AE21",
"<. c #8AB522",
"1. c #8ABA26",
"2. c #93BF22",
"3. c #87C70D",
"4. c #95CD0E",
"5. c #8DC215",
"6. c #89C812",
"7. c #8FC018",
"8. c #93C315",
"9. c #94CA14",
"0. c #9ACC15",
"q. c #94C31B",
"w. c #98C61C",
"e. c #95C91B",
"r. c #9CCB1B",
"t. c #9CD215",
"y. c #9FD813",
"u. c #9BD21A",
"i. c #A1CD1C",
"p. c #A2D114",
"a. c #A5D914",
"s. c #A3D41C",
"d. c #A9D71D",
"f. c #A8DC1B",
"g. c #ABDB1D",
"h. c #B0DE14",
"j. c #AAE316",
"k. c #AEE01A",
"l. c #B2E815",
"z. c #B2E31E",
"x. c #8FC120",
"c. c #94C422",
"v. c #9CCB23",
"b. c #99C629",
"n. c #9ED124",
"m. c #9FC539",
"M. c #A0C722",
"N. c #A1CE24",
"B. c #A5CC2C",
"V. c #A4D323",
"C. c #A9D623",
"Z. c #A4D924",
"A. c #ACDC23",
"S. c #A6D22A",
"D. c #A9D52B",
"F. c #A6DB28",
"G. c #ADDB29",
"H. c #B2DE24",
"J. c #B3DD2B",
"K. c #A2CE32",
"L. c #ABD531",
"P. c #AAD836",
"I. c #B1DB32",
"U. c #B5DB35",
"Y. c #AFE029",
"T. c #B5E424",
"R. c #BDE524",
"E. c #BBEB24",
"W. c #B4E22B",
"Q. c #BBE52C",
"!. c #BDE92C",
"~. c #B5E135",
"^. c #BBE536",
"/. c #BCE934",
"(. c #B5E138",
"). c #BCE43A",
"_. c #C9F11B",
"`. c #C1ED24",
"'. c #C2EC2B",
"]. c #C5F226",
"[. c #C9F326",
"{. c #C4F22D",
"}. c #CBF32D",
"|. c #D2FB27",
" X c #C3EF32",
".X c #C5EB3A",
"XX c #C3ED3A",
"oX c #CAF636",
"OX c #CCF53C",
"+X c #D6FB35",
"@X c #D1F73C",
"#X c #DBFD3B",
"$X c #BADF40",
"%X c #BAE345",
"&X c #C5EC44",
"*X c #C3EB4A",
"=X c #CFF646",
"-X c #CEF44B",
";X c #D1F541",
":X c #DCFE48",
">X c #CDF657",
",X c #D8F95A",
"<X c #E0FD42",
"1X c #EBFF58",
"2X c #D7F568",
/* pixels */
"w.<.b ( *.;.f D 0.A.;.>.&.v v.I m R U +.q.w.q.` 1 < Z D G a 3 o.A.' : b v.<.v.% m . ( X.h. .E.g.0 x @ F t.W F [ G v.+.W.s.#.{ C p # # ",
"Z.*XU.).XXS.v.@XC./.C.G.q.r >.L.^.;.U.*.E N.W.` u *.J.e.&.8. .E.r.S.S.).(.OXG.@ Q D 5.#.r.E g 3 q.r.$ R 8.#.` q.>.b - q.v.I ( F  .;.h ",
"..=.,XL.*.&.J R J E 7.w.#.H :XI.;.N.I.M.G.W..XE u J.;.;.-.3 F 5.F c.-.[ 1.9 = , E.%.#.[ K E r.x v.u.= Y e.#.z c F #.m ( ;.-.c.( I ;.Q ",
"J F +.b x q.&.&.#.x #.u r x J.r.D.N.$.H J.^.W.( R v.v.u.b & 8.&.#.,.2.L g , U r.s.( x U v  .T.v b $.: A ` %.J E E V.;.z F v.D.D L ` U ",
"B.A *.V.q.) q.w.i.m F ;.:.1 ; >.S.&.+.x R $.=.u p +.` r.3 = 9.( ( ).;X` u {.@XJ x m F w.| G ( L r.u $ D z.&.R R b &.$.) v.*.I (.2.R Z ",
"[ w.E E A.@.$.C.F ;.J D E H ` r.;.8.R 5 4 +.z 9 3 3 h v u $ %XG.; <.` A.;.1 + , g.>.#.H q.Q.R 0 >.:.W R r z | &.s.C.'.r.%.&.%.x H ^ 4.",
"n.^.H ( V. Xe.#.-.g.&.F z d 8.s. .s.f E E h r D + g v.#.b X U u : &.r.I D 4 % = f.` C.8.E +.q.7.C.h ; .. .c H 2 h h Z [ ~.;.&.V.w.H 8.",
"#.P s @.F ` m H E 0.O.p r E &.J G ` $.%.u R v Y @ S.( #.e & r.(.'.$.=.D.q.x + s { ^.B.#.J.+.*.W.&.A.m v.r.#.s.R.m *.R @.I Z E 0 x %.H ",
"R $.+.q.) u ) ;.r R D H w.8.Z h v u &.e 4 %.u  .t *.-.c.h $ d.#X) S.P c.XXZ = d r.W.i.Q.}.#.c H.%.#.; z u r.) 8 n r.r.Q.&.s.R s J.s.Z ",
"&.F S.S.V.V.>.>.L x s q.`.;.3 ) #.E.F J s.c : 0.G [ q._ b . Z #.U +.^.@XC.r = 3 W.!.C..XQ.$.0 r ` D E r.R r F ` %.1 x Q e.J q.{.L 5.J ",
"Q : -.!.v.@.G.W.;.8.h q._ p H 5.g.H #.C.g...z G D ( Y.H O + ;.I I >.b.R #.+ + & E.` > , r ` I y C J m ) {.s.9.g.d &.a > 9 x ` F t A R ",
"#.f m Z >.) v.<.L i.v v.h A R ` z.Y R H E D z ^ 4 K A.&.. h T.{.V.Q.;.&.&.+ . 4 8.T.G.E.i.m u y _.) &.s.&.+.n c 9 ) 8.[.].) > 7 <X5.8.",
" Xs.#.z D D S.2.&XZ I H b OX+.F &.k.%.8...R M ^ y [ !.u.@ j c.V.q.>.!.E.r $ + d %.R.D.Q.'.Z H ) }.m %.m z E 8.) p t &.0.h $  .u.&.9.u ",
"% 0 * p %.D G , + . 9 ' 9 +.#XZ o + - : + 6 r 1 r w %.+ . r - % @ ' G m J ` #.#.#.8. .r. .v H T.g.: X = 5 b >.8.[ 3 9 $.4 > N (   W : ",
"Z p.p.p.p.8.0.Q I , V.1X1X-X X*.;.Z H.V.V.+X;.% 9 H y.X R |.V.,X,X+.=.m.&X).v { }.z.E E &.;.8.&.H q.!.%.H P = h f G E k.5.) z z.- T ! ",
"w.r.a.s.J +.) s.#.H T.oXW.( C.J.-.p.a.r.8.T.h.p 2 F a.X c #XQ.=Xv.v.b.2X$XQ.v r ) :.8.>.8.V.&.&.#.J 0./ % D J [ { 9.9.%.a 2 s.|.8 = | ",
"r.W.W.'.A.C.Q.v.* ` /.b 4 u G.;Xb.#...+.#.m 0 Y e l 4.4 s -.oX` =.&X>X2XI ;.( c r.0.z.d.| w.( J w.!.$.> X #.E.&.V. .( s v G D Q #.0 T ",
"H.&.H R +XA.r.;XX B R Z $.q..X-X:Xr.&.&.w.#.#.S + p c z Z m n.n P.=.x.K.> h D.;.!.r.o.| | V.C.6 J '.G.[ 3 X.k.( I { 9 a t.E.s I D z s.",
"+.Q.o.A b > d J.o p ].W.} q @ u @.E s.Z f u.Z.W . e.l.^ _ f 7.,.] q p U 9 h ( d H ` &.s.q.) 8.H '.v.n U % y e.D D 8 a 5.7 E 5.v 9 z R ",
"H.L r p m D ( XX< y G = . 2 a 2 > I q.H v W 4 3.o Y ].R 9 m F.I : b.L.@.> I #XV.X A r.E :.m 8.p `.(.V @.r H $.` %.D a M 6 + : t Y g  .",
"J.& * D F y 4 ' : % . { n & = : * 1 X + %     &   > 9 1 * + N n.r.q.H D * ; C.p > &.&.T 0.R H e &.>.I k R [.s.0.x v 9 S Y 2 O 9 ) :. .",
"G 1 : o + $ $ : $ & 5 ( v G y .   6 s t r m H N y u j.E.o + : m ^ W R n % i $ + z 4 n ` u r 4 > z 1 W : . > , l j.Q %.` c 5.l W u N R ",
"X.4 +   : > : 9.F u +.u r v : G u.m A ^ y p G R M < 6.} o a 8.G 4 : 4 2 = $ + u 4 > r t _ D 9 0 + %., p $ 1 . . ~ S W ^ W ^ u D z.9 3."
};
