/* XPM */
static char *e5b152ac5dbc45ec9546717f100f8b1fHIJsXrCHAYc97JPl[] = {
/* columns rows colors chars-per-pixel */
"155 29 151 2 ",
"   c None",
".  c #040404",
"X  c #090605",
"o  c #060806",
"O  c #0B0906",
"+  c #060709",
"@  c #080708",
"#  c #070809",
"$  c #0C0C0A",
"%  c #110E0A",
"&  c #0E100E",
"*  c #13110E",
"=  c #0F0F10",
"-  c #110F10",
";  c #0F1010",
":  c #151412",
">  c #181615",
",  c #171815",
"<  c #1A1916",
"1  c #181718",
"2  c #1D1C1A",
"3  c #221B16",
"4  c #211F1B",
"5  c #1E201B",
"6  c #23221E",
"7  c #28251F",
"8  c #262521",
"9  c #292622",
"0  c #272823",
"q  c #2B2A25",
"w  c #2E2D29",
"e  c #312D27",
"r  c #312E2A",
"t  c #2F3129",
"y  c #313127",
"u  c #34322C",
"i  c #39362E",
"p  c #3A382F",
"a  c #363530",
"s  c #3A3631",
"d  c #373830",
"f  c #3D3A33",
"g  c #3F3D38",
"h  c #413D36",
"j  c #423E38",
"k  c #444136",
"l  c #484237",
"z  c #45423A",
"x  c #4A453C",
"c  c #4D493E",
"v  c #514B3F",
"b  c #4D4640",
"n  c #4E4A41",
"m  c #524D42",
"M  c #565145",
"N  c #595346",
"B  c #575248",
"V  c #5B5549",
"C  c #5E594C",
"Z  c #60564B",
"A  c #625B4E",
"S  c #685E4F",
"D  c #645D51",
"F  c #685F51",
"G  c #69604F",
"H  c #666153",
"J  c #6A6354",
"K  c #6F6857",
"L  c #6B6659",
"P  c #6E695A",
"I  c #706657",
"U  c #716957",
"Y  c #726759",
"T  c #736C5B",
"R  c #786E5F",
"E  c #76705D",
"W  c #7A715F",
"Q  c #756E60",
"!  c #786F60",
"~  c #767160",
"^  c #7F7566",
"/  c #7E7664",
"(  c #7C7462",
")  c #7F7A69",
"_  c #807664",
"`  c #817764",
"'  c #807765",
"]  c #817765",
"[  c #807666",
"{  c #817766",
"}  c #807261",
"|  c #827863",
" . c #817864",
".. c #817965",
"X. c #807A65",
"o. c #807866",
"O. c #837866",
"+. c #827966",
"@. c #827867",
"#. c #817A66",
"$. c #857965",
"%. c #847B67",
"&. c #857C67",
"*. c #827966",
"=. c #817969",
"-. c #837B68",
";. c #827B68",
":. c #847B69",
">. c #867A68",
",. c #857B6A",
"<. c #837C69",
"1. c #857C68",
"2. c #857D69",
"3. c #867D69",
"4. c #857D6B",
"5. c #867F6A",
"6. c #847B69",
"7. c #897F6A",
"8. c #8C7F6D",
"9. c #887F6B",
"0. c #8B826E",
"q. c #8C836F",
"w. c #8A846E",
"e. c #8F846C",
"r. c #8E846F",
"t. c #8D836F",
"y. c #95876F",
"u. c #8E8570",
"i. c #8D8772",
"p. c #8C8472",
"a. c #918673",
"s. c #918971",
"d. c #918973",
"f. c #938B73",
"g. c #948871",
"h. c #928875",
"j. c #968A74",
"k. c #958A76",
"l. c #978D76",
"z. c #928974",
"x. c #968C78",
"c. c #988E78",
"v. c #9A8F78",
"b. c #9A8F7B",
"n. c #998D7A",
"m. c #9B9179",
"M. c #9D947D",
"N. c #9C927C",
"B. c #A49982",
"V. c #ADA289",
"C. c #ACA28A",
/* pixels */
"T E ( 7.5.5.X._ ,.w.J F Z Z H H H Y V > x B.i.-.-.~ Y Y Y T ! ( / &.q.d.T F 5.C.h.-.n.C.V H 5.Y H C M n u 9 y g Z & # T V B H H C H R ( / X.,.5.X.5.| X.( ( T T Y U K H H H H J H A H Y J ( J h < i a.5._ _ ( _ _ X.-.5.( T P Y / / ( X.( / ,.X._ X.j.d.n.m.d.8.( ( C c y.< $ x.,.E T Y J K J H H H ( ( W W T T T Y W ",
"J S V Z V V V N V A V Z V V Z Z A J V > f M.i._ X.<.( Y Y T T U T W &./ J ~ ( q.7.5.l.n.s J 0.Q ( Y S V m D X./ g.* o H V M V n z x V V M m m m c x m M M V V V C Z M m m m M m m c h z s f h 8 2 r C F F H F Z C Z C Z A H H H K K J T K H F F H J U S S H Z V v c C H y.: $ j.&.H m v c c m N V Z G H G J J I J J Y ",
"P H V C Z F H J P T X.( ( / ( ( X.-.Z : g M.n.-.( ( X.( ( X.5.<./ / i.,.H K D V H R d.q.8 A q.) X.( H J Y T ( P m.< # Z m m C B B V C C V V V C C C A F D F F H H F D F H Z B B C N x M V H c w N z H A F D F D Z Z D D A S A A C Z J H C V N M M m c z x n m m M c H T &.= + -.q.H S C V N v x c x Z Z Z S S S H S J ",
"F H Z F F S F J K I J H P Y J H J A m : n m.p.-.,.X.W ( -.-./ R Y Y T Y F J K Z Z M ~ j.w K X.H F H A F F F H J N.< $ C n x m m m M V V N N V M N V Z Z C C Z Z Z D V M m m n m M m V F C N w 6 z 6 C V C Z F H F F J H Z Z V N N V H H Z C A F A Z H H H S F S S Z F T W $ $ J } N S C V Z Z V Z N m m v v v x x x f ",
"H F V M M m c x x z c x z h h f x c n $ Z n.R T T T H H H F A F F F F F H H H A F N m C j V Y C V V H F C D Z S / 2 $ T V V D V B V B M M m m c c m M N c c n M M N m x x x z x c x x m V V q $ A n m m V V m N N N A Z N m c c m c v c x c c x x M M c c x x x k h i f e + : w c f : $ O $ : : < < % $ $ $ O o $ > y ",
"H A V V m m x n m m m m m N C C Z C e + V 7.T T I J H J J D A H H F Z Z Z Z C C Z C S H x V J V Z D P H H P J H ( 8 + / Z H P D C C V C C Z Z Z Z C V V m m N V V V C V N V M m m n z M V V 9 & Y c V B N M M M m m z n c n c n m M v n c x x z h z h f f f h k s s q i $ < A k m m N M v M N c k h 9 6 9 9 6 8 q w y ",
"H Z Z V N m n c m m m M M B N M m N 6 + c J A H A V H P T T T Y J J A C Z C V C V V F D k V F M C C D D F H H H ( r . J M H L A F H M M m M n v B M m B m M M V M M V V m M m m n n x c N m 4 $ H V V M M M M M N N N N V C V C A Z A D Z C C C V M V V N M v v c c v T < : J V V N V V M V V M V C J J J K Y Y T T S ",
"H C V V N V N M M m m m n n n c n M 8 : D H M B M z g z z x b m m m M M M N N V N m V V z V C M N N V C Z H H H / f . m z M V m n n x z h z h f h k z c n m m m M M m m c c x x c c z x m m r + m C m m m M M M M N V V V C V V V V N m m M M m M N Z S Z V V V N M v T < $ m Z V V m v v m c x c n c c c v m m m m F ",
"D V M m m m m m m m m m c c c c x m 6 : m m z x x x x z g h h x b n m M M N M N m M V M z M V M m m m M m M M M V i + u h M M n n c x z z x x m m M m c c n m m m M N N m m m m m x x k c m p # V S M M m M m M m m m m m M m M N C V N m M M m m v v c c x x x x c v U 2 # x J N M m c c m m m m m m m m v c c b c V ",
"V m n b x z x c c c x c c c x z z x 9 8 N N c c x n V V N m m M M m N V V M M M m m V c h M M m m m B m c c c c n w + 2 f B M n c n M N V M m M N M m n c c n m m m n n c c c c x f z j x x k . x N m v m m m M m m m M N V N M V A M m m M m m m m N M m m v N V A m T 2 o k F c c M M m m v c c c c c c c x c m m C ",
"V C V M m x x x z z x x x x x c m m q 2 m N M m n x h x m n m N V N m m m m m n c m M h u M n c n n n c n c n m m u $ : i x m x x x m m c n c c z g z x x c n v c m h s u r u s u u x x x x m @ f m c c c c m m n m m m m V V m M V D A S F S A Z S D A A Z S H S S m T < + h A k x M V M M m m m m n m m M M m m m D ",
"C V c c x x x c x z z h h h h h f i : $ u f g z z x f s h c m M C C n n n c n c x x z i s V m x x x m V M n n z e 8 : . 8 r n m N M V C C H A F N m m m c x c c x x x x h s y i i g j h h h m r z N m m m c n m m m m x c M n c m M V N V V V V N V V V C N M m v c c Y 9 + y N j z h z z k k j j j x c n m c c v c n ",
"+ $ $ $ $ O o O $ $ O o O X $ $ $ o . . + + $ < > : q q y s h h i f z c m z h f s s 9 < y f 9 % $ $ w 9 : $ + . . . . . $ $ & $ : < : : 2 2 : : 2 q i i s g h z z g x c m n n n j z 6 * $ $ 2 X . + u x c x C J C m C M v m m v v m V A C V V V V V m v m v m m m m k x 9 . + < e u y u p u e r e q 6 6 9 q w e w 9 y ",
"< 2 9 e r y 9 8 9 6 : < 6 q w u f i i m c n m z u 4 5 6 2 < , : < 8 8 6 4 4 9 6 > : $ : $ + + $ X X + $ : 4 6 y g x c z s 8 r w r u s u y e q 5 $ + 2 6 q w 9 9 6 < < : > 2 8 6 * 4 $ < u z C L z 2 $ + . . O < s c x h V Z c f f x z n m n n n n c x c c c c c c z i e 6 * : 2 : * 6 q 7 4 2 2 2 6 2 2 < * % * $ O $ ",
"5.K H Y P J J T ~ Y H T ~ ~ Q ( -.p.( / Q P H T ~ -.V B b s w 6 6 9 q 9 q r s u 6 9 h q q B H L P K F J ~ E T ( ( P D H Q P L J H F N V V V D J D x g i w 6 6 6 8 w s u q e w q w D i.,.T J H C T ~ D V x a 8 $ $ $ + . . . . . . + . . . . . . . . $ $ $ O + o X X + & i V Z c p q < 2 8 9 w y r u f h k k f g h f i ",
"m n z z z l k z x n x c x x x z x z s u y r q r y q 6 8 8 i x n c n C H J C n z f w M z z B n z z z c x x x z z x z x n N N M m m b h g f f g g g j P T H D H L H H B V V D K P H ( V x z x z j x m D J P ( h.i.X.m + 8 i h z x x m f i u r 9 9 e w 9 6 4 8 8 q u s z c m V M m m V c x z h f i u w > < < : : < 4 q i ",
"x x x z x c x c b n z z z z z z z z j z z g g j g h z z j f i s f i w 8 2 < , 2 9 y i w i n c x m M c z x z z z z z x x z x z z z j f s i i i s i i u i s s f f i s h h h g g j h m x z z z z z j h h g z x z h f y . j K H D D D Z V C V C V C D H D H D D C C C C V M m m M m N C N M m N N V V C B M m N M m m m x ",
"m x j h j j h z z z z z z z k h h h g h h g g g g h f i u u u s g g g h z x n n b x z j h c c c x x x x x x x c c x z x z h h h h h s f f g f f f f i u u u y u i s h j h g g h s g f s i s s f f g h g s s u u i 9 . q Z c z k k k h g f s s f f s s s s i i s i i z z g k z z c c k j j h h h h k c m m m m m m c z ",
"n j g f g h g g g g j z z z j g g f s f g f s s f s i i a u i f g g g s g f f s s a z z z x x x x z x x z z z z z z z z z z h g h g s s f f f s s a s i a s s s g g g g g g g g g f s i a s s s s s s i u y w w y q . 5 C h x z x z z z k j h g k j h h g f s s s i k k j z k x c z f f f h h h h j z k k h j k j z j ",
"z h g g f f s s s s s g s g g f s i s s s s s i i a i s i i s g g g f g s f g s f s j j g z z z z z z z h z z k h h h j h k j h g g i u y u u i i u i s i f h f f s f g f g f f s f a a i i a s i s s i u u i u u 9 . 1 V z j z z z h g f h h h k h f s s s s s s g f g z x x x x h f f f f f p f g k z z z x z z x z ",
"x x g f s g s s f s g f g g h g f s s s i a i i i u u y u u i s f g g f s s f s f s u u s h h k k j h h g h f f h s s f g h f g f s r u y u i u i i u i s f f s f s u u i i i i i u i i i i i s i s f f s s p f f a + $ V z h g h g g p s f s s f g g g g g f g f g h h h h h k k z h f g f f f f h z z z x k k l c c ",
"c j s p s s s i i s g f f h h i s s i i i a i i u u u u y u u i p f s i s s s s f s t y s s s f f g f f f g f f f s w u u s i p s s d s s s s i a s u i s g i i s i y u u u u u y u i i s s i i i i i i s s s i p u + $ M z h f f f p s f g s f s g s g f f f f g g f f f g g h h h f f f g f f s g k k z z z j k x x ",
"k k s i i u i u u i f s s h g y i i u u u u u y y y y y r r y u i s s i u i u i i u w y y u a i i i i a i i s s s i q w u g s i s s i u u i u u u u i s s s i i p i u i u u u y y y u y u u u i i i u u u u i i i i . $ m x h f f s i s i i s s f s s s s s s f f f f f f f f g g h f f f f f s p f h h h h h h k h c ",
"h g u y y r y y y y p i s g s q i a u y r y r y r t w q q q w r u u u y r u u u r t y y u i u a p s u u u u u i s u 8 9 q f r q r a u r u u u u u u i i i i u i u u y y y y y r r y y y y y r u u u q w r u y u u u + . c z f s s i u i u u i i u i u i u s i a s p f f f f g g h g f s s s s s s f f f f h h h h g x ",
"s a r w w w w r w q u r r y y q r u w w w q q w w q q q q 9 9 w r y y r r w r r r w r y r r y u u r r e r e y u u w 6 6 9 i 9 2 q u y r r w w w r w u y u y y y r y r q q q 9 q q q w w w w w y r w q w r w w w w q % + m h i i u u r u u y y u u y u u r u u a s i f s s f f g f f p i i i i u u u i i s i i s s f h ",
"w y w q q q 9 q 9 8 9 9 9 8 q 9 q w 9 q q 9 0 9 q 9 8 8 8 8 8 9 q q w w q q q q w 9 q q q 9 q 9 q q q w q q 9 q 9 9 2 2 8 u 9 8 8 y w w q q q 9 q 9 q q q q w q w r q q 9 8 9 8 9 9 q q q 9 q q q q 9 q q q 9 9 8 6 $ $ n g u y r w r r w q w q q w r w q r w r u y u u u y u u i u r r r w r y r y y r u u u u u i i ",
"y 8 2 6 6 6 8 6 8 6 q q q 9 9 8 8 8 8 q q 8 8 8 q 8 6 6 6 6 6 6 8 8 q q 9 8 9 q 0 8 9 9 9 0 9 8 8 9 9 q 9 9 9 8 q 9 , < 2 q 2 4 6 q 6 6 6 6 4 6 6 4 9 9 9 q 9 9 9 8 9 7 8 8 9 6 6 6 6 6 6 8 9 8 8 8 2 2 2 2 4 2 2 : . + u g w q 9 9 8 9 8 8 9 9 9 9 w r y u u i i a r r e w q q q q 9 q 9 q q q q q q w w w q 0 8 8 q ",
"+ : , < < < 2 2 2 < 2 2 < > : : : : 4 6 5 2 2 2 : < > : : : : : : < 4 2 2 2 2 2 < < 2 2 2 < < < < < 6 8 8 6 4 6 4 2 $ & : : * : : : : : < < < 2 < 2 6 2 4 < : * $ : < > : : - % $ $ $ * : : < 5 4 6 : % $ $ $ $ $ # . o 4 9 2 2 < < : : : : * : * * : > < < > < 2 < 9 q w w q w q 9 : : : : : > : < 6 6 6 6 6 6 4 4 9 ",
"$ : 5 * > < : * * * * * % $ $ % $ + * * % $ $ $ % $ + X O X O O $ $ * % * * * % * : : * $ O + O O $ $ O O O $ % % $ * % % * % * % $ % O $ % $ O O X X X X X X X X $ O X O O $ % $ $ < 3 7 e i   e r 3 < % % O X X + $ O X O O O O X X . X X X + X $ % % % % % % $ $ O $ $ * * % $ $ % % % % O O O $ : * * * * * : : $ "
};
