/* XPM */
static char *_66d79e17dc64bd8b418179a242b0c44bvhIsCoyvj0qYGvG[] = {
/* columns rows colors chars-per-pixel */
"136 674 256 2 ",
"   c #1A0302",
".  c #0A0202",
"X  c #270403",
"o  c #360803",
"O  c #381507",
"+  c #3B2718",
"@  c #481604",
"#  c #561A03",
"$  c #450D03",
"%  c #5A2505",
"&  c #512912",
"*  c #672A03",
"=  c #6B3505",
"-  c #7B3C02",
";  c #753805",
":  c #713713",
">  c #62311C",
",  c #7C4307",
"<  c #7B4617",
"1  c #724817",
"2  c #784B29",
"3  c #5C4430",
"4  c #745748",
"5  c #823D04",
"6  c #803D13",
"7  c #834403",
"8  c #8B4B03",
"9  c #874909",
"0  c #934D05",
"q  c #8C5209",
"w  c #975608",
"e  c #8B4C13",
"r  c #854A17",
"t  c #924E15",
"y  c #8C5214",
"u  c #8C531B",
"i  c #885519",
"p  c #935414",
"a  c #9B5C14",
"s  c #93541B",
"d  c #945B1C",
"f  c #9B5C1C",
"g  c #975815",
"h  c #A35B07",
"j  c #A35D17",
"k  c #A04F00",
"l  c #9C621C",
"z  c #9A6217",
"x  c #9C630A",
"c  c #A6640B",
"v  c #A3641C",
"b  c #AC6B1C",
"n  c #A76618",
"m  c #B26A1B",
"M  c #B1731C",
"N  c #874C23",
"B  c #8A5726",
"V  c #945C24",
"C  c #9B5D23",
"Z  c #965A28",
"A  c #905B33",
"S  c #A25E25",
"D  c #A65D33",
"F  c #9C6324",
"G  c #9C632B",
"H  c #986529",
"J  c #9B6533",
"K  c #9D6A33",
"L  c #996839",
"P  c #966B36",
"I  c #A36424",
"U  c #A46A24",
"Y  c #AB6C24",
"T  c #A3652B",
"R  c #A46B2C",
"E  c #AB6C2C",
"W  c #AA6626",
"Q  c #B36D26",
"!  c #AC7224",
"~  c #AD732C",
"^  c #A8752B",
"/  c #B37325",
"(  c #B3742C",
")  c #B47A2C",
"_  c #BB7B2C",
"`  c #B97728",
"'  c #A46C33",
"]  c #AB6D33",
"[  c #A36D3B",
"{  c #A76937",
"}  c #B26E34",
"|  c #A57234",
" . c #AC7334",
".. c #A5733B",
"X. c #AC743B",
"o. c #AD7A3C",
"O. c #AC7A35",
"+. c #B37434",
"@. c #B47B34",
"#. c #BB7C34",
"$. c #B3753B",
"%. c #B47B3C",
"&. c #BA7D3B",
"*. c #BA7636",
"=. c #C17D36",
"-. c #C17C2B",
";. c #C1771E",
":. c #9A6F48",
">. c #A47343",
",. c #AB7543",
"<. c #AD7B43",
"1. c #AC7C4B",
"2. c #A67849",
"3. c #B37C43",
"4. c #BB7D43",
"5. c #B37D4B",
"6. c #B67946",
"7. c #AA7C54",
"8. c #B47D53",
"9. c #A56D43",
"0. c #936953",
"q. c #C27E45",
"w. c #BB822C",
"e. c #BC8234",
"r. c #B5823C",
"t. c #BC833C",
"y. c #BA8739",
"u. c #AE823B",
"i. c #C28434",
"p. c #C2843C",
"a. c #C38A3C",
"s. c #C88A3A",
"d. c #C68B36",
"f. c #AD824A",
"g. c #B58244",
"h. c #BB8444",
"j. c #BD8A44",
"k. c #B5834B",
"l. c #BB844B",
"z. c #BC8B4C",
"x. c #B58A4A",
"c. c #BD924B",
"v. c #AC8456",
"b. c #B48453",
"n. c #BB8553",
"m. c #B58A54",
"M. c #BC8B53",
"N. c #BC8C5B",
"B. c #B6885B",
"V. c #BD925C",
"C. c #BC9355",
"Z. c #BB8D63",
"A. c #B58B65",
"S. c #BD9363",
"D. c #BB956A",
"F. c #BC9875",
"G. c #AD8968",
"H. c #B19573",
"J. c #C28544",
"K. c #C38B44",
"L. c #C2854B",
"P. c #C38C4B",
"I. c #CA8D4C",
"U. c #CA8B44",
"Y. c #C4924C",
"T. c #CB944C",
"R. c #C99547",
"E. c #D2984B",
"W. c #C38C53",
"Q. c #C28D5B",
"!. c #C78B55",
"~. c #C49354",
"^. c #CB9453",
"/. c #CB9A54",
"(. c #C4945B",
"). c #CA955B",
"_. c #C59A5C",
"`. c #CB9B5C",
"'. c #C59A55",
"]. c #D29C5C",
"[. c #D39955",
"{. c #D18D4D",
"}. c #CCA15C",
"|. c #D3A25C",
" X c #D7A459",
".X c #D2A24E",
"XX c #C48D63",
"oX c #C39463",
"OX c #CA9563",
"+X c #C59B64",
"@X c #CB9C63",
"#X c #C3956B",
"$X c #C49B6B",
"%X c #CB9C6B",
"&X c #CA966B",
"*X c #D29C63",
"=X c #D39B69",
"-X c #C49C73",
";X c #CB9D73",
":X c #C69A78",
">X c #D39D73",
",X c #C98F6D",
"<X c #CCA264",
"1X c #CCA36C",
"2X c #C8A46A",
"3X c #D3A364",
"4X c #D3A46B",
"5X c #D4AA6C",
"6X c #DBAB6C",
"7X c #D9A766",
"8X c #CCA373",
"9X c #CCA47B",
"0X c #C9A778",
"qX c #D3A473",
"wX c #D4AB74",
"eX c #DBAC73",
"rX c #D4AB7B",
"tX c #DBAC7B",
"yX c #D6A579",
"uX c #DBB37C",
"iX c #D8B377",
"pX c #D7B16E",
"aX c #E2AD77",
"sX c #E3B67A",
"dX c #E2AE6B",
"fX c #E2A45D",
"gX c #EEC27B",
"hX c #BA9E88",
"jX c #CBA985",
"kX c #D3AC83",
"lX c #D7AC86",
"zX c #D5B284",
"xX c #DCB483",
"cX c #D4B38B",
"vX c #DBB48B",
"bX c #DCBA8C",
"nX c #DBBA86",
"mX c #DCBB93",
"MX c #D8B797",
"NX c #CDB090",
"BX c #E4B988",
"VX c #E4BC95",
"CX c #E4B087",
"ZX c #D7BBA4",
"AX c #D1AA8F",
"SX c #DDC197",
"DX c #E6C498",
"FX c #E9C38E",
"GX c #DCC3A7",
"HX c #DCC8B5",
"JX c #E7C8A6",
"KX c #E6CBB4",
"LX c #EFD2B2",
"PX c #FBE1BE",
"IX c #EFD9C6",
"UX c #F6E2D0",
/* pixels */
"V.c.Y.y.y.K.`.6XVXBX1XM.c.`.}.@X4X5X4X~.X.K O./.wXvXmXbXzXrX8XoXh.@.#.s.a.a.R.Y.K.y.j.<XBXJXDXVXeXx.j.}.pXuXnXxXCXeX5X<XwXeXaX^.m n ` =.I.^.^.^.W.1XxXVXJXJXDXjX8X0X8X%X@X@X4XtXbXbX;Xn.l.P.).tXvXxXvXbXrX(.W.].*X).I.J.J.U.( Y j h h h n ;.-.;.-.=.-.i.U.U.U.s.p.i.i.` ( ( Y v ",
"%XM.y.) ) y.K.`.BXBX+Xx.c.`.5X4X`.@X~.o.H F H r.@XVXJXSXzXrX%XM.r.~ e.e._ e.a.K.K.R.R.K.M.&XyX%XM.3.l.W.M.M.M.g.$.O.@.P.eXFXsX'.Q m Y j v Y +.!.3X3XwXuXxXvXVXbXzX9XwX(.g.g.(.tXnX8XC.h.&.h.).aXDXDXDXDXxXV.(.3X3X).W.l.&.*.Q Q m m m m n Q ;.;.-.=.p.U.{.U.U.U.p.#.#.( &.[.^.$.",
"@Xg.r.y.y.y.y.Y.5XsX`.z.z.@XuXtX`.z.g.z.P.o.H ^ ~.tXBXbX0X2XS.M.j.r.y.w./ ` @.t.I.E.a.Y f F ,.3.k.n.Q.OXn.,.T g 8 8 w n p.[.K.O.Y Y W w 8 7 T *XeX@X1XwX1X#X8XxXmXkXyXW.X.O.z.eX5X(.g.t.p.@.g.*XvXvXvXBXBX+XM.M.`.*X*X).L.*.n m ;.;.-.` m m m ;.-.-.s.{.[.T.U.U.p.=.=.#.*.^.*XW.",
"j.| g.].6X].z.z.`.3X`.z.h._.uXxX`.c._.wXuX`.r.| %.g.x.V.$X2X+X(.c.c.x.r.@.( t.P.!.t.v a Y +.l.L.3.W.=XqXoXl.%.( b n w w h v w 7 8 j W S j f 4.aX=XoX8XuXwXV.(.1XvXvX8X%X%XM.z.`./.h.( ) _ / @.W.1X1X%X@X(.x.l.P.).=X=X).J.~ j m ;.;.-.Q m c h m -.` p.E.[.T.p.#.=.=.s.p.E &.3XeX",
"g.R h.6XdX*X~.Y.Y.^.Y.P.g.).xXBX'.C.1XnXDXBX`.O.' R %.&X9X2X2X$X+X+X_._.~.h.z.1X%X..y y  .P.^.I.%.%.L.I.g.O.@.=.s.=._ ~ W v w 8 0 a j W j W !.aX=X%XxXFXBX1X(.(.yXtX8XkXbX8Xm.g.%.U n M / ` J.^.`.`.~.x.x.l.z.^.Q.).!.4.Y h w w h h n c c h k h Q Q =.U.E.J.( / ~ ( _ Y v +.@XuX",
"P.O.y.[.^.~.~.'././.Y.P.h.`.sXuX`._.wXFXDXBX<Xo.H F M.VXJX9XD.0X8X8XrXtX5XM.B.zXDX0X:.B X.P.K.&.M n b Y ~ ! / ` i.U.].6X6X^.#.a 8 8 0 w w a $.).`.@XtXxXrX%X(._.@X1XyXmXJXmXoX3.R v b / ` _ J.[./.^.`.).(.(.).*X4X@Xg.I w 0 0 8 8 0 h c h k k h j Q *.#.p.+.I Q +.+.@.E R l.yXVX",
"P.%.y.T.Y.'.'.'.^.`.^.^.^.3XsXiX3X`.<XwXxXBX+Xo.H | +XJXLXNXF.-X9X-XyXvXtX$X-XSXIXLXF.:.o.t.#.Y w c ` / ( ( / ` t.I.*XeX4X).&.Y 0 0 n m n Y @.t.~.`.<X+XoXm.~.(.~.~.1XVXLXPXvXb.T E ( _ _ _ t.K.K.P.*XeXtX4X@XOX4X). .p 0 Y =.J.v w h h h k h m *.=.=.*.+.*.J.[.[.*X4XW.l.).CXVX",
"/.K.a.T./.`.`.`.'.'.`.~.Y.Y.^.|.`.'.^.].4X@Xx.X.' l.qXDXJXMXjXbXtX-X;XkXzXzXSXLXUXIXNXv.o.( ` h 0 w =.U.t.@._ =.U.I.!.W.W.W.h.$.Y n b ` _ *.J.^.).`.+X(.~.M.`.`.M.x.(.rXJXPXDXZ.T E #.i._ _ e.y.&.t.!.4X6X@X).W.h.J.+.f a K.dXaXp.Y j j m Q -.=.J.q.I.[.I.[.7X).*XCXBXeX~.3XFXBX",
"R.R.K.R.^.^.I.T.^.^.`.`.^.t.e.e.#.e.p.K.~.M.k.X.O.z.yXDXLXmX9XS.A.b.N.D.-XjXmXZXJXMXD.f.+./ n w 8 0 / [.!.h.t.q.J.P.P.I.!.!.P.l.*.Q b M i.U.I.^.`.`.+X8XyXwXwX1X}.~.'.`.rXJXVXN.| X.h.p.#.e.a.a.p.p.J.~.`.@XW.W.q.q.*.Y W p.7X6XP.( Y W Y =.J.{.!.L.L.].*X*X!.] $.).>X*X!.^.uXBX",
"Y.Y.Y.P.j.h.h.K.a.K.^.].^.t.b q x / e.y.c.@X(.3.^ X.OXFXJXzXB.>.X.k.f.S.D.D.A.S.b.k.g.h.t.( v 8 8 w _ E.[.J.h.J.J.L.!.*X3X^.P.P.p.#.` e.E.[.^.Y.~.'.(.yXBXBXwX1X4X<X(.~.+X0XrX(.y.y.t.t.@.p.E.T.t.K.^.`.OXW.W.).!.4.*.( v / U.I.#.#.` Q m m =.{.[.L.&.} Y v w 0 j I W *.p.K.(.+X",
"(.(.(.~.h.@.@.K.a.@.%.P.I.#.v 8 w / e.t.~.eXuX(.%.o.W.qX1XV.k.o.%.(.DXPXJXH.v.V.n.k.g.h.#._ m w w n w.s.K.L.J.J.J.!.].7XdX7X^.^.^.Y.K.I.7X3X~.(.].~.+XkXBXuX1X<X@X@X~.~.3XuXuX`.^.Y.^.J.@.a.T.a.t.@.^.6XW.3.!.).J.t.#./ n Q =.U.=.#./ / Q n Q p.{.*.Q j w w w h w w w b #.J.!.OX",
"%X+X1X@XP.^ ~ y.e.) b ! ) ! x w n ` #.&.P.4XuXqXM.x.~.~.M.z.Y.P.z.rXLXUXUXjX7.X.M.x.z.!.!.p.` b b ( @.~ ~ E +.&.J.].6XeXsXuX3X*X6X*XP.^.3X@X+XtXeX_.wXbXuX+X_.`.`./.z.Y.7XuXuX5X(.*X4X!.%.K.E.a.e.) J.*X!.%.&.J.#.#.` n w m p.I.p.&.#._ =.p.=.=.*.W W Q Q m m n n j w h Q U.T.T.",
"2X8XyXyX).%.%.j.K.t.! n b ) y.K.K.t.&.&.P.3XwX9X0X$X`.~.Y.~.P.J.`.xXJXKXMXF.A Z ] O.g.).^.&.~ ~ #.^.*Xg.E E @.@.@.K.7XeXuXtX6X|.).P.t.K.^.@X@X5X).z.4XBXwX@X`./.E.R.T.T. X6X@XM.z.].3XI.h.Y.].!.y.r.h.P.J.h.p.e.p.U.( j h h b s.J.[.[.U.{.].{.J.=.} Q ( *.Q W m v m n n b t.T.^.",
"0X#X#X%X%XM.l.l.L.h.@.( @.z.@XtX@X~.h.r.x.+XrXDXDXvXqX`.~.~.Y.P.+X8XjX7.A N r r S ] ] h.U.e.Y E P.@XaXtX~.%.@.&.+.I ~ t.%.P.Y.h.~ / / e.~.*Xz.@.Y U z.5XwX5X4X`.R.K.K.R.R.K.h.J.t.J.K.y.t.P.^.!.P.I.].!.&.@.e.p.U.h.t.#.n w n Y L.*X[.=.=.&.=.#.=.*.*.*.*._ m m Y Q / b n ) t.Y.",
"S.f.<.x.V.V.z.h.h.K.t.%.h.`.eXuXwX@XY.z._.rXSXLXLXmX8X+X@X%X(.m.(.+XM.X.V , , e ] 4.X.4.I.J.&.4.W.@XCXVXuX(.h.t.+.g 0 w 0 h n v ! M M #.T./.t.! v n @.~.4XeX4X`.T.K.t.e.e.e.) #.#.t.J.J.t.K.P.h.h.].3X).h. .~ p.t.K./.T.#.b Q } J.J.E E W p a E &.} *.Q Y ` Q Q / *.*.Q b / ~ z.",
"-X$XS.V.V.+X(.g.h.I.P.Y.3X6X5XwXuX5X`.].uXVXDXDXDX9X$X1XwXwX%XS.S.N.3.[ d 9 9 9 5.tX>X&XXXQ.W.P.(.`.wXxXkX%XP.J.` w w w w w c M d.M c M / @.( _ U.) ) %.~.6X6X`.E.T.K.e.` b / _ @.J.*X*XI.J.j.h.h.P.I.P.h.%.#.t.J.].3XT.t.Y ( &.q.Q W +.Y 0 g &.{.I.*.W j Q ( ( ( ( +.( / M E W.",
"iXJXJXcX9X9XS._.P.~.P.(.*X3X`.3XiX3X~.tXBXbXkXjX-XV.oX9XkXcXcXyXoXn.,.G y 8 8 e X.vXVX:XB.l.Q.1X5XwXrXrX0X(.3.@.` w c m c c M i.i.m c c w 0 j / p.p.#.( t.`.|.].7X].Y.K.e.b M Q ( p.].].J.h.K.Y.P.P.P.Y.Y.z.W.~.OXeXaX~. .l I *.=.*.4.=.#.n E [.7XP.t.a 0 j ( J.*.( / ` _ /  .~.",
"nXJXPXJX9X%X1X<X~.(.(.(.(.).^.`.'.z.x.(.oX+XV.S.Z.V.oX9XrXcXMXvX+Xx.X.d e p 8 7 { lXlX1.' 4.).sXBXVXVXvXrX(.&./ v j n n j n ` s.p./ b c w 8 , 8 a b Q Q #.K.^.3X|.|. X Xa.b b ! b _ s.i.) #.P.*X/.Y.P.~./.`.4XeXBXVXCX~.U w w n *.=.*.E +.=.^.7X4X).J.v 8 w Q s.-./ Q _ #.#.&.!.",
"jXmXGXMX;X(.1X2XoX_.%X@X(.~.x.g.@.o...K ' ,.1.k.XX%X8XvXcXNXcX9X1.H C p p p 8 t 4.>XoX' d E I.l.).aXBXaX4X^.@.v U $.~ w w v ( U.^.^.t.n h 0 7 8 w v v M i.a.R.`. X/.T.E.T.p.@.( v ! _ ` M _ K. X.XY.Y.].6X4XeXsXBXuX4Xl.I w w h W Q n j Q I.3XiX1X@X`. .0 n Q ` -.` ( *.=.p.J.L.",
"0XmXcX0XV.N.8XzX2X+X1X%X~.h.o.|  .<.<.K J { L ,.b.&XyXmXJXDXvXm.B , 7 9 f W f g h.Q.,.T f p g 9 v &.P.L.3.%.E f &.I.( 0 w b _ U.6X6XR.) b j n ` #./ v b i.T.T.P.R.a.y.U.K.[.I.%.! ! _ w.` ) t.T.T.K.T./.3X4X5X5X<X(.x.3.E W j p j j w 8 v ].sX0X8XtX5Xg.l Y Q m Q ` *._ =.=.q.J.",
"2XbXzX2XB.D.vXbX0X2X8X+Xm.g.3.| g.eXyXb.,.5.5.f.k.m.#XkXvXVXkX7.B e p t g W W T E { I f g 0 5 - 8 g l I f g a a p.U.~ w a b / t.].7X/.Y.t.&.U.E.U.#.Q Y #.Y.T.s.` M ) a.P.*X*Xj.@.e.a.a.t.t.J.U.U.R.T.^.].3X3X7X).l.3.%.*.&.+.I j j w 7 0 !.BXJXSXbXBX+X .Y m m m ` ` _ #.=.J.J.",
"_.0XzXwX8XcXDXnX0X8X$X(.M.(.(.x.(.BXtX1.[ Q.4X4XyXoXN.N.m.B.#X#X8.V q p p p p g C V a w 0 8 5 5 8 0 v ` Y w 0 a Y *.Q j v n a +.I.].W.Y.T.[.[.K.p._ ! ! j.].E.i.n w / p.^.3X7XP.J.K.p.t.Y.].[.I.i.e.U.K.T.E.T.R.J.$.+.*.&.J.J.L.&.f 7 7 8  .eXLXJXVXrX).&.b b m m m ` -._ =.U.p.",
"x.8XbXcXzXvXcX0X0X8X+XS.(.%X4X%X(.W.X.F C X.`.aXVXrXoX1.| o.oXtXQ.u 5 9 9 7 8 y s s w 0 8 8 0 8 0 j ` i.` w 0 w j Y W v n c v J.[.].P.K.a.t.t.y.K.e.) e.E.7X[.e.v w Q &.^.6X*X&.Y b v ! ^.dX6X!._ e.R.T.Y.R.y.@.+.@.#.*.#.&.P.*X).$.d p g E x.%X8XN.k.%.) ` / Q Q m Q _ / / &.t.",
"M.wXDXmXkXrX0XF.2X0X1X1X%X%X2X2Xm.F q 8 8 a k.lXvXyXoXk.3.g.N.qXn.e - - - 5 p ] T e 0 w 0 0 w 0 j _ i._ / w w w n n Y n w w Y T.6X3X^.p.#.( @.K.Y.Y.t.a.E. X].P.&.( / ( 3.@XL.v z v Y #.P.@X`.h.%.h.7XsX4Xz.%.O.t.K.K.&.#.*.h.^.>XeX&Xg.3.4.X.| F l l ! ` ( +.+.Q Q / _ Q v ( p.",
"f.0XDXmX9X2X2X8XlXrX#X$X8X0X$XoX%.z w w 0 f $.XXOXn.6.%.&.h.M.=XQ.L G d 9 s q.].} 8 0 w w j n b / =.i._ b w h h c c c c w j / {.fX].!.J./ ! Y.uXrX4X^.P.z.h.P.I.Y.L.E a a l g p v 4.OX3X`.~.~.^.W.Q.eXFXsX(.h.h.L.].].L.*.E $.l.,XCXvXqX].I.P.x.^ z x / #.&.&.#.*.( #.=.b a b ` ",
"f.2XbXmXjXD.D.rXvX0XF.0X0X0X1Xz.] l a a U ] R | ' d l E @.h.(.qXM.3.L.4.T T L.I.I 8 8 0 n / Y v n Q ` ` / w w h w w w c c m ` U.R././.K.@.j.BXJXVXlX=XW.3. .%.I.3X].%.f d s p j +.*XFXDXFX0X+X@X4X*XOX@X*X).W.^.*X).L.4.%.+.] } q.=XyX@X^.).7X6XJ.g w / &.4.4.*.+.+.#.p.Y w w n ",
"x.V.0XbXbX9X0XjXzXjXMXSXcXrX+Xx. .U v @.W.(.<.K F 9 9 U h.W.(.N.(.3.X.] ] ] E I C 8 7 0 b _ b a w n ` ( / b h w w w h c c ` i.p.a.K.K.a.K.3XFXJXDXyX(.z.%.o.o.z.5XeXz.X.5.6.] T g.4XBXDXDXzX%X4X4X3X~.&.t.T.^.`.`.W.l.%.~ ( +.*.&.!.%XM.W.~.).@XL.g p Q &.&.4.h.t.J.P.J.*.Y / / ",
"/.(.$XjXmXmXcXcXcXMXJXJXmX8XV.z.o.g.~.<XtXxXyXN.K V y T !.=X+XM.m.m.3.' +.$.R T v 8 8 w n v j 0 8 j _ _ Q Y b Y Q n c h n -.s.U.#.e.e.e.U.^.4XuX2Xz.r.t.^.`.M.g.Q.M.3.Q.CXaX*XQ.6.5.(.qX8X+X+XqX%X+Xz. .Y ! e.j.~.^.I.%.+.+.@.+.P.=X@XM.W.~.l.%.] j v / #.&.h.P.L.L.I.J.&.U.{.a.",
"@X+XS.0XcXmXcXjXrXkXjXkX8X$XoXN.C._.8XvXDXDXVXyXQ.l. . .l.OX+X(.$XqX(.R F  .J.L.I 8 w v j w 8 8 8 0 Q *.Y ( ( #.=._ b w b _ p.I.[.h.@.t.K.^.~.x.c.l.x.x.=XaX(.,.$.$.$.6.Q.OX=X>X,XX.' 4.L.P.).=XyXqXoX<.T l ! #.W.3X3X!.%. .$.L.=XaX].h.z.).!.E g f Y *.&.J.U.I.!.J.&.&.#.U.{.J.",
"(.+X$X0XjXjX9X2XoXV.V.m.x.M.(.$X0XbXvXkXjX9X8XoXW.h.%.+.$.n.&X%XkXkXQ.| T %.].L.I g Q ( Y a p 8 8 0 Y E E +.t.J.J.&.( n Y ( #.K.`.~.~.(.`.<X_.V.+X@X(.N.qXCX(.,.T { T f C ] l.>XOX[ C ] q.q.h.z.6XBXvX#X<. .@.J.W.*X].^.L.+. .J.*X].4.+.%.].*X4.f f E &.&.J.U.U.U.p.` b ! @.t.h.",
"V.+X0XzXjX9X8XD.(.C.f.o.g.z.M.8XJXmX:XS.B.1.>.[ R R  .O.3.l.XX&XlXBX%X3.%.h.^.%.v U t.t.%.+.] F 9 q E &.l.3.g.P.P.J.@.( #.( Y U.|.eXBXnXxX8X1X9XrXtX@XM.%XtXOXn.$.{ S j p s f ] I ] l.4.&.E Y @.`.BXDXcX$X_.(.M.W.W.P.P.U.@.U ~ *.} I I Y J.[.I.( W +.q.q.&.*.( ` ` Q n ! #.h.z.",
"V.$XzXmXjX9X8X$X(.C.m.x.Y.z.f.rXLXMXA.v.b.1.<.' d F R X.l.W.N.XXyXqX%XQ.~.~.P.%.G  .I.I.4.h.L.] d e C 3.4X).l.l.K.J.t.#.e.#.( t.^.4XxXVXvXrXrXkXkXrXoXk.W.%X&X&XW.{ S v p e 0 0 a *.].J.~ v Y #.`.$XcXmXmXVXkXA.oXn.3.t.t.@.Y Y ! +.} Y Q b b / ( ~ ( J.I.&.Y n b Q ~ *.I.].`.`.",
"oX0XMXGX9X8X$X+XM.z._.<X`.x.o.S.bXvXD.Z.B.S.(.1.V V [ 3.(.(.k.b.l.W.~.~.%X4X(.r.R  .h.W.5.b.M.l.E d l l.yX4X~.g.h.j.J.J.t.e.e._ ) g.wXDXbXcXcXcX9XoXn.k.M.(.&XQ.k.T T } j 8 8 0 j *.&.4.$.+.@.j.Y._.1XkXVXDXbXrXqX+X~.J.t.t.p.p.#.p.=.Q c h h m ( ( *.p.p.( v n m Q ( ^.BXVXtXyX",
":XNXLXKXjX#XC.M.g.x.<XeX%Xk.o.k.F.kX-XD.#XoX$XN.H B L 6.k.l.k.5.$.o.g.(.qXwX+Xx.+. . .4.W.M.n.M.l.X.g.OXtXqX(.l.z.Y.~.I.J.p.e._ x U 3XDXDXDXDXbX%Xm.[ 5.qXqX(.l.X.T } Q n h 8 0 j j I l.OXqXoXm.(.+X%X8XlXVXzX;XrXtX4X^.I.Y.I.h.p.#./ c 0 w n Q ` =.=.p.=.Y w h m m Q ].BXBXtXrX",
"jXGXUXUXNXm.m.k.g.g.`.xX9Xv.>.C.0XkX0XF.-X$XS.v.L A J L J ' ,.k.l.x.(.%XyXqXoXm.%.@.E O.!.).Q.Q.W.W.7XsXyX%X(.z.^.`.^.~.Y.K.i.w.n E `.BXDXJXDX9Xz.o.Z X.qXtX).3.~ b b n b Q j h b Y ~ Q.kXJXJXNXZ.S.oX%X4X%X(.V.%XtXeX`.P.P.P.K.t.t.@.) ( Y Y ` ( p.p.#.#.b a h n n j &.].*X4XqX",
"ZXHXIXIXmXD.oXN.z.x.+XtXvX2XB.1XzXcXjXjX0X:XD.v.2.2.:.A A L ,.).).Q.=XeXqX+XN.(.l.h. .E %.).).M.6.l.`.<X<X<X`././.Y.j.j.y.a.a.a.( @.z.4XuXwX(.x.%.R y d 4.^.).l.+.n c c m Y ( =.K.U.h.N.mXIXUXKXjXD.B.N.m.n.x.~.(.3X).z.J.K.K.y.J.p.P.).7X].@.#.#.=.p.p.p.p.#.n m Y n W } &.I.OX",
"cXjXNXmXvXyX8X$XM.z.(.$XcXcX9XkXcXMXMXGXMXNXjXjXNXNXjX:X$Xb.6.l.g.z.).@X%XqX%XV.oXW.3.|  .h.P.g.h.h.z._.1XiXtX4X<X~.r.@.) e.a.K.Y.Y.'.<X@X~.@.~ @.Y z z ~ h.!.L.%.I 0 h n / #.[.3X].g.m.VXLXKXKXJXjXD.m.b.oX).P.).3X).J.K.a.a.R.Y.P.I.*XeX7XJ.#.=.#.#.p.{.[.{.~ n W m n j n ( P.",
"b.2.2.f.V.qX8X1X1X+X%XyX9XcXmXNXJXKXGXJXGXMXGXKXIXKXGXMX:Xb.1.X.| E O.z.+X%X;X$X;X%XN.k.o. .O.X.+.t.Y.3XiXtX%X%X+X(.g.@.@.t.Y.^.4XiXnXwXV.g.@.Y b ! _ i.U.I.I.P.I.4.a w / #.J.!.*X^.l.+XxXMXNXMXHXZXNXjXMXmX%Xk.).*X).K.a.a.p.J.(.`.M.W.).P.%.#.p.&.( _ p.U.J.Q n W Q m j c b &.",
"f.f.| H | k.C.oXkXFXrXD.8XrXcXZXKXLXGXMXMXNXZXLXUXKXNX:Xv.v.2.H F l d R 3.M.+X-XyXzXzXrX%XM.x.g.o.g.~.3X}.c.u.o.x.x.j.j.h.z.(.OX4XBXDXvXoX3.$.+.v n _ U.T.I.P.^.4XaXh.E =.U.T.I.P.h.h.).+X:XNXZXHXHXZXGXKXmXZ.k.L.L.h.t.=.#.J.(.tXxX+X~.~.%.E J.[.U.( Q ` ( ( } m Q m m j h n *.",
"M.x.g.o.o.3.k.M.zXDXkXZ.#X9X0XNXGXGXNXNXNXjXNXNXmXjXv.:.2.yX&X..' F e p T o.N.+X9XvXVXVXlXyX%XN.x.(.3X_.M.k.f.k.x.M.(.`.~.x.j.z.W.wXuX2XM.P.&.+.( Y ) e.t.P.P.L.4XyXL.T $.I.J.h.U.J.h.g.m.#XmXUXIXKXZXHXZX:X8.6.*.E U ( _ #.^.sXVXVXyX#XW.O.F %.7XJ.v n / ` _ *.` Q m Q m c n *.",
"l.h.z.P.P.h.k.M.kXBX8XV.S.2XjXMXcXzXzXNXcX9X-XD.m.1...P P +XeXM...G u y C  .W.M.n.m.B.B.oXqX1X1XzXnX4X3.<.(.<X8X8X8XrXyX$XM.l.3.@.o.3.l.^.Y.%.%.@.( +.$.4.l.h.h.J.4. .G  .h.%. .+.*.h.l.k.N.cXLXIXHXZXMXjXA.>.R Y Y / i.#.r.eXDXJX9XB.n.l. .H | 3.E v n m M ` *.*._ ` Q ` n Y l.",
"g.h.z.z.P.W.x.z.$XyX%XN.S.8XzXcXjX0XrXjXcXkXD.v.f.k.<.G H <.OXN.,.' F d F ] n.b.L B u i G x.oX;XVXDX&XX.X.W.4XyX9XkXcX9X-X$XV.k.~ R | x.`.`.g.3.t.t.%.g.h.h.J.J.~ E I E *.$.] ] %.l.W.).OXoX-XjXcXjXjXjXF.D.m.g.~ @.K.^.t.o.%XJXVXZ.J R U ^ !.*X!.&.Y n n M ` ` _ _ ` _ _ Y %.*X",
"g.h.j.x.W.(.~.c.(.(.m.b.Z.yXzX0X9XD.D.D.zXcXF.v.k.k.o.V H 3.5.k.X... .F F ] !.!.H d f I ~ h.~.@XtXyXn.,.n.oX+XD.D.D.0XkXzXvXyXoXM.z.~._.`.@XP.h.W.).@X).l.h.h.+.U Y ( ( +.+.+.h.+XtXtXrXyX;X:X0XD.D.-X2X$X9XxXeXl.%.I.).3.| n.CXBXN.V 9 0 I L.aX6X^.( j h n Q / ( ( #.=.( E W.6X",
"l.g.g.x.OXqX).x.3.o.o.m.S.;X0X2X:X-XD.D.cXmX-Xv.1...H d H g.M.k.g.g.%.R F  .I.I.~ ~ #.&.r.z.).`.x.m.x.l.qXBX0X0X+XS.2XkXvXrXS.oXqX4X+X(.oX+XW.h.W.7XsX4XM.h.%.~ Y v v Y Y ~ &.I.>XtXlXzXzXkXcXvXkXjX8X8X8XcXmXzXoXg.h.L.P.g.O.~.W.' F 0 w Y %.).I.K.( b m Q Q / t.P.I.P.g.k.W.~.",
"h.O.R 3.%XtX&Xk.| | <.(.%X9X9X0X-X9X9X0XcXMX9Xm.K V i d X.W.l.l.~.W.x.3.X.g.L.t.E ( @.l.oXyXqX).(.M.o.g.4XuXxXDXbXrXrXzX8Xm.2.m.1X1XC.N.%X8X(.W.W.z.7X7Xx.l.z.h.+.E E @.t.@.O.%.l.Q.%XvXmXvXmXDXJXmXjX8X8XcXkX+X(.r.t.J.).].y.^ Y E ( Y v Y &.4.@.+.( Q _ -.( ( h.7X7X*XeXtX(.f.",
"@.E U X.W.).k.>.3.m.(.+X;XkXbXcX0XkXzXjXkXlX;X2.H F d H  .3.k.L.Q.Q.Q.&XOX).h.E } ~ E %.%XxXxX+X#X%Xg.H R g.1XVXLXJXmX9X+Xb.o.<.m.+X$X$XqX%X~./.3X`.Y.Y.z.W.).).k.k.g.3.h.J.%.] ( %.(.xXSXmXmXbXmXJXmX$X2XzXtX~.g.y.y.Y.6X*XL.#./ p.t.J.&.( &.t.Y v Y *.=.#./ Y h.dXsXeXeX5XM.o.",
"l f F E  . .| <.N.yXyX$X$XzXVXbXvXrX$XS.S.$XoXb.o.o.....M.(.n.n.n.Q.oX@XOX!.] I ~ ( U ^ P.4X>XoX&X&Xl.F V R k.4XbXvX9X#X$XwX8XS.#X9XmXmX8X| F r.7X].P.P.W.oX4X+XQ.qXtXN.k.g.&.+.Y  .m.0XmXmXjX0XNXMXmX2X2XzXxXC.@.~ y.|.aX].J.J.t.&.&.I.[.J.#.@.+.~ Q ( *./ Y b @.].dXeX(.x.g.g.",
"a g d g p g X.(.yXvXkX0X8X8X$XD.-X$XoXB.b.k.k.oXrX1X+X$X0XwXoXm.M.).~.g.+.E I Y ( ( E E &.P.n.B.V.1X).3.| R F F ,.3.....m.tXvX0X8XmXLXDXZ.1 = V } ] *.^.~.%XnXxXtXBXxXV.m.l.%.E E | m.0XmXMXF.8X0XjXNX-X0XmXbXC.O.~ @.].dX/.y.@.&.+.] %.J.%.%.4.J.{.*.Y ( / / ` ( U.`.5X_.j.r.L.",
"g.r.@.R d z h.eXBXbXbXzX0XS.m.f.1.1.b.3.X.K ..oXvXbXrX9XzX8XV.k.o.%.U v v Y Y Y E v f +.4.3.3.M.+XqX+X3.X.%.I 8 7 y e e J S.DXMXcXMXJXmX:.* % = ; - f t.^.*XtXlXvXrXyX>XqXM.X. .3.(.9XmXNXhXjXjX2XD.0XjXvXVXFX8X(.z.j.c.'./.j.3.x.W.x.3. .E $.4.&.#.#.` Q / ) _ ) @.T.6X3XY.J.I.",
"*X7X].l.%.O.z.4XxXxXrXrX8X$XS.S.v.>.K Z V V X.W.%XyXyX8XyX+Xm.n.K y 7 8 w a v Y Y v v +.4.h.l.XX9XlXB.[ X. .E f g v v U o.;XJXLXmXNXvX9X2 % * * * ; , g P.7X@X&X+X+X@X%X%XM.X.' 5.xXJXJXNXjXcXvXS.D.$X9XkXxXuX8XtX4X@X4XwXeX4X(.1XsXeX).W.h.&.&.( Y b ` / Q ` #.( @.].6X|.K.a.&.",
"x.(.(.l.%.X.x.4XrXwX8X8X<X1XrXvX0XD.v.K G V %.z.z.M.oXS.S.(.N.(.<.V 8 8 0 0 a +.( v I +.l.!.Q.yXlX,X9.X.4.] E E E E E %.l.yXVXKXMX7.:.B 1 # = = = ; u R M.eXoXk.g.z.M.oX+Xx.o.3.>.8XJXJXNXjX9X&Xb.b.S.2X$X+X(.oXyXrXqXuXBXVXxX(.+X4X*X*X4X3X^.U.#.n n b m / Q ! n e.[.[.K.e.) Y ",
"| | K K H H x.eXyX8X8XqX%X8XxXDXbXxX;XQ.k.' ' 3.g.n.&XD.V.S.S.Z.n.X.F p w a  .L.h.~ R ] X.5.Q.CXyX,.H '  .R E ] T ] $.$.{ >.Z.kXcXG.2 = : * ; u T ,.b.+XyXzX#Xm.l.g.m.qX8XoX(.(.k.V.rXbX9X#XV.<.,.b.8XkXA.2.%.l.5X4X@X<X1X1X1X'.x.g.4.).tXBXeXY.( Y ` ` ` ` M m c M ` / ) w._ #.",
"| ' H V V ' (.iXrX0X0XrXyX;XD.-X$XoXoX%X%Xk.K G ..oXkXkX8XoXn.N.1.k.X.F f  .I.W.X.R ] X.G V ,.qXeXK H ' T T E T F ] 3.6.Z Z [ b.cXMXG.B = * : J n.&X-XjXDXVXZ.5.z.S.S.9XrX0X-XS.x.M.(.%X$Xm.<.<...b.mXJXjX1.X.h.`.3X`.~.~.`.`.'.Y.t.t.^.eXBXsX^.#.#.t.U.=.b m c c x w b ) i.i.t.",
"' J J G H ..(.5X2X2XrXzX9X;X#Xm.1.<.3.M.oX%XB...o.oXyXqX&XM.5.6.X.k.k.3.' 3.~.3.J V X.n.[ < u 5.Q.' X.b.6.' F i i F  .4.%.<.m.oX9XZXZXF.N * * N N.;XD.-XbXjX2.H m.lXcXjXbXvX9X2XN.m.m.m.k.m.x.3...+XJXPXJXN.| X.z.~.~.(.`.`.^.|./.K.t.I.*X3X].P.p.J.I.^.K./ / M n n v ~ a.a.a.t.",
"F V Z G G G ..<.M.+XrXkX8X$X8XS.,.3.l.x.&XxXyXN.x.m.k.[ ' 3.L.l.3.k.n.z.3.g.W.b.[ B ,.OXn.B ; r A Z X.n.8.3.<.>...H H X.g.+XyXyX0XMXZXvXP * % , n.lX$XD.rXD.P i m.kXmXmXDXDXvX9X-X%XoX(.W.M.W.o.X.1XDXDXkX<.H ' g.`.5XwX1X@X`.`.^.h.+.#.K.J.&.J.3XeXtX@Xz.h.a.U.^.[.t.@.a.s.t.t.",
"y V G F d 9 i V 3.eXuX2X$Xm.V.m.n.z.z.~.qXCXrX%XM.m.K = ; ' W.!.Q.=XqX@Xx.g.N.yXN.B Z ,.8.,.B < : 9 T 6.5.l.+XCXvX#X<.o.k.eXBXlXyXzXJX$Xi = % , N.tX+XV.#XB.[ X.N.rXmXJXDXcXcXmXmXzX2X_.(.~.z.g.4.`.<XoX3.R E &.~.5XBXbXwX`.~.~.t.~ v v ! ~ E h.rXFXFXwX'.Y./.^.7XfX[.K.e.w.t.P.",
"U | X.R F V P P B.8X0X8XD.b.k.<.l.l.x.(.1XqX%X%X+X%X>.= * u  .] X.OX&XQ.X.H b.xX>XA < Z 6.6.{ r - t T [ 6.!.>XMXJXVX-XV.$XlXlX%XoXyX%XX.y , r H +XyXC.M.oX+X(.M.~.rXJXJXMXjX0XcXVXnXwX<X_.c.Y.y.y.j.g.O. .+.%.z.4XxXVXVXbXqXx.o.&.~ / Q b n v ) =XBXCXOX~.Y.T.I.R.E./.^.K.e.j.}.",
"O.o.X.[ 5.oX:XjXcXjXmXmX0XN.<.' R O.%.l.W.oXoXQ.W.XXJ = * ; 7 e ' 5.k.X.V u K 8.n.J < u { ' T N r V C V V F k.cXKXJXAXrXyXkXkXS.v.1.[ G M.+Xv.V.tX8XB.m.(.qX@Xm.C.vXLXLXJXjX$X#X+X%X3X`.~.~.~.j.e.y.j.h.t.h.h.j.5XBXbXmXVXwX3.F ( #.a.[.I.I I U E E E F a / s.s.e.K./.|.3X|.}.pX",
" .X.[ [ oXVXJXJXJXGXKXJX9XB...G d C ] !.(.m.5.,.3.>.A r = ; p T ] T T V e u Z [ [ J u u G T T u r u e , , i f.MXIXIXjX7.B.9XzXrXA...K X.+XkXmXvXvXkX9XS.M.+X+XM.+XmXJXKXvX$XV.M.b.M.).^.y.j.K.y.e.K.^.^.I.^.z.x.oXwXzXxXvX%X .g n i.].sX*X+.E E f p p s q ~ I.I.y./.5XiXsXsXBXFX",
"$.X.T H k.8XkXzXMXLXLXMXA.2...' ' T  .W.8.L J J 1.XXXX9.r s $.L.+.C e , ; 9 T 6.X.u i Z ' $.X.T V e 9 r B L :XLXIXNX0.< i b.zXmX$X[ K ..N.mXVXvXvXvXkXoX(.%X#XM.S.VXJXDX9XB.N.+XV.W.^.P.y.K.R.K.T.].4X4XqXeXqX%X%X1X8XrXrX(. .w n #.7XaX).g.~ E b v Y +.#.J.K.^.3XsXBXFXnXuXFXJX",
" .' H y i K 2.m.D.kXmX:X2.7.m.k.b.3.' L 7.v.2.L v.vXVXN.B G t.!.q.S - ; , s T [ Z u G <.n.l.l.{ G C u < Z XXMXZXhX0.1 , d 3.qXvX$X2.K K ,.kXVXjX$XS.b.n.@XqX%XM.Q.lXtXB.>.5.%XCXtX%X~.h.h./.[.Y.Y.5XeXuXvXnXbXvXxXqX%X8XyXOX%.v n ` U.[.P.#.) Y n n n ` i.s.a.[.|.6XiXsXwX1XiXBX",
"| <.K r , r H L >.1.B.7.2.N.yXyXoXM...b.VXJXD.2.A.zXVX9X..F  .&.!.4.C e s T T C B V 5.%XOX3.T T ' $.D ; u XXlXv.L B Z T $.%.z.).m.1.>.G K &XvX$X..i r X.`.OXN.<.3.k...i i X.@XCXBX4X~.g.P.`./.y.y.`.@X%X8X8XyXrXwX+XoX1XwX).%.+.~ @.e.t.p.i._ b w w n ` -.-.#.p.y.Y.`.`./.z.g.z.",
"M.qX8X..- - G ,.X.6.5.1.1.b.Q.).%XW.X.N.JXDXF.A.D.0XkXyXM. .R ] 5.!.h.] S T $.X.J X.*X>XXXX.s e  .L.6.9 ; Z 9.G G R +.&.h.!.h.R H ..1.K ' k.N.m.,.A J o.X.G K | O.| d 9 y  .I.5X4X~.z.~.wXuX4Xg.%.P.^.).@X@X@XOX(.M.N.%X5X(.h.h.I.T.T.K.K.s._ b h w n ` ` ( p.t.@.J.|.Y.O.^ F R ",
"rXVXvXB.9 - F 3.%.4.W.%. .o.%.P.(.j.E <.D.F.F.kX9XF.D.#X(.$.T ] l.W.I.L.+.T ] L.5.W.=XOX6.T T T ] q.6.s - ; 5 e C E ( %.!.).l.| B H K J ..<.M.Q.@X&X).%.H F  .r.y.O.l d R 4.h.z.W.z.j.~.BXFXuXg.^ g.).).~.x.M.M.j.x.OX4X@X~.~.!.[.].[.`.^.U.i./ m m M ` ( / &.p.h.J.].I.U U @.h.",
"0XmXNX7.u 9 ' $. .@. .T E ( &.P.j.y.b f V v.mXKXmXv.L o.4.%.T 3.!.$.l ] ' s s T X.L.!.3.G G $.4.I T T g 7 5 9 g v Y Y +.].OX,.L H H G [ 5.b.n.XXyXCXeX<.H %.P.P.j.r.O.%.~.@X~.c.(.(.P.'.eXBXtXk.F l.yX).O.^ %.l.W.W.4XeX+XW.I.Y.I.P.^.].I.J.s.=./ Q / ` ` =.=.L.t.h.P.J.( @.P.`.",
">X9XA.7.>...X.X.T I j v E ( #.&.%.@.! F K +XLXPXvX:.H 3.X.X.] %.$.] d e e y s g C ] ] C s C ] $.C p g p 7 - 7 0 j a f R x.3.H H K ' X.6.n.n.M.(.=XeX3Xg.X.h.z.z.Y.z.j.~.tXuX@X~.@X6X`.z.m.@XtX+X| X.OXW.X.3.4.L.W.).4XqXOXx.g.P.P.P.P.z.4.@.#.*./ Q M b Y _ I.[.J.t.t.e.#.t.h.I.",
"yX;XG.v.Z.b...T S j Y Y Y Y ! @.P.r.r.r.O.k.0XcXD.L K l.W.6.] E F C C u 9 p I I S f f p e S } E s p E E e 7 8 p e g F | m.N.1.2.1.1.5.n.Q.M.M.M.l.~.^.j.g.P.~.(.V.`.`.4XvXvX@XW.*XeX`.z.l.^.yX@X3.G X.l.3.5.L.L.P.(.(.Q.g. . .h.W.W.z.3.] T +.&.Q n n j v / [.[.J.t.i.w.) e.h.J.",
"vXcXcXjX9XD.,.V p j Q m n c ~ P.].~.x.g.u.K P P H K  .L.=X5.] +.T C C C p g E ] T ] T p 7 g } E C ] L.6.] E g e g U %.W.4XyX9X9X;X#XB.n.N.Q.W.P.&.@.j.j.z.`.5X%X1XtXuXxXzX9X_.l.W.W.z.h.&.4.l.3.' V d ] X.3.h.r.P.W.x.<.X.R R %.n.M.M.l.%.I E E j v Y Q v / a.p.#.t.a.e.w.e.t.P.",
"jXkXmXJXMX9Xv.L V f v n n z @.!.3X%XV.m.f.N.B.B , u $.!.W...F $.8.X.T C I E ] E ,.l.] p 9 p E } ] $.4.4.).4.y e T O.3.W.+X%XrXcXcX9XS.b.B.(.).P.y.r.j.Y.'.5XBXnXBXVXFXnXyX1X}.c.h.g.z.h.+.E G V V 3.8.' V  .@.J.`.+XoX+X(.x.x.M.N.Q.).*X!.&.+.E S j Q p./ l v Y e.p.t.#.e.) @.j.",
"B.Z.$XvXJXmXjX-X,.F U Y v ~ h.Q.oX8X#Xv.A.zXvX:.; , T 4.] V V 3.&X!.E I E ] T { XXQ.{ C d f } } E +.$.l.).g.d | M.Q.n.b.k.b.S.2XvXkX#XS.D.yX4X~.j.'.`.`.7XiXuXxXbXzX0X8X1X<X3X_.Y.P.'.P.h.J.R u 1.tXyX9.u I *.I.%XwXzXxXwX%X%X%X>X(.k.3.$.&.J.&.*.E } ~ +. .+.^ y.a.h.&.@.) r.P.",
"2.b.7.A.NXJXJXMX;X<.%.( Y +.g.N.-X;X%XA.F.GXJXG.1 < V ' T G X.~.7X^.] E E I T l.>XQ.' T l v +.E Y +.h.%.%.M.(.<X$X$XA.Z.B.f.f.V.yXrX1X1X0XxXiX_.~.`.@X3XsXsXuXuXbX9XS._.@X7XpX<X/.'.Y.P.^. Xh.F OXCXtX8.V F %.I.%XtXxXkXwXqXtXrX6Xz.d , 9 ' 4.L.I.!.4.R %.6XaX(.r.r.&.&.) @.y.P.",
"b.B.v.B.:XcXmXMX9XN.4.&.&.t.W.oX#X$X(.A.hXLXLXhXA 2 G T } 3.W.*X^.%.F T Y Y R !.CXN.G d l v W j v $.!.h.| (.CXrX0X0XjXkX8XS.1.1.&X;X$X1X8X8X4X(.}.3X4X3X7X5XwXrXJXvXC.g.M.`.6X3X~.~.Y.'.].7XP.T l.Q.XX5.' R O.I.sXBXrX8X1X<XqX8X~.X., = = C ] 4.^.^.W.g.~.uXFXuX`.P.@.) e.y.j.!.",
"jX9XZ.v.Z.#XB.1.1.3.X.g.g.h.!.M.b.N.N.S.NXLXUXZX:.A b.l.o.g.^.%.! U f I Y U U l.>X1.d q g v g 9 f ^.3Xg.| g.%X9X9XNXmXMXjX-Xb.<.b.C.%X%X%XwX1X<X4XeX3Xg.r.x.(.qXDXxXm.O.@.U.E.^.^.^.^.^.^.].l.F f F $.4.+.~ g.6XDXbX0X5XwXqX=XP.| F 9 - e T  .g.h.z.`.4XeXBXFXFXuX<Xr.( ) #.J.P.",
"GXjXA.2.>.[ B < r s d T h.^.(.oXm.m.N.D.mXIXUXHXG.A 3.3. .R U q g v v a Y ~ F T X.G y 7 p l g g $.@XuX+Xo.| V.0XcXMXMXNXjX-XZ.b.k.(.(.(.+X4XwX1X3X@Xz.R F R x.3XwX+X%.l v ! #.&.j.^.^.P.l.I.h.T C I E E v Y t.7XVXuXrXwXwXwX(.O.V d F ' b.N.k.X.' z.3XeX6XeXuXBXaX/.e.) e.p.J.h.",
"GXhXG.7.A r , - t s e 7 o.+XqXrX1X+XoXS.cXGXJXZXA.P G R R f 0 w v n h w v E E E U l q 8 v E I E k.rXDXvXV.>.m.kXNXcXMXjXF.:X-XZ.m.(.(.(.`.}.4X+XW.l.%.H y F r.Y.(.%.U w w n ! @.y.K.P.4.h.L.P.h.E E E j w n t./.BXrXxXxXnX8Xm.K r , X.qXVXlXN.G R %.^.`.^.).@X4XP.^ U ! e.p.t.x.",
"9XhXAXF.A < r u j S e 7  .%XxXyX8X8XoXv.v.B.A.A.2.H F +.I a w / / n w 0 a I Y b ) b p a ( 4.$.4.(.;XvXVX:X7.Z.;X-X9XkXjXjXjXjX-Xn.n.).).^.'.z.x.3.o.%. .d d ~ t.j.~ Y n n v v ~ t.t.%.%.h.L.^.^.&.%.%.a 8 Y K.|.5XqXwXxXVXcX9X2.1 ; 5.CXJXkX,.V T O.%.r.r.P.~.h.R d H %.t.t.r.~.",
"F.MXKXjX:.2 r V S T s e %.tXxXoXoX#Xn.1.>.K L [ H V G &.%.I g v a 0 8 a f p v ~ %.O.E +.&.g.l.Q.&X-XMXLXcXZ.B.1.B.+X9XcXNXMXmX9XN.k.z.Y.I.g.%.X.X.3.z.3.G V E #.t.t.t.#.e.e.t.Y.J.@.~ ~ &.J.I.P.&.%.4.E a t.|.4X3X<X`.1XVXLXLXA.= ; [ XX>Xb.B u X.).).%.r.~.^.r.3.n.%X%Xz.O.g.~.",
"ZXIXKXH.:.A J J Z T G e T OX&XN.N.M.,.X.,.6.5.3.] u C %.&.R d 7 5 ; 7 s g 9 ' ).OX(.l.l.l.W.oX%XqX9XcXmXkXS.5.K ..Q.tXlXMXJXVX;Xg.y.a.[.`.l.3.' ..3.M.k.[ ' %.&.t.P.J.J.I.Y./.7X^.@.U I E &.L.4.$.&.h.4.E e.].4X/.j.u.M.vXPXLX:.1 ; r { X.G u C Q.CXqX3.g.~.^.P.@XBXJXBXC.o.z._.",
"KXKXjX7.:.b.Z.8.9.{ G r V 4.k.5.5.X.V G X.6.5.5.~ q 9 p z g q 7 6 ; - 9 p G n.>XrXqXOXn.k.Q.%XyXyX$XS.Z.N.oX(.| ' l.@X%X;XrX=XW.&.a.a..X`.z.n.M.n.<.<.k.1.,.3.%.h.I.].].]./.`.|./.h.+.T F E $.$.L.].3X).R n K.4X/.z.z.1XVXJXF.2 1 , , d E F F g.sXVXyXh.y.z.h.t.Y.sXDXvXC.r.'.`.",
"GXNXF.7.7.-XCXyX8.X.G < - s ] 1.Q.5.' ' X.,.3.&.E 9 ; - 9 I I I g - - 9 C 3.(.tXxXqXm.<.5.Q.+X#X+XN.' V R l.*X).x.z.I.~.x.<.| ! @.p.T. X/.j.k.~.(.k.k.n.n.n.x.o.%.J.).3X3X|./.Y.P.Y.^.] f I } +.L.7XsX*X .w v l.W.@XqXVXJXMX7.< , , 8 v E E E %.eXtX).r.) @.e.w.y.5XBXuXC.c./.~.",
"hXhXF.7.7.:XjXjXv.>.Z , ; 7 G 3.!.L.6.6.3.$. . .f , , r T X.R { T e , y ] q.M.1X0XV.k.X.3.5.b.b.5.[ F d F O.P.^.^.^.`.P.&.( v x / a.^.`.I.%.o.x.S.#X$X#XD.Z.M.g.R T t.Y././.Y.r.g.Y.I.+.+.$.+.+.+.6.4.6.I 8 7 u C { 6.N.,XZ.Z r B g n Y E E E 4.Y.].t._ / _ ) _ e.`.nXBX1X~.~.j.",
"7.G.A.7.7.A.A.7.L B B A J Z V $.l.W.l.5.l.3. . .C G X.n.Q.,.J ,.,.V u d T $.n.+XN.k.k.X.o.3.3.' V ' @XtX#Xk.%.r.P.3X5X_.z.%.~ ) E.^.Y.Y.h. .,.S.jXjXjX:XF.Z.n.5.E f  .z.P.h.t.%.g.h.%.%.h.J.&.+.T s e e 9 9 9 9 9 9 , = * * ; e C I Y Y Q / Y ! ( ( ! ` w.e.e._ @.W.yXtX@X~.z.g.",
"B.A.F.jXjXF.v.:.L :.A.lX-XL N T X.W.Q.l.6.$. .T 6.&X>X%Xn.5.5.k.b.T y g F ] W.*XW.k.z.k.3.3.3.G B x.BXLXLXyX| H z.dXeX`.W.h.t.T.7XaX6X'.o.o.oXvXGXZXMXNXjXA.b.W.%.R L.3X@Xh. . .P.~.h.%.4.&.$.} T f 8 5 9 e u C Z D e - ; - e S E ] E v n b / ` _ b m M M _ e.) @.r.x.z.j.h.r.j.",
"b.A.NXIXUXNX:.7.F.AXZXKXhX0.9.5.k.x.n.,.G F F C ' *X>Xk.7.A.-XrXoXZ 9 a I  .l.L.L.l.L.L.l.l.Q.Q.B.#XmXJXJXlXQ.' X.].7X).!.L.h.U.<XBXsX'.O.g.yXJXKXKXZXMXNXD.m.l.3. .I.4X*XP.~ T P.7XP.@.h.h.+.+.E a 5 5 t u e s D $.$.] T W q.].^.P.E v n b #.p.R.#._ n ! j.^.j.y.j.j.u.j.Y.Y.c.",
"B.B.MXUXIXhX2 0.jXNXjXhXG.7.-XyX=XW.k.[ G C d u d ' ..J Z.vXvXkXb.V d f ] 4.$.4.L.L.4.+.}  .5.aXJXkX:XD.#X&XOX$.I E &.I.).).P.y.'.6X7Xc.u.x.8XDXJXJXNXjX9X#XN.x.X.F !.eX4XJ.Y l %.[.Y.J.h.J.&.*.f 8 7 t t e t t s Z X.8.8.q.).=X[.I.&.&.%.t.Y.*X@X^.K.~ h.eXBXiX<X<X<X1XwXrXrX+X",
"S.S.jXLXKX0.& 2 7.G.G.H.F.A.D.;XyXQ.3.3.5.o.' ,.,.B 2 B.kXzXrXS.X.V l +.4.4.4.l.%.I a w w j R Q.BXVXkXXX5.n.L.q.v 0 v J.3XsX4XC.Y.I.h.%.l.W.&X8XkXyXD.Z.Z.%X%XoXo.F W.aX~.E b F +.p.&.t.J.J.&.#.E S f p 9 e s t e 5 e Z ] 6.$.%.$.( &.!.=X].`.uXuX1X~.x.@XVXDXnXrXuXnXBXVXVXVX1X",
"0X8XjXKXZX0.% > A :.:.Z.:XB.b.&X%Xk.K >.n.x.Q.yX>XN.L %X9XXXb.>.R T F %.!.).].3.v 8 7 8 0 h j I 3.>X>XW.X.3.&.&.I 8 w +.*XBXBX%X!.J. . .P.!.W.k.Q.&XOXQ.Q.>X6X). .$.*X6XL.U Y ( &.J.J.J.&.t.J.t.%.4.$.C e 9 e s 9 5 6 e C T W } E I ~ !.aX4XM.+XrXqX@X(.qXVXbX0X0XbXnX0XrXxXiXV.",
"jX9XVXKXZX7.% 1 J J A L v.f.k.M.S.f.V A 9.1.+X:X&XZ.8.7.L G ' l.^.R F $.!.OX!.$.p 8 0 w j j j j E h.!.h. .+.+.} W 0 8 a l.xXBXyX4XI. . .^.!.%. .+.4.W.W.x.g.l.$.Y P.*X^.h.( +.=.&.I.I.I.P.].7XT.J.P.h.+.I 5 ; e e 5 6 e 9 t a W E E Y t.].).5.g.+XwX5XC.+XbXbX8XrXVX8Xf.C.+X(.x.",
">.B.VXIXGXD.B i ' >.L J ..o.<.1.2.2.A H ..2.8.1.2.7.,.J V G ^ U.J.E C } +.] I S g g j j j n n n n b v T S v Y } +.v 8 7 I n.>XCX=Xg.+. .J.J.+. .v e d R R T I f n =.{.U.( n Q Y ( U.{.I.^.dXsX7Xz.z.P.4.] - * < u r 9 5 ; * 5 0 p W ] %.l.3...' x.qXqXW.M.1XrXrXiX1Xm.| ^ g.k.g.",
", J #XjXF.9.B V { X.[ <.k.m.S.S.A.v.>.L ....[ 1.Z.2.9.J Z '  .%.R G y y p 9 9 p T j j W Q Y n n m m n j j h n Y *.+.0 7 v +.h.).P.%.+.] $.&.*.E v q p f R E ( v Y / i.#.b 0 0 w #.U.s.a.U.].7X7X*X~.~.^.3., * r Z D N = # # ; - 8 I $.h.l.3.X. .o.W.).W.h.x.(.<X3X(.k.O.U %.(.g.",
"9 N J N N = = Z { T G b.$XvXmXMXjXB.>.9.K H H XX>XB.1.J H <.%XyXm.<.H , , 9 s C E W v Y *.Y n m Q Q Q m c h w h W v p 0 w w Y ~ ( +.&.J.&.@.#.) ( ( p.I.I.J.#.( *.( w.w.! w 8 w -.s.i.=.s.J.P.].7X).*XaX>XJ ; r { { u ; = ; - 7 p I &.!.W.l.3.'  .o.%.O.O.O.g.P.3XwX+X%.U g.@XQ.",
"V 7.b.{ : = ; r T ] 3.b.D.vXZXGXNXB...>.L u V 8.&XN.5.J K +XBXVXVXkX$XK i e e g W v v W ( j h h h h h h h 0 0 8 0 w 8 8 8 0 U O.Y $.4.J.e.e.t.#.p.U.^.].Y.P.t.@.&.p.a.K.T.#.c c _ i._ _ _ _ &.I.W.x.(.eXeX[ r V T I 9 r T { D f I ] 4.!.W.l.3. .+.%.$.%.@.O.h.^.5XBXyXk.| x.oXqX",
"2.mXmX8.: = ; B ' 3.~.M.m.D.jXmXNXD.2.1.,.V V J b.OXb.Z H C.tXVXmXzXrXZ.[ u , 9 p p g S Q j 8 5 7 5 5 0 w w 0 0 w 0 8 7 p v 4.OX!.W.3.) M ` _ #.) #.K.^.I.h.%.t.I.T.Y.*X6X[.` / _ _ ` ` _ _ #.%.&.!.W.J G Z u u D C - u L.!.+.a j +.4.l.l.l.g.%.$.4.3.%.%.%.j.].uXBXrXk.g.+X%XyX",
"#XLXJXv.1 < Z 5.Q.%X%X#XB.v.0XVXSX9XB.1.[ G G G X.W.5.G H >.f.D.2XS.$X8Xn.J 9 7 , 9 t j n h 7 5 5 - 5 j *.} Q Y n I &.J.@.%.).aXaXW.O.z w n b ` ` _ U.K.J.J.h.h.I.^.!.@X=XL.( ( _ _ _ i.i.s.E.Y.[.^.] , ; 9 9 t Z e - T =X*XE g I *.L.l.n.n.M.g.l.l.4.4.l.g.P.*XeXeX(.k.+XuXrX#X",
"m.VXcX7.K X.,XqX#X;X8X;XZ.Z.kXVXJXVX$X[ F ] ] ] ' X.X.' | ..<.B.b.>.f.%X+X3.F q y q 0 w w w w f a 9 5 E {.L.} W j E [.7X).h.z.@XOXl.+.v v / ` ` -._ a.K.Y.^.I.j.j.I.!.@X).@.v Y ( =.=.=.#.R.7X6X>XW.V 7 - 7 9 t e - - ] !.$.g p Y p.P.W.n.n.Q.W.l.4.&.4.$.] +.h.^.`.g.n.yXyXD.2.",
"| 5.2.L X.!.,XN.b.b.S.1X+XoX;XcXmX0X2.r e T E +.%.] ' ' | o.3.6.[ K k.oXOX5.{ X.6.R g w 0 w n ( / j 9 +.^.] y p f I L.=X).l.g.3.6.&.#.&.U.U.i._ ` p.U.Y.^.*X).l.x.I.!.).Y.~ a j ( &.=.&.&.J.^.OX=XW.C t e p s e 9 9 t T +.v g g v +.P.).OX(.(.W.l.h.h.$.T f f s C o.f.S.cXjXF.A.",
"6...P P L L ,.>.H ' l.Q.Q.oXS.S.B.P i 7 0 v I R $.3.<.' ..3.<.o.2.<.k.m.n.3.3.L.W.3.U p q f I E +.Y I T T J B u p G [ n.n.).L.$.@.#.h.[.7X].U.#.! ) K.^.).*X(.C.~.W.W.~.M.g.| R 3.P.!.4.h.L.L.6.l.4.} W p t f p p I +.*.+.+.+.E h v &.].*X@X@X~.W.z.g. .f 9 9 9 e f X.yXJXZXZXMX",
"$XA.G.F.-XB.2.[ H G X.3.k.S.8X8XV...F f f I f G ,.Q.n.<.k.x.<.5.S.(.m.k.n.l.%.4.W.~.g.U l R E E  .@.+.] 5.qXrXD.b.1.2.<.W.].L.*.+.@.t.K.!.P.#./ n ! a.^.`.`.).`.'.~.W.+X1X8X8X+XW.).].I.P.I.J.} C I *.v 8 p +.*.+.*.&.$.$.I.[.&.v v ( t.Y.3X4X+XoX4X(.R p g s s s p ' yXVXVXKXIX",
"mXMXGXLXLXMX:Xm.....3.3.k.$XvXVX8Xf.' C C T X.n.oX>XoXk.k.k.b.+XrX1Xb.,.k.l.h.l.oX%X~.g.o.4.4.&.%.h.&.X.OXFXLXLXJXvXD...o.g.%.+.+.&.t.*.&.&.( v w n #.I.].].^.~.`.`.@XwXxXBXVXkX).).P.y.t.J.&.W f T E 9 ; e &.I.[.L.4.4.4.^.].P.#.( ( #.a.T.@XyXVXrXN.G e p C C f e d n.&X#XvXPX",
"VXKXGXGXKXKXMXD.m.n.n.k.m.rXVXvX%X>.G ' ] 5.OXyXlX%XQ.,...b.9XVXzX2Xo.H k.x.x.(.%X%X(.k.x.).).].].P.4.T k.VXLXIXIXJX#XH u y T  .&.&.@.#.#.+.Y v a w b p.[.].~.Y.^.).*X%X8X9XjX:Xm.g. .U g g I W &.{.$.9 - p &.I.].*X*X].^.~.!.P.U.&.#.#.w.y._.BXJXvXf.i 9 q g I W C s G G K m.mX",
"MXmXMXjXjXNXjX$Xm.N.oXoX#X0X9XZ.1.1.[ ' 6.n.N.%XoXn.b.1.v.kXVXcX0XB.K H | 5.(.qXxXqXoXB.Q.OXW.l.^.).X.V ' (.VXMXcXD.L i u d ~ @.&.%.+.#.&.#.&.J.p.( ! #.U.K.J.Y.[.).1X-XF.G.A.8.2.' F f s S R ] L.[.( w g I &.4.h.^.^.P.h.g.z.~.K.K.J.&.#.y.}.BXDXBXk.i y f g j S I f e 7 d O.8X",
":XF.F.A.2.:.[ X.<.B.#X;X-XS.1.L [ ,.3.,.X.[ K >.8.b.b.Z.rXJXvXG.A.1.H u r H m.>XzX%Xb.n.Q.n.X.F +.L.l.' K K J A B A L L [ X.%.%.*.*.*.@.@.&.J.P.^.P.p.t.J.J.P.J.g.M.zXKXKXNXD.m.9.[ ' $.q.!.L.3.h.P.~ I %.P.4.3.%.h.t.+.R %.!.^.Y.^.^.I.t.t.'.6XBXwXx.| o.%.T g S I U f w ! y.<X",
"-XA.A.7.>.K d F <.%X8X:X;XS.,.G J ..3.X.[ ' ' [ b.Q.N.9XDXJXA.P J ..H K L L >.m.$XN.,.>.X.' d q f  .l.5.X.X.R u V [ oX&XXXQ.l.4.#.#.@.&.&.3.~.4X*XW.j.P.I.P.h.%.^ g.tXLXIXHXjXF.A.1.X.W.>XaXOXl.h.%.X.8.yXtXn.[  . .E l f h.6X7X].].3X].P.J.Y.`.<X4XP.X.h.h.T p f f U Y ! y.T.`.",
"b.7.8.8.k.X.V F Q.CXvXkXkXN.[ G G X.3.l.3.<.3.W.OX&XZ.9XmXjXL < 1 < J ;XVXMXA.7.7.b.5.[ G V y , d %.W.l.6.6. .F s X.eXtX%Xn.3.$.+.&.&.t.%.g.=XBXtX).g.g.h.P.P.%.+.] k.8XNXMXMXjX:X7.>.(.CXaX).3.+. .(.tXDXbX&X,.T F v v T J.6X7X3X}.3XY.t.h.P.T.|.`.P.+.^ ^ I f g a v ~ p.R././.",
"1.k.XXXX3.R C Y N.zXtX1XoXk.K J ' ' g.).W.5.5.Q.%XZ.B.oXqXN.Z : < ; r :XGXMXjXZ.L L <.l.5.6.| F F %.z.5.<. .U w s F l.).l.+. .E ~ ( %.&.g.(.lXVXxXoX<.] $.L.L.L.L.3.] ,.1.B.#XjXXX1.L k.=X=XW.%.E $.yXmXcXkXS.X.F F I W } J.^.).~.'.`.J.@.p.K.Y.^.3X`.z.O.R f j g 0 w ` T.3X7X'.",
"m.V.$XoXH u s T OX;Xv.v.2.K ' Z ,.X.| H ..G X.n.Q.b.J V ..X.G B r r , A b.:.L 9.u u ' k.OX>X&Xk.{ 3.).l.X.R l v T E %.$. .f a U U E E  .I.7XtXyXm.x.3.3.$.$.$.h.!.P.4.6.' F | m.n.3.T ] L.!.q.} E  .qXLXJXjXA.,.G C T ~ *.&.J.K.^.^.P.t.e.a.K.Y.T.].iXeXM.X.F p j c n #. X6X3X<X",
"D.kXkX1.= = , T L.8.2.2.Z.%XX.V 3.M.H r i H 3.l.4.T y i i V C C H A J K r , = = ; V T ' XXlXyX-X+X&XqXn.R l F I #.t.&.+.I 0 g n E E +.*.J.].).1.G X.Q.qXW.X.R  .!.).W.5.' F  .W.&XM.[ [ 5.b.6.] T G 5.DXPXJX:X9.V d v Y ( ( #.a.^.|.^.t.) e.I.I.K.|.sXBXeXh.g 8 w n / a.3XwX1X`.",
"cXVXD.B % = , V 3.&XB.B.#X&X<.H <.M.2.1.1...3.%.E g R 3.G u u y L ;XlX>XG ; * = e T ' ' oX9XyXlXbXvXlXoXG p I E &.p.#.( j a Y @.#.+.*.&.#.t. .V R n.>XCX;X,.G O.r.K.P.L.&.4.x.oXyXoXn.Q.+XQ.n.l. .y B D.LXLX-X,.F l v b / *.p.K.I./.^.t.U e.].~.t.h.).*Xh.E a w c m ` Y.eXBX5X'.",
"yXB.A * : A ,.B.&XkX-XA.Z.n.1.K k.m.+XyX;X1.6.X.I E W.%X<.r e d  .,XlXN.r - - r S ] $.6.3.b.#XtXvXvXtXrXn.G p w I Y ( Y Y ( T.[.J.&.*.*.#.( I f 4.&X;X:X#X6.] %.%.y.Y.`.).OX%X9XkX;XyXxXrX+XQ.L.$.C 9 A #XCX%X4.+.~ Y / #.I.I.J.P.P.j.@.! P.6X(. .F d p l l v / / b ) /.BXBX@Xc.",
".., * * [ ;XlX9XlXNX9X-XZ.1.<...1.#XyXkX&Xn.] C U z.CX9X8.Z G 4.J N < : : = r Z C G ' ' Z ' b.Q.Z.Z.Z.;X+X,.9 7 9 s I v Y ( I.`.J.&.&.&.@.( U I l.4X;X-XN.5.*.#.=.&.c.wX0XwXtXxXzX8XtXuX1Xm.3.{ T s e s X.l.3.$.&.h.&.&.t.[.[.K.L.P.h.@.@.^.dXtXh.F d F r.I.].].) l +.].sX5X_._.",
"r ; * < Q.yXkXA.D.-XjXzX;XB.k.5.N.;XkX:XZ.<.R s R tXVXkX2.B { G r = % = : < N r u Z G J V G { G V ,.#X;XN.<.r = * ; 9 w n Y +.4.t.t.h.4.+.~ U T l.tXtX#Xm.%.*.#.#.~ t.).).~.'._.~.z.W.W.3.X.T p p s p p g S E ] h.].].!.h.K.p.@.&.I.L.%.+.4.*XCX*Xg.%.J.3XsXsX6Xe.v &.[.|./._._.",
"t 7 - r ,.N.Z.7.>.v.9XlXA.8.XXXXZ.#XjX:XB.X.R I ' #XVX:X:.u - * * = < B A N < : B [ n.b.X.[ ] C V 6.qX;XN.OX6.N ; = - 8 c Y ( #.K.!.I.h.@.^ F T n.tXVX8Xx.O.+.+.Y b ( J.&.%.%.3.o.o.3.3.<.x.g. .s p S j w 0 8 g &.].6X`.z.@.U p j $.&.*.E ] l.@X7X[.4.P.7XaXpX_.U U a.E.E.Y.}.wX",
"y p 8 9 V [ k.b.1.f.N.B.L L 1.b.m.Z.9XvX#X[ H z T l.&X#XN.>.< % % < 2.#XZ.A : < J n.N.n.[ { ] { J n.@Xx.n.>X>XZ.8.7.L V I ( ( #.I.].P.h.&.( f f  .OXsX4Xl.+.( ( b b ) p.t.h.~.OX@X4X%X$X;XyX@X%.g a Q Q j j 0 l J.@XtX4Xl.l , 7 8 8 a ~ Y U ] l.h.p.t.&.h.*X6Xz.g b s.R.R.y.'.iX",
"$.4.E Z T X.N.XXB.B.b.>.J L >.m.oXS.jXJX9XL < < F %.Q.>X>X+Xv.:.N J Z.9Xv.B < A N.&Xn...G ' ] ' T T ] F d ,.%XtXVXVXjX2.Z T +.4.!.!.l.L.h.*.I a l  .W.^.h.+.( ( / / p.U.#.t.].6XeXeXzXBXVXxXoXX.g v Q } } } +.h.J.3XuXrXW.F 9 9 w 0 l ~ +.4.).W.X.] &.t.@.j.|.T.v l #.U.t.r.`.tX",
"OX>X3.J G U 6.n.b.n.n.,.,.b.-XVXmXNXMXGX-XB ; , d @.!.>X9XyXzXjX2.L v.B.L 1 B b.rXzXB.Z u F R E R ] I p 9 r >.;XjXvXmX-XL J 6.6.P.P.h.P.J.%.~ Y z l Y ~ ~ ! / ( _ _ p.p.#.h.P.h.n.M.+XxXVXyXN.g.] ~ ~ } *.I.].3X/.`.tXVXnX~.| %.h.h.y.y.h.W.4X+X{  .a.#.! @.^.|.t.E @.t. .O.`.CX",
"%XqX<.u 9 7 d ' X.<.x.k.n.%XkXvXmXZXZXNXS.B ; , s +.3.n.#XyXvX:X>.A B B N 2 J &XVXVXZ.A u C R  .4.4.] C 9 , B 9.7.A.-X;Xb.G | r.t.J.h.^.].P.O.@.@.( / Y b b / _ _ i.#.#.p.P.h.o.l.P.z.(.8X#XQ.Q.W.+.E Y ( U.[.@XV.1XVXJXDX@Xz.@XqXaX*X!.l.(.tXrX5.O.#.! n ( [.].p.) @.&.@.@.z.4X",
";X4XK , , u d V J 5.B.B.S.$XS.b.9XDXmX9XB.L B u T ] ' <.oX9X9XD.1.B 2 2 B < < >.9XlXN.G s d R +.l.6.X.Z e u r < : < 2 >.#Xb.|  .%.h.P.).*X(.x.l.J.#.Q v v b ` #.=.p.i._ t.^.@X%XP.P.r.u.x.S.;XyX).+.W Y ` e.h.Q.oX%XlXmX9Xl.3.4XCXtX!.$.] W.DXJXkXf.o.~ n ) {.U.) ~ ) #.t.@.%.z.",
";X@XK , K N.k.>.,.N.V.B.S.$XZ.7.G.jXjXD.B.k...' | ' ' x.%X:XF.$X$Xv.7.2.B = * r [ b.X.F p g ~ %.o.X.T B s s - ; - , A 2.D.:X1.' | 3.W.W.N.V.M.M.).K.( a v b b E #.s.s.e.t.|.sXBX4XW.r.z.+XxXVXkX6.I v Q / #.).yX&X&XQ.>.i 9 I !.*Xl.E p I 3.VXLXVX+XW.&.! #.U.i.@.( %.h.h.t.%.3.",
"&XW.G y x.CXrX1X@X+XoXB.S.kXlX9X-X0X:XZ.m.b.b.b.<...o.V.9XjXA.B.8XvXvXD.2 = , , , y u y 9 p E +.G i y 9 9 , = ; = < D.MXAXhXA.>...<.M.(.oXoXm.g.5.h.@.R E @.( ^ ( p.s.e.O.z.`._.M.~.W.W._.BXFX8X3.U I ` Y +.*XlX).n.X.G s l *.&.U d d g E  .&XlX8X4X].P.#.p.^.T.t.@.h.l.h.t.t.%.",
"3.3.R F x.lXlXuX8X#X#XB.m.9XVXDXzX9X9X9X#XS.N.Z.Z.oX(.$X9XjXB.2.A.mXJXA.1 1 ' G u y d d 7 9 T ] G y 9 , , , - 9 ; : 7.KXIXIXZXhX:.2.n.%XtX8Xm.k.[ r.K.h.&.I.T.h.t.#.) ~ E O.O.^ o.P.L.l.l.(.eXqX~. .F W v Y g.m.<.<.<.o.%.I.I.] C F  .h.4.4.X.X.5.l.L.J.( @.P.).J.r.j.l.P.t.t.h.",
"F E ~ +.j._.%X+XXXN.(.x.f.2XjXjXjX9XrX0X0XF.9XjXjXjX9X:X9X:Xv.P 1.jXJXF.:.B ..l.[ T ] R d V <.k.X.6.1.[ J i < < ; % 2 jXIXUXIXZXG.2.N.>XlX:XXXn.K x.`.P.%.].dX/.y.h.o.R | O. .H F 5.W.h.%.M.=XaX=X$.f p g f F o.yX+X<.R J.P.~.g.+.#.J.).).P.&.t.P.J.@.@.+.*.4.P.z.z.x.g.h.L.J.J.",
"G  .&.&.%.o.| X.k.M.x.<.k.+X$X$X:X9X0X-XjXcXMXmXMXjX:X:X:XD.A.7.7.:XSXmX-X:.<.n.X.T  .%.R 3.4XqX(.4XqX$XN.2.L i 1 = 1 0.F.AXMXNXF.7.S.%XoXN.S.b.f.&XyXW.o.`.6X/.`.<X(.3.o.z.l.3.k.N.).^.P.z.(.iXuXx.H i F R ' OXDXBXg. .!.OXQ.M.%.+.%.h.P.t.#.I.[.J.( Y Y ~ @.y.I.K.j.j.j.h.z.z.",
"5.g.J.@. .R f U %.l.3.3.k.N.N.%XrX-XD.9XMXJXmXNXNXNXjX:X-Xv.B.D.D.F.SXMXF.D.1XN.3.' E  .R Q.CXlXB.;XzXzXrX;XB.Z < 1 2 P B A 7.jXD.A.oX$XS.B.m.f.C.lXCXQ.o.x.~.~.1XBXuX(.X. .%.g.~.~.~.~.Y.z.x.%XBXvXD.v.b.b.,.k.zXeXz.k.oXoXQ.g.%.E E @.) ) Y &.[.L.*.@.t.j.P.T./.^.`.`.'.'.Y.z.",
"M.W.I.+.I v j ( 4.&.$.4.b.n.#X8X-XD.D.D.:XMXjXD.F.jXjXjXD.m.v.v.A.NXKX9X2.S.;XoX3.$.R p f l.>X>X5.Z.rX0XyXyX1.< ; i >.k.H Z 7.jXjX:X-X8X-X#XN.B.+XtX%X3.o.g.j.'.<X6X4X`.<.y y V F ~ %.h.P.K.h.+XvXJXJXMXcXkXB.[ K | g.(.qXOXI.U.h.+.~ U ~ / / ( #.p.&.t.Y./.].*X4X1XtXBXsX`.z.h.",
"M.z.J.E f a v Y +.+.&.4.3.oX9X9XD.D.V.m.A.F.D.A.D.jXjXjXF.S.v.v.0XKXKXF.2.L L [ X.3.R 9 9 C ,.n.6.3.(.x...J u 9 , u J V s [ k.$X:X-XkXcX9XD.N.z.Q.~.o.H R %.g.W.(.W.k.M.W.X.F y 9 F @.P.P.j.c.tXmXMXKXKXJXMXS.<.^ F 3.*X@Xx.~ _ &.( ( E +.( ` v b e.e.j.T.T.^.].5XeXBXFXeX~.h.h.",
"z.t.( E l z z j a Y @.+.o.1XbXcX;X%XS.B.S.:XkX-XD.0XMXmX9XA.v.jXKXIXLXF.:.2 i i K ' G y - , u T ' C T T V r r y e e e 9 e 4.W.(.yXkXVXvX8XN.N.~.b.O.^ r.3.g.g.Q.Q.N.5.5.N.>X(.| %.z.z.P.W.M.$XvXmXNXNXMXJXMXD.m.%.%.4.W.P.O.l I E Y Y E R ( / v U t.h.P.T.K.t.&.h.^.].].j.O.^ ^ ",
"%.! b v a w 0 0 0 a l a T (.rXrX#XN.V.+X8XkXBX8X$X$XcXJXcXF.jXJXPXIXKXjXA.v.v.7.>.H V p 5 - 9 d C C T ] 6.X.Z u G d e , y %.).W.8XkXcX9XS.b.n.Q.k.O.h.4XeXqX%X%X+X$X$XoX#XlXkX%X4XqX+XM.x.M.S.2XcXNXjXNXSXNX-Xm.o.4.L.L.l.g.3.X.T I E E E Y Y v #.[.).^.T.K.#.+.+.` / ~ ~ ^ ^ ^ ",
"E x q 8 0 w 8 8 a v f p y | B.Z.1.P f.0XvXcXF.S.S.S.0XzXcX9XmXLXDXZXZXMXjX0XvXcXZ.J u y 9 7 e g s s C T $.6.G d G +.I 9 d P.*X).n.m.b.k.k.M.^.W.o.3.(.tXVXVXkX9X2XjXkX0X8XjX9XC.M.b.m.l.g.x.N.2XJXJXGXMXNXhXA.o.o.h.h.!.Q.@X4XW.$.+.] R U v v W #.[.^.h.t.a.i._ M M M / K.`.`.r.",
"v x x w g a a I U U T f e 9 i H H B 2.8XbXkXB.B.oXD.D.8X1X#X9XkXZ.A.0XGXMXNXNXNX#XJ u s y q e e p e e V { { V F $.$.T e g t.^.).l.x.N.N.N.N.Q.L.3.5.l.W.%XyXrX9XcXGXGXMXjXjX0XV.o.K <.g.o.o.k.xXLXLXJXMX0XD.k.X.| 3.!.).&XqX>XoXh.%.+.E I v j Y ( =.=.*.( e._ ` m ` d.E.sXFXBXP.",
"R %.h.%. .R I F F f f R F , , H | ..f.-XkXcXjX-X$XS.S.B.b.A.B.:.>.2.8XVXvXjXF.A.:.N r y g e 9 t s p C ] X.' C R } ] f 9 g ~ t.L.h.(.qXrXzX8XV.m.x.g.o.' X.m.%X%XcXLXUXLXmXcXjX0XC.b.m.(.z.g.M.8XmXGXZXjXD.m.k.o. .%.L.!.Q.(.W.k.h.J.&.E I v j Y n Q ` ` ` _ _ i.U.T.I.].sXBX7Xj.",
"n.>X>XN.<.' F q 9 9 y | 3.K H X.k.M.#XkXcXkXvXvX0XD.S.1.1.;X#X..B ..1.B.Z.cXMXZ.2 1 , e e 9 9 p d C $.4.3.] F T W W f p a Y E E +.P.=XqXqX%XoX+X#X#XN.[ H ' x.~.$XJXUXPXMXjXbXDXBXbXrXwX1XC.N.+XD.:X:X:XB.m.k.X.] O.%.h.z.W.j.t.h.J.h.+.E Y W v c m m M ` _ =.i.E.[.U.K.R.a.y.y.",
"4XxX%X<.H d y 8 9 e d ' M.oXN.m.D.;X:X:X9XD.Z.$XS.S.N.b.B.9X%X..< i B Z Z.cXJXD.< * ; , e S T S f I ] ] I C g g I I f f f f f f T ] $.K H m.qXzXAXvXjXB.K G X.5.x.1XDXDXzX2X0X8XrX8X9XwX%XQ.b.5.k.b.B.S.(.N.5.' F R E +.h.P.h.r.t.t.h.t.&.&.+.v w h c c / i.s.i.) / ` e.e.! ) h.",
"%X%XC.| F i y q d F G 1.8XzXyXyXkX:XD.v.B.V.m.f.1.k.m.V.B.V.Q.G , = ; r 2.:X9X2.; = , u F &.J.] C C I C g 0 g j T C d C F I I I T S s , , X.yXVXJXJXjXA.1.<.g.l.P.C.2X0X2XV.V.N.k.k.m.V.(.x.| ' X.<.3.k.n.n.3.X.R E E +.P.I.t.@.e.t.J.Y.[.T.t.Y c h w c _ p.s.i.M w n U.E.e.i.p.",
"(.N.k...H V V G R ' <.oXtXrX0XzXvXcX-Xv.f.b.1.,.[  .z.oXv.x.~.X., = = 7 < B i B B Z X.4.4.4.%. .C F T I g 8 g } $.T G ' { T ] T E E S q 9 V 8.CXLXKXjXv.f.M.(.(.(.@X5X4X@Xc.z.W.z.(.(.(.C.<.K H G F F K 5.N.M.3.g.%. .h.].*Xz.%.@.y.K./.7X].t.+.t.#.` ` =.p.a.#.` n #.6XaX~.J.I.",
"+X(.M.<.K H V T F ' n.%X;X$X#X$X0XzXkXD.v.1.<.,.' | g.5...o.l.g.T r 9 9 9 , 9 R 3.l.W.W.P.$.R F ' { ] T a 9 p &.!.6.6.Q.n.[ { ' E  .E I s , < n.KXLXMXD.v.V.%X%X+X1X5X4X`.'.`.4X4X@X4X4XC.m.,.B i d H X.k.M.(.N.W.x.g.W.4X7Xz.r.e.y.Y.^.].].j.r.K.I.J.#.=.=.p.#.( _ [.BXCX(.Y.^.",
"oX%X%XS.1.H y r u <.OX&X+XoXB.v.m.-XkXF.B.b.,...K | X.' T R o.x.x.o.G T I F U %.x.~.).W.l.4.%.R [ ] 6.R f 9 9 $.!.5.n.&XXX2.X.{ ] E I W j - * A vXJXJXNX-X$XwXwXkXrXwX%X~.'.<XuXuX4X@X<X1X+X<.H H R g.Q.N.M.(.oX&XOX~.~.`.^.z.j.a.y.K.P.I.`.^.j.U.T.U.p.i.=.#.#.+.e. XsXsX5XiXyX",
"1X8X9XyX%X1.r ; i l.M.k.n.k.k.<.f.Z.D.v.v.1...| | O.o.%.o.<.3.x.M.(.x.%.U I E @.j.Y.z.g.l.!.).).3.T { ] C e 9 s C { 6.OXn.8.3.X.X.E j v j 8 - f =XVXJXMXlXzX8XwXVXDXvX1Xc.z.3XeXiX3X(.4XsXeXM.<.<.<.C.8X#XS.S.$X:X$X+X+X(.W.P.K.K.K.K.Y.~.`.}.'.I.Y.U.s.i._ #.&.*.#.h.).4XwXBXVX",
"8X8X-X8X8X%Xk.B u ' [ L ..5.1.1.#X:XF.7.L J K X.g.x.g.l.W.(.N.N.C.oXx. .f d I +.#.J.$. .h.P.(.@XW.J B G ] f p q q C 6.Q.8.n.5.3.] Y v v n n W Y h.W.%XrXrXyX%X+X4XsXBX`.j.'.`.6X6X_.~.4X5X<X(.~.m.m.oXrX8X-X8XlXcX9X2X1X%XW.z.P.I.^.P.@XeXtX5X_.I.P.U.s.i.( #.@.#.` ( %.P.`.6X4X",
"rX9XD.S.V.1X1Xm.K V i r H 2.>.b.:XjXjXD.7.>.2.x.oX(.k.l.M.~.M.N.#X8X+X..d q f U ( +.R ] %.%.h.l.,.1.8X%XJ e p g a I 6.n.N.n.5.3.$.E W Y Q ` #.E n l F 3.l.h.t.&.O.j.Y.y.y.T.7XeX<X`._._._.`.`.'._.S.-XkXjX9XjXVXJXDXzX0X$XoXW.W.^.~.~.5XqX>X@XM.j.h.t.t.#.#.#.#._ ` ( @.P.Y.[.[.",
"bXxX8XS.v.V.$X#Xm.L i r B J J 1.S.9XlX9X-X#X#X$X9X$Xk.O.R o.z.(.kXxXyX5.H d F I R R T U E &.&.E V XXDXlX[ V p v T ] 3.5.5.3.3.$.,.] T E #.&.q.$.Q j w w v b _ ) n z U e.K.Y.eXeX|.3X<X@X_.(.c.'.1X0XjXjXjXjXNXmXJXSXcXrXyX1X+X`.`.~.c.(.`.~.g.%.t.K.p.e.#.#.#._ =.#.a./.].Y.K.T.",
"cXcX8XS.v.B.D.:X#X2.A H H V i L f.D.cXkXtXrX8XrXzXwXM.g.| O.g.(.rX;XoXk.<.%.g.z.3. .| E U U F y 9 5.CX>XJ r f W ] $.l.3.X.3.L.h.$.&.+.*.a.I.[.P._ / j 0 c _ p.#.b a / a.K.Y.3X5X3X4XwXqX4X`.j.'.wXVXVXMXNXNXNXNXcXjX0XrXuXwX%X<X1X_.x.x.x.z. .T b / #.#._ #.=.i.#.( K.6XdX^.j.T.",
"rX9X#XB.m.D.9XNXF.7.B L L B B ,.$X9X0XD.V.S.#X0XvXrX+XM.o.f.oXwXV.b.M.m.(.(.=X=Xm.m.x.%.T y , - , , s s e e f W +.$.L.<.' O.4.L.I.U.*.( _ U.].{.#.( / W Q s.U.#.b b w.i.a.K.R.}.`.3XuXeX@X/.j.c.wXDXJXJXmXMXcXjX8X$XV.1XiXwX%X1XrXwX+XC.x.W.W.3.~ U ( ` Q _ s.p.=./ a.7X7XT.y.Y.",
"0X8X#XV.V.-XmXKXNXG.2 L [ H >.oXzXvXD.f.f.+X0X0X0X8XqX(.m.1XbXcXV.k.M.m.M.n.n.1.m.4X@X<.L K 9.A = * 9 7 9 9 a } %.l.OXb.' F I +.( _ / Y ` i.U.#.Y Y Q Q b / ` M b w.i._ a.R.a.R./.`.5X5X`.P.r.j.1XbXDXJXJXmXzXrX%XC.x._.wXwX1X8XvXDXxX1X+X+XqXCX4Xx.@.Y M _ s.U.-./ e.T.T.R.K./.",
"$X+XS.B.v.0XLXPXLXF.2 L N.XX#X-XkX9Xv.f.m.+XrX8X_.C._.V.1XbXJXJX0XV.m.m.m.k.o.H 1.%X(.K L ;XLXcX2 * , 7 7 7 8 C 4.OXtX%Xl.U w w h M Q Q / _ ( Y c c b Y z w x c n _ e.( #.p.y.a.T.`._._./.K.r.K.<XiXzXmXmXzXwXwX@X_.x.M.%XwXyXyXxXxXuX1XV.+XyXDXDXrXx.Y ! _ i.a.i.` w.e.t.K.Y.`.",
"N.C.V.m.v.jXIXUXUXhX2 A ;XvXkX9XcXD.V.m.oXrX0XS.x.f.g.x.wXDXLXJXvXS.f.M.'._.V.f.f.b.8.J 2.JXUXUX7.: , y 8 5 5 8 { !.=X*Xl.Y x w w c ` _ ` M b b n ( p.I.J.+.^ E ^ u.t.#.#.#.j.`.K.Y.`.<X/.R.K./.}.5XuXBXuX+X_./.(.`.~.z._.4XqX8X+X(.M.M.m.S.rXVXDXvX(.@._ -.p.&.p.p.#.#.e.Y.].*X",
"N.(.M.k.N.cXLXUXUXhX3 1 1.#XoX#XkX9X$XD.D.8X$XZ.x.x.g._.rXbXFXuX1XV.k._._.wXyX8Xm.k.5.J :.AXUXUXv.1 , y e 7 - r C R  .%.%.E n w h n _ =.#./ v x / #.!.4XyX%XoX%X1X@X^.p.#.K./.'./.`.1X5X}.}.}.<X<X2X5XuXrX+Xz.c.).4X@X~._.<X<X+XV.N.1.5.Q.+X-X9X8X#X(.h.J.U.K.j.#.t.p.J.Y.`.3X).",
"m.N.C.N.$XVXPXIXKXG.2 1 B K ..k.S.8X8X-X0X0X:X9XkX$Xm.4XuX1XN.B.(.k.3.X.k.N.9X:XV.m.1.A A 7.ZXKXA.2 < V s 7 ; - p g v v E Y b c c m =.p.I.K.t.t.p.&.n.qXvXkXkXVXDXrXx.@.t.K.[.`.~.4XiXrX0XwXrXxXwX<X}.5X4X(.h.j.P.`.).(.+X1X<X<X1X1XV.m.N.B.m.k.k.x.~.).*X*X~.h.r.t.&.P.4XsXeX!.",
"f.M.8XtXkXmXJXMXF.:.P L G H K G K m.8XzXcXcXcXJXJXD.P ..[ B V ,.5.k.5.,.>.b.Z.Z.D.b.7.A A >.D.NX:X:.2 , = * * ; 7 z O.O.@.( / b c / =.J.[.6X3X`.).z.m.8XbXbXNXmXDXrX..F t.U.K.'.~.4XFXDXzXzXBXBXnX8X<X}.'.h.r.t.r.Y.`.+X%X%X<X2XwXnXbX9XB.2.' G T $.h.!.].3X*X).j.@.U O.`.aX`.| ",
"x.V.zXmXkXkX0XA.2.L 1.5.X.' ' i V g.@X4X8X9XmXLXVXv.1 % = = G 6.....M.5.[ >.b.A.F.:XA.:.A 2.-XNXMXjXP * % % * : i >.V.C.g.@.+.Y b _ p.t.P.`.*X@X4X4X2XrXSXmXjXjXcX$XK l ) p.K.y.z.eXDXJXbXjXrXxXbXuX2X'.y.@.y.y.j.'.3X4X1X%X+X1XuXDXLXJXjXv.K F I Y ! @.j.I.!.^.L.~ w a ~ h.%.F ",
"V.V.0XcXkX$Xf.L K ..X.F u d V i u ' %.%.M.8XmXDX2XB % @ # = R  .H G ' J >.1.2.A.MXGXMXG.A :.F.MXJXAXA : 1 B 2.Z.jXmXmXcXV.<.| F U t.t.t.j.P.P.z.@XiXBXDXDXmX9X;XrX%XO.U ) #.t.y.y.`.xXVXzXrXwX2XrXuX1X_.y.u.a.K.Y.`.3X4X<XoX+X%XzXmXJXKXGX:XB.n.4.T a n ( #.*.I.I.Y w w a v %.x.",
"D.v.D.0X8Xb.H V X.o.R d p F R K H d i 9 H m.$X-X:.1 = - , r V u y i V L b.b.:.D.ZXKXZX:X:.A v.vXKXF.0.v.jXJXKXLXKXLXKXMX9XV...V R J.K.t.e.@.y.^.4XxXBXVXmXkX8X1XeX4Xh.@.e.e.e.y.y.z.(.1XiXuXpX<X<XeX5X`.c.y.K.K.P.'.@X1X1X#X+X$X8X9XjXcXmXcXjXzXqX| g a v v E J.I.Y x w w g z.eX",
"0XG.D.$Xm.P i H X.X.] R R  .%.%.X.' r , 9 u J A < r u C C G C C u u G ,.6.A B v.9XjX:X7.>.L 2.kXZXNXF.NXZXHXHXHXZXGXGXZXNX8Xk.K E P.T.a.e.@.%.~.tXBXvXrX0X2X_.~.1X*Xl.%.t.a.t.y.K.Y.~.`.3XpX5XC.'.3X7X3X'.Y.R.K.R.j.C.wXVXbX9X:X%XoXoX%X8XkXmXJXkX>.d Y ` #.&.a.a./ n w 7 d (.BX",
"jXG.v.f...H K <.3.R F +.&.h.h.+.' X.V , , r u V G X.X.[ ' ' ' G K V V K B < B L 1.b.2.9.>.>.>.$XlX8XF.zX9XF.F.H.F.F.NXNXcX0XV.<.X.z.T.K.e.) @.@.).=X1X1X+X~.z.g.h.j.O.e.K.Y././.`.<X3X3X<X3X}.Y.'.}.iXsXiX5X`.E.K.K.~.wXDXLXJX0XV.(.~.W.(.1XbXMX9Xn.R &.U.s.=.p.e.#.` n E g.1XVX",
"G.2.1.<.X.,.3.z.l.G F  .h.P.%. .' G i < < r u J X.,.,.3.,.' ' X.X.H u Z ' [ K ,.B.#XZ.8.,.9.,.1.7.v.S.Z.v.v.v.v.v.A.2X0X0X0XoX<.R P.Y.h.a.K.t.e.j.h.g.x.M.M.z.h.r.r.r.Y.`.@XwXxXtX5X5X5X}./.R.R.R.}.pXFXBX2Xj.j.c.'.).$XcXLXLX8Xk.M.j.h.^.3XtXyX+XW.P.T.p.e.i.#.J.a._ e.].yXzXmX",
":.P <.W.l.5.l.k.%.X.T ^ @.| R X.X.H J 1.>.B N J [ ' { [ ..,.k.M.X.' Z J 6.n.5.1.#X;X#XZ.b.2.1.,.9.>.B.B.v.S.B.v.v.v.v.v.Z.Z.m.k.X.3.h.&.h.P.Y.^.t.y.~ O.z.).).Y.~.(.<X5XwXrXuXbXbXxXwX<X}.}.E.E.R.T.3XsXpXc.~ ! j./._.C.+XrXqXC.z.z.%.h.I.).@X@X(.M.l.+.! ) i.i.#.i._ K.dXCXxX1X",
"P A X.l.4.4.k.<.<.o.o.%.F 9 F ' X.,.n.yX#X7.2.B u J ..>.K >.x.M.<...>.N.&X7.L >.N.S.D.A.B.1.[ J Z ..N.S.2XzX0XD.D.v.>.L :.v.m.x.z.%.%.+.! @.J.h.e.e.) O.h.).*X*XqXqXxXBXuX4X_.@XuXsXwX<X'.'.R.c.K.K.Y./.y.) ! / e.a.y.y.@.O.r.y.a.K.r.g.`.4X`.c.j.x.g.E U y.U.i.#.w.` e.T.6XeXg.",
"B V ' %.%.%.g.g.(.OX).X.u u V Z G ,.b.#X-X;XXXJ r K B.oX7.>.k.k.X.K 5.%XqXN.>.9.Z.-X9XD.N.1.' d i G (.9XmXJXMXmX0XF.S.v.f.f.M.*XY.P.Y.t.! v b Y ! ) @.~ %.P.=XtXzX9X9XvXxX(.o.h.~.6XeX4X@X`././.T.Y.K.a.@.@.@.y.y.#.=.e.@.g.^.[.}.3X`.`.3XwX1XM.%.M.*X).K.P.[.a.#._ w.e.y.T.~.R ",
"G H T  .@.O.g.`.=XqXn.B L 3.Z r B B B B L 2.9.L B 1.;XzX;XXXoXn.X.K ..(.yXoXB.$XNXmXcX9X;Xn.X.d e V N.vXJXJXJXMXGXJXJXDXkX$XoXqX@X4X4X@Xg.I a n E +.$.+.@.t.I.3XeXwX8XxXeXg.F U h.^.*X=X6XaXeX7X3X}././.|.|._.<X2X_.(.`.$XrXBXxXxXtXyX=X4X6X6X*XW.=XaXaX*XI.I.a.#.p.K.K.r.O.X.X.",
"' X.3.g.h.| ' g.oX5.B < B Z r < r B B B N B r B [ n.;X;XyXyXN.[ k.OX+XqX9XkXmXDXJXJXmXlXlX%Xl.R F e B -XcXMXMXmXZXKXKXZXMXMX9XZ.9XlXlX;X8.{ X.&.L.W.!.J.&.@.@.h.W.).@X>X*Xl.E E q.&.3.!.4X4XwXtX8X+XN.V.yXxXvXvXbXcX0XrXkXjXF.H.v.:.9.8.XXl.3.L.n.W.W.W.l.} E +.&.I.].[.z.o.<.OX",
"XXQ.M.Q.x.B = < B < : , < < : ; r Z G { B r r Z 6.OX>XZ.7.9.B B b.zXBXlX9XMXJXGXJXNXjXA.A.7.J u < < # @ @ & & 3 4 H.G.0.G.F.v.7.D.v.P A B B [ 8.L.!.L.} T C e r u B B 2 1 : : : 2 < : 1 2 2 2 A 2 > & & 3 4 0.A 2 2 2 A A 2 & O X o # > < = % % * * = , ; - 0 b t.^.*X4XQ.,.H ..",
"N.B.1.:.2 % @ % = = : < B : ; = : B A B N : : 2 B A 2 > & O @ @ > A 7.G.G.hXhXH.4 3 & + + O O O O O X       . .   .     + & & & & @ o o O @ # % % * * * * * # $ O O o X X X X X X X             X       X X O o O X $ $ o o o o o o $ $ o X o o o o $ # # # * 9  .4.%.[ Z , = * ",
"B 2 > & o o $ @ % % % : < * % @ @ # * % * $ o o X X X X     X X X         . . . . . . . . . . .       . . . . . . .   . .       X X   X X X X X X o o $ @ @ $ X X X X X X X X X X X X X X o o o o o o X X X X X o & & # @ o o # % : : : @ X X X o @ # # * # # * ; : : * # # # # ",
"o X X X   X o o o o $ % * @ o X X o o o o o X X X X       . .       . . . . . . . . . . . . . .               X           X X X X X X X X X o @ % % % % = 9 ; # O O & > N B 1 % @ @ @ @ # * = * * @ $ O o o % : ,.;X-X..< * * , F $.q.&.< @ o o # * * * * # # # # # # # # * * r ",
"o X X X X X X o o $ # % : : & X X X o o o o o O O O @ & > 3 + + O X           X O + & & O O O @ > 2 1 % 1 A 0.A.G.2 @ @ @ @ # # # # * * * : L ,XyXOXX.T +.K.t.E l G X.h.U.U.h.%. .B Z | F u r - = * # # % = V _.uXFXvXwXx.F y y ( &.J.J.I - % % * * * * * * * * * # * * * * * ; ",
"* # # # # # # * N A { J ,.XXZ.1 & @ > : 2 A 2.L L 9.7.D.hXjXhXhXhXhXNXNXH.0.2 P 2.B.n.3.' { { X.4.4.3.$.6.Q.>XVXVX;XA A { Z r ; * - 9 r Z 4.).*X>X*X^.I.].>X4X6XdX7X*X XE.[.^.^.`.|.|.).^.( q ; ; ; ; ; 7 +.*XBXFXuXyXyXqX*Xt.v v ~ ) ( / n p , * * * * * * = * * * = * * % # # ",
"C Z T S S C Z $.!.=X*X=X>XtX>XX.J ,.8.XXQ.Q.W.Q.,X;XkXcXvXmXmXDXJXJXmXGXmXmXS.N.&X>X*X!.L.q.4.4.4.L.!.^.h.3.n.aXCXqXn.OX=X$.9 ; * - p I +.4.4.6.5.n.l.K.E.].]. X X X X.XU.R.T.P.z.'.^.U.s.( a 8 8 / p.J.~.wXxXxXwX+X+X1XwX1Xj.! Y ( ) ( ` ` ( E p ; * * ; ; ; * * * ; ; = * # # ",
"T 4.%.U R $.L.*X6X6XqXrXlX;X,.R &.J.L.J.$.T R %.^.=XyX8X_.(._.1XkXvXmXcXvXxX%Xm.6.l.4.4.4.4.4.4.W.qXCXyX).W.(.@X+Xx.j.!.E.#.8 - 5 g Y ( &.J.h.K.n.oX>X3XR.R.R.K.a.R.R.R.R. X X[.t.&.@._ w.` M M _ R.dXsXuXxX5X<X1X1X+X_.2X<X(.j.e.&.@.$.+.#.K.I.+.e ; = ; 6 5 ; * * ; ; ; ; : ; ",
"I +.X.1.b.n.W.W.Q.Q.M.>XtXW.R E ] ] E U U U @.h.`.sXBX>Xm.g.g.x.n.M.N.S.1XqX(.X.T ' ] $.%.!.).7XaXBXBXtX@X~.@XyXeX^.e.@.U.i.c j J.P.&.@.P.).OX4X3XeXBXsXY.j.E.E.E.E.R././.|.3X~.g.t.( ( #.d.s.R.E.7XeXsXuX1X+X2X1X2X<X+X+X+X@X}.Y.h.+.) ) #.J.J.&.E g - ; ; : ; - - - ; ; 6 9 s ",
"T o.oXkXzXrXOXg.$.%.%.z.W.3.O.+.*.I j v ~ t.K.T.*X6XBXuXV.z.M.C.P.g.f.V.$XrX1Xx.<.5.k.x.h.P.].6XzXrXwXqX;X&X+X%X4X^.y.&.a.i.m s.dXdX4XwXwXwXtXqX<X1X5X@XP.Y././././././.}.|./.t.h.&.) / #.R.|.6X6X3X7X5X<X+X+X4XwX2X+X%X%X%X1X2X@Xz.o.^ @.#.*.*.+.&.+.p = = ; : 5 ; ; 6 6 - 5 j ",
"<.N.vXJXJXVX+Xx.%.+. .%.r.h.t.#.~ v j @.R.T.[.^.~.(.<XiX4X(.(.<X_.V.$X0XrXkXrX0XwXrXtX4Xl.h.P.^.+X(.).=XtXtXqX(.(.(.~.J.t.e.` s.7XdXsXnXuXiXeX+X~.M.3.o.h./.}.}.3X`././.}.|.T.y.@.t.t.@.t.|.6X6X}.`.`.`.`.@X1X8X8X8X2X+X$X8X9X0X8X(.u.^ O.j.h.%.g.h.l.' 9 = * * * * * * ; - 7 j ",
"$XkXmXVXvXrX%Xc.h.t.e.t.J.J.t.+.Q w v t.[. XY.M.M.(._.<X4X4X3X`.2XbXLXDXrXrXvXmXFXDXDXyXg.%.t.P.P.P.K.I.).7X6X`.P.`.7XT.y._ ) w.^.|.5X2X1X+X(.M.l.l.o.H ^ z.<X5X<X_._.'..X'.r.O.) @.t.h.I.3X6X3X}.'./.'.'.@X1X8X0X8XV.x.C.0XmXmXrX2Xx. .o.(.<X<X4XqX4XW.K e = * * # # # * 5 g v ",
"cXmXmXkX-XV.C.z.Y.j.t.K.T.^.P.&.b v ( ].3X~.~.~.*X5X3X<X3X<X<X}.2XxXJXFX8X2XwXxXzXcXzX(.X.~ @.t.p.) Y Y +.I.[.P.I.*X3X^.K.U.t.y.^.].@X(.(.m.3.g.g.o.o.f.x.B.2XzXuXwX5X}.'.~.z.z.r.~ ! @.K./.|.}.'.'./.|.3X3X5X0XrXwX_.x.m.8XbXVXcXwX`.g.3.(.wXiXtXBXBXqXz.g.X.G 7 ; * * - I p.U.",
"DXVXmX8XN.k.g.P.'.P.t.U./.].'.z.@.@.^.aX4Xz.j./.7X6X4X3X3X}.1XiXiX1X1X<X+X5XiXiXbXxX+Xr.^ ) K.[.t.v 8 8 w b #.J.a.P.P.K.U.T.J.K.(.4X4X@X(.~.(.z.(._.1XBXJXJXGXJXJXJXbX0XD.2XrXnX(.^ x b #.K.E.R.a.K./.6XiXiX8X0XrXrX1X+XS.2XzXcXrX8X1X~.h.z.(.`.+X%X%X(.~.|.].Q.^.(.X.G h. X X3X",
"xXzX9X#XC.x.h.J.c.K.h.K.R././.|.].Y.3XCXtX(.h.j.c.'.~.(.}.<XwXnXuX+XC.<XiXnXrXrXnXiX~.r.e.K.[.7X^.E 8 0 m / ` ( e.t.@.e.i.s.U.K._.uXwX@X`.`.'.c.x.(.wXDXPXIXIXPXIXLXGXNXcXmXJXJXzXo.x n ` i.a.e.d.y.R.|.iXxXrX0XrXrXrXzXkXkXkXrX;XoXoX~.z.j.K.P.x.x.W.~.Y.Y.^.*XCXBXBXtXeXtXsXyX",
"1X$XB.B.oX(.W.W.Y.Y.K.J.j.Y.'.3XY.h.~.wXwX`.z.g.x.g.j.z.`.<XwXxXwX<X<X5XnXxXrXrX5X}.c.Y.c.'.|.3X3Xh.l c ` -.` / U.E.K.@.` i.p.h.`.sXpX2X1X@X(.c.~.(.1XDXKXKXLXLXLXKXKXGXVXJXLXKXvXC.) w.a.K.K.y.y.e.y.K.4XBXbXzXrXrXzXbXmXcXrX8X%XoX(.~.z.z.P.j.z.z.P.W.P.j.x.^.3XsXsXuXsXiX5X3X",
"%XN.b.v.%XqX_.(.z.P.^.P.Y.}.|.`.J.O.g._.@X<X`.+X+X`.'.c.}.5X3X<X%X+X1XiXuXrXrXrX1X_.`.3X`.`.}.`.4X`.~ c M ` ` ( U.fX[.! / w.i.t.^.aXiX8X8X%X).~.(._.1XbXGXMXMXmXMXSXSXjXjXmXDXDXcX2Xc.e.y.T. X XK.y.w.y.3XBXVXzXrXrXzXbXnXrX8X<X<X}.`.'.z.M.W.P.Y.~.Y.j.z.j.h.P.~.@X4X4X5X<X5X5X",
"5X+XoX#X9XvXrX8Xc.~.).~.}.iXiX@Xh. .y.Y.}.5XrXBXDXFXiX_.<X<X<X2X8XwXrXuXrX2X2X+X1X_.@X3X*X3X3X_.|. Xe.v / =.#.` U.fXE.b M i.w.) R.dXCXqX<X<X3X/.(.1X8XrXbXrX2X#Xm.D.kX8XV.$X9XrXuXuX<Xx.O.R.7XsX/.y.w.y.`.uXBXzXuXuXzXzXrX0X1X`.'.'./.(.M.W.(.W.z.Y.P.h.%.j.^.].<X4X<X<X}.}.1X5X",
"%XrXrX9X9XVXDXbX<X`./.}.pXFXBX1X| O./.`.`.5XBXFXDXbXwX<X1X5XwX8XiXnXnXnXbX0XD.V.V._.<X<X@X1X3X@X`./.j.+.) i.s.` ` ` _ / ` w.i.) a.6XsX3X}.`.`.3X<X1X1X+XV.C.m.K i L yXwXV.C.V.2XwXuX5X'.j.R./. X/.K.a.y./.iXFXuXrXuXzXrXwX5X<X'.y.u.g.z.~.(.(.(.W.~.j.r.r.z.`.3X5X5X4X<X}.<X<X<X",
"S.xXBX8XD.rXVXtX*X@X}.5XpXsXuX_.O.^ j./.^.@XeXuX8X1X2X<X<X5XrXuXnXSXbXSXJXDXwXV.C.<X<X@X%X@X@X@X@X`.~.z.t.p.s.` c x M _ i.i.i._ a.sXBX<X'._.+X1XwXwXwX_.O.^ U , = B yXBX2XC._.}.1XwXeX3X}.R.R.E.R.R.[./.|.iXFXBXuXuXxXnXpX7X}.c.x.c.c.Y.'.~.(.(.Y.~.z.j.~.<X3X<XiXiX5X<X<X}.<X2X",
"+XqX4XM.k.C.(.C.M._.3X5X<X4X`.j.O.^  . . .%.g.o.| x.`.7X5XpXrXnXSXSXmXSXJXDXnX2X2X1X<X_.+X@X`.@X4X5X1X(.z.K.p.! w c / i.s.i.e._ e.6XBXwX1X8XwX5XwXuXeX`.O.z 7 - * r *XVXtX2X<X%X8XuXbXxX5X'.E.a.a.E. X X|.7XsXsXuXuXFXFX5X}.<X<XiXsX5X~.'./.~.~.W.M.z.`.iXuXiXiXiXiX5X5X<X}.<XiX",
"| o.o.| o.r.h.~.z.(.5X5X`.P.y.@.~ @.~ R T d y d T h.|.pXpXwXuXFXDXDXDXmXcXzXrXwXiX5X<X'.}.}.<X<X5XeXwX%X(.~.K.#.w c n ` s.s._ ` e.].BXFXFXBXBXuXiXiX5Xc.U z w g 7 7 g.BXFXrX8X1XwXDXJXmXzX_.K.d.i.s..X X|.}.}.3X5XuXFXuX_.~.3XsXFXFXwXC.Y.Y.Y.'.P.h.).sXFXiX<X5XiXuXeXeX6X3X<XsX",
"i d d H o.g.P.~.'.M.(.(.h.~ l Y ( @.@.O.~ E U F G X.+XxXbXSXDXDXJXJXDXuXiXwX0XwXiXiX5X}.}.<X<X1X1X5X5X1X`.~.^.K._ b c M s.s.w.` ` a.6XsXuXpXiXpXpXuXpXc.) b ! &.) U g.uXDXmXzX8XiXDXLXLXbXV.y.i.w.d.s. X7X}.'.}..X X}.r.^ e.'.dXFXBX1XC.Y.R.R.Y.R.K./.eX6X}.'.|.5XiXrXuXiX5X_.<X",
"9 G <.W.~.x.M.k.<.3.g.l.| l U t.&.~ ~ ~ @.r.g.%. .X.N.xXDXVXrX8X8XuXuX5X<X2X<XpXwXiXwX1X2X1X5X1X1X1X1X5X3X3X7X[.U.#.Y ` p.p.i.` m ` E. X.X.X|.5XpX6XpX|.y.b ! K.[./.6XFXJXJXcX0X0XcXJXLXMX2Xc.e.e.d.R.dXsXpX|./.K.y.^ a a ! y. XBXBX8X(.Y.R.R.j.K.K.R.E.E.T.|.3XpXuXuXnXuX3Xx.z.",
", V 5.+X+XM.m.b.X.X.%.h.%.<.!.^.h.@.~ ( t.t.%.g.%.g.N.yXxX$Xf.<.g.z././.`.3X7X7X3XwXwX8XwXwXwXwXrXwX%X`.3X|./.j.) b b _ s.s.i.` n M i.E.E..X}.}.|.`.}./.y.M ) T. X6XuXnXJXLXmX0XjXmXJXJXGXbX@XP.a.d.E.dXBXsX7Xz.v w w c c n ` R.uXBXuX3XR.a.K.Y.K.K.R.U.a.R.|.7X6XsXsXsX6X^.O.%.",
", F 5.N.N.M.M.N.!.l.L.h.h./. X[.U.e.#.@.( %.h.%.o.h.).).l.X.H F  .r.a.T. X X7X<XwXrXuXvXVXbXcXbXbXrX1X`././.K.^ v n M w.e.a.a.i.` M w.s.[.E.R.R.a.R.R.a.e.w.a.|.].3XpXpXFXDXbXwXcXJXLXGXJXJX0Xz.c.R.R.7XaXsX|.O.z c / P.z.y.w.R.pXDXFXpXR.y.U.T.T.K.y.y..X X/.|.|.|.3X3Xh.! z ~ ",
"X.%X;XZ.B.N.N.Q.&XoX(.x.h.r.U a U ~ @.&.@.%.%.%.%.%.y.~ l ^ %.X. .y.y.E. X6XpXpXnXBXDXJXJXDXDXbXwX<X`.`././.P.y.) / ` i.t.a.p.) ` ` i.d.a.a.y.r.R. X XR.y.K. X7X6X7X5X5XrXBXxXwXtXcXMXSXLXDX8XY.R.E..X X3X6X3Xc.g./.aXBXdX/.Y./.iXDXDX5XK.y.p.U.R.U.t.J.6XsX7X`.T./.'.j.~ z z @.",
"wXuX8X#X#XV.m.M.S.$XwX+X3.s ; = , g %.~.P.h.l.g.E z w q v T.|.].t.e.@.a. X7X3X5XuXBXBXVXbXbXuX2X(.z.Y.^.`.*X].].T.p.i.U.T.E.K.) m ` R.E.R.d.R.E.|.dX6X}.R. XsXsXiXpXpX5X5XuXiX<X`.+X0XDXJXDXwX`.R..X.X.X|.iXuXpXpXsXBXsX7X}.`.|.6XxXeX^.y.e._ #.a.s.a.P.3XiX6X*X/.Y.K.K.e./ ) [.",
"8X0X8X-X$X+X(.(.+XwXnX1X3.C 9 = , F ~.6X3X~.~.x.^ z q F y.].6X3Xs.w.) e.K.'.'.`.'._.c.C._.(.z.z.y.@.e.j.).5X3X3X/.T.U.E. X XK.) m ` E. X X X X|.dXsX6X/.K.E.dXBXFXsXuX5X3X7X}.Y.r.C.8XvXJXJXbX2X/.[.[.R.|.iXBXBXsXpX}.y./.pX3XR.K.P.&./ n n m M _ i.R.T.T.}.6XeX6X|.^.K.a.w.e. X",
"0X0XrXtXrX1X+X4XyXtXuX+Xx.$.F y d l.3XuXeX%XC.x.y.r.x.).W.P.^.K.e.e.a.K.j.`.7X`.J.@.! @.Y.K.J.K.a.) e.z.%XqX@X/./.T.T.[. X XY.y.` M e. XdX3X|.|.7XeX3Xj.w.y./.dXFXBXBXwX<X|.'.j.j.<XrXxXDXJXmX1X}./.R.y.T.sXsX6X3XK.w.! [.FXeXg.~ ~ b n w w c n ` s.E.s.a./.pXFXFXpX'.y.) ! ! a.",
"8XwXuXuX5X_.C.(.4XwX4X(.g.%.O.r.W.`.(.+XwX+Xm.m.x.C.1XeX(.g.P.P.Y.'.~.c.<XeX3Xl.+.U b @.K.[.[.K.i.a.^.4XwXwX+XY.Y.K.K.K.T.|.[.T.#.v M  XaX6X<X|.}.6X7XK./ n @.[.6XsXsXiX3X}._.'.3XiXyXrXmXSXiX}.3X|.R.@.j.6XdXY.h.) b ! T.BXBX+Xf.^ Y n j h c n / e.a.p.p.P.eXFXFX6Xy.! M n c ! ",
"@X`.3X`.z.r.r.j.Y.`.@XM.o.O.g.!.^.z.m.$XtX0X2X$XS.2X8XwX+Xz.Y./.iXsXwX<XeX4Xg.G W Y Y ~ 4.].].@./ a.6XBXnXrX%XY.P.K.a.K.K.^.^.T.p.! b R.dXsX6X/.'.|.3XR._ n ! U.^.].7X6X5X1X2X5XxXBXkXkXBXzX8X<X7X7XR.~ %././.y.@.) b ~ z.4XBXbX0X<.U v a h c Q s.#.@.@.#.&.^.^.[.a./ Y b b n n ",
"_.(.z.r.h.h.O.%.j.P.`.`.g.O.r.L.h.X.k.+XyXbXDXmXzXzXbXrXS.M.~./.iXsXuXwX@Xo.C g I E I C T J.J.x v a.tXJXFXyX$XY.L.J.K.K.j.j.I.[.{._ b a.6XsXdX|.R.T.].E.e.n ! ( #.y.Y.7XsXuXwXwXnXnXrXtXtX%X(.^.'.R.e.! ) y.K.a.K.t.&.z.}.yXvXJXBX<.l a p 0 w ( U.[.J.I.t.@.z 0 8 w b ( #.K.K.y.",
"`.Y.~ ! #.t.j.e.y.j.~.4X*X)./.K.~ ~ %.~.1XwXzXcXmXJXJXzX+XV.(.c.(.`.`./.X.y d F I T I g p g g w Y U.*XBXBXyX+XP.J.J.Y.^.`.3X].Y.K.) ! #.E.7X6X|.Y.Y.T.R.e.n ` / / / t.3XFXJXzX<X_.C.~.@X4X(.h.&.y.y.w.M / p.R.E.P.h.j.3XBXBXmXJXcX2.H G d 8 7 l e.K.`.tXrXx.l w g ~ ~.<X5XsXsX3X",
"(.@.x v #.I.T.a.@.@.j.).3X).h.^ T  .g.).4X2X2X2X9XcXbX8XoX+X_.~.g.o.o.H y y T R S I a 0 0 8 0 c ` U.!.qXtXyX&XW.J.P.T.^.3XsXdXK.U a v Y @.K.|.7X|./.Y.J.@.n m m M b t.6XJXLXVX+Xg.o.%.P.'.'.j.K.~.t.e.` _ U.[. X^.P.Y.6XBXFXDXDXcXS.k.N.Q.H 9 , 7 y g.BXBXqXM.Q.qXCXBXmXmXBXxX5X",
"%.a 8 w ! i.R.P.#.) t.h.P.g.F q d ' h.3X7X4XwX1XV.+X%X@X(.`.3X4XY.%.o.F y d T T T S a 8 0 w j n Q =.J.).4X4X).Y.y.T.T.T.|.6X7Xy.! b ! ! / e./.dX7X3X`.].T./ M ` ` #.h.4XDXLXDX_.t.@.#.K.Y.Y./.fX7XJ.) #.p.K.[.].T.t.t.^.4XiXnXFXrXD.8XVXDX8X.., * - F 4XtXqX4XBXDXDXbXzXrX5X<X}.",
"a 7 5 w n ` #.%.e.~ @.t.h.z.U , 7 U t.I./.<XiXwX<X(.~./.Y.Y.).7X<X(.oXm.o.H d V s 9 9 7 0 w n Q ` ` #.P./.].^.K.T.T.a.K.|./.R.K.T.K.a.e.) e.E.7X6X|.|.dX Xe.! ) t.[.^.(.8X0X%Xx.%.~ +.t.K.P.^. XT.) ! _ #.t.U.T.U.#.t.K.Y.`.+X+X1X9XcXJXLXDX#X, * - a P.4X4X+XuXFXFXiX5X3X|.|.|.",
"; ; 5 w m ( @.~ ~ ~ %.h.I.).%.y 9 b +./ %.Y.6X3X`.'.Y.K.y.y.j.~.1XrXkXoXk.H r e , - ; - 0 j W ( ` ` p.R.T.[.T./.[.T.e.a.[.T.K.a.E.E..XR.i.a.R.|.T.y.a.[.E.e.) t.P.*X`.~.(.N.<.O.O.+.t.&.&.h.K.K.#.( / ` #.p.t.@./ b w.s.R.`.~.C.0XbXMXMXmXJX0X< * ; f h.@X*X~.}.sXsXpX5X6X6XeXsX",
"* ; 8 w Y #.p.y.%.h.h.z.M.~.l.%.R  .l w n a.T./././.R.y.e.y.Y.Y.S.xXVX;X2.H i r y 9 - 8 j Q Q m Q ( #.s.E.E.P.^.E.U.p.a.R.R.a.e.p.U.E.s.@.t.^.|.a.! b #.i.e.p.K.!.).`.~._.+XN.3.r.%.@.#.&.J.p.#.e.e.) _ s.U.t.( M n w.s.E.T.`.uXDXDXMXNXjXmXD.< * ; T ^.6X6X/./.}.3XpXuXuXBXFXFX",
"* - 8 j ` U.[.T.P.~.`.*X@X+XC.W.W.X.w 7 w Y w.R.K.K.K.y.y.T.3X7X1XxXVX9Xv.2.1.N.#XQ.x.] W } W w 8 a / i.s.i.e.T..XU.i.a.s.a.a.e.t.a.R.a.r.P.7X|.t.b n ` s.R.T.Y.^.).+X4X5XyX>XQ.h.h.%.&.&.J.J.U.K.a.#.#.s.a.p.) n n i.E.R.K.`.FXLXLXSXGXSXmX$XB , 9 h.6XsXsX_.j.Y.7XuXFXFXFXuXpX",
"* ; 0 n _ {.7X|.^.`.4X1X%X1X<X<X(.%.f w w w n a.T.R.K.K.K.`.4XwXzXbXJXDXmXcXmXJXLXJXvX(.$.W S v v v n n c c M s.E.s.d.s.s.s.d.s.R.U.a.e.j.`.sX3Xy.! w.a.E.E.[.3X].).%XyXqX+XN.M.n.l.h.h.J.J.L.I. XT.e.) p.s.w.n c M w.R.[./.`.6XDXLXLXKXKXDX8XC.o.z.7XiXsXiX<X~.}.pXpXpXiX5X~.r.",
"* 5 w n ` i.R.^.z.P.P.~.(.2XwXwX`.h.E v v v v *.'./.R.K.R./.@X1X1XzXDXJXDXJXJXLXIXJX-Xk.$.E $.).tX@X) w w c ` a.d.d.d.d.d.s.e.d.[.E.K.&.z.eXBX<Xg.r.e.a.T./.6XsXwX%X%X;XoXn.n.k.l.x.h.h.P.h.x.`.6X^.p.p.i.d.w.c w ` d.a.T. XR.R.%XFXJXJXbX0XwX1X5X5X1X5X8X+X`.7XsXuX5X}./.a.! n ",
"* 8 h n Q ` e.r.&.J.h.h.z.`.6X).k.n.h.+.W I v +.^.|.].Y.Y.^.|.`.<X1XrXzXbXmXDXDXDX9X>.G ] 3.Q.BXDXCX4.w w m i.#.w.s.s.s.s.d.e.i.E.[.P.h.@XBXBXwX<X~.y.y.R.}.6XsXwXwX%XoXN.b.k.l.l.g.%.J.I.J.J./.|.Y.p.s.i.a.i.M c M i.a.R.E.E.a.j.<XBXyXV.C.<X<X}.<X@X<X3X@X`.|.pX7X}./.K.y.e.e.",
"5 0 w j ( ( ( ! #.U.I.Y.Y.`.3X3.d l U n n n v Y K.]./.^./.`.`.Y.M.C.C.V.$X%X+Xx.R d 9 q I $.x.4XBX6X( 0 h M i.i.-.i.s.E.R.e._ i.T.].~.z.@XtXcXcXzXwX`.'./.}.3X4X@X+XN.n.n.n.k.l.l.%.%.J.T.T.U.R.j.y.a.K.R.R.a._ ` w.d.a.s.E.E.a.i.K.].`.c.j.R././.`._./././.`.[./.T.Y.R.R.E.E.R.",
"j j h j / #.) ( J.^.^.`.+X+X(.H , , 8 p a j g v @.K.t.j.(.`.`.(.C.c.~.@X1X(.r.F 8 q w x v Y  .j.~.r.v c m / _ -.=.s.U.E.E.i._ i.R.[.'.z.~.wXmXSXJXDXcXuXwX5X<X%X~.o.X.5.n.x.x.x.l.4.&.P.T.U.a.a.y.y.y.R././.Y.a.i.w.d.s.R.s.s.d.i.d.[.|.R.a.R.E.E.}./.R.R.K.j.y.y.R.R.R.R.R.K.a.",
"I.&.( Y b ` ( *.g.(.%X1X8XoX[ < = = = 9 I Y f Y t.@.@.j.(.+X5XsXwXc.C.iXsX<Xz.j.j.Y.Y.~.P.P.`.}.c. .Y Q / / ` -.=.s.s.s.s.i.i.i.a.K.K.y.K.5XBXDXLXLXJXDXFXnXwX1X~.o.X.k.n.m.x.x.h.j.I.T.U.a.U.T.E.K.a.[.7X`.T.K.a.s.s.d.s.s.s.s.d.R. XfXR.R.E././..XR.R.K.y.r.Y./.'.'./.T.K.K.K.",
"6X*X^.@.n b ~ &.l.(.%X$X8X(.V , 9 ; - C *.&.t.].*Xh.z.'.~.'.5XBX3Xj.j.7XaX3X}.7XsXFXFXFXBXBXFXnX4Xr.Q m m m M ` -.-._ ` _ i.s.s.i.p.p.e.a.Y.<XuXDXJXDXDXDXuX5X5X_.C.M.k.3.3.l.P.P.^.^.T.a.a.R.[..XE.T.7X3X'.'.E.s.d.d.s.s.s.E.E.E. XdX X'.R.R./././.Y.Y.Y.j.~.wXBX3XY.R./.T./.|.",
"eXaXfXK.n v ~ 4.P.~.+X%XyXQ.u - e e t $.).).=XeX3XW.~.7X`.z.~.(.j.h.y.K.|.3X3X7XuXFXDXbXnXnXFXbX;Xg.Y Y Y c c m ;./ / M M i.s.s.i.s.d.i.i.@.r./.8XzXcXrXwX1X1X5XwXwX%Xn...' %.P./.].[.R.a.s.U.E.[.E.[.|.|.`././.U.w.` M ) s.E.R.R.dXpX'.R.R.R.T.T.R.Y.'.}.}.<XtXFXiX(.j./.}.5XsX",
"6XaX].t.U Y @.t.z.(.1X%X+X[ ; - e C ] ).7X=X4X%X'.z.x.`.`.M.z.~.@X@Xz.z.<X5XpXiXFXDXDXcXrXrXvXkXC.y.M Q Q c c m m m n h c i.E.R.U.s.s.s.s.@.r.T.eXnXvX0X8X1XwXiXxXzXCXqXn.o.%.T.|.7X].T.s.d.a.T./.E.[.|.5XpX7XT.t.e.d.w.e.R.E.E.|.7X_.'.R.R.T.'.K.c.'.3X5X4X8XvXDXrXC.c.}.3XiXBX",
"i.i.` b n ( y.J._.4XeX%X,.r - 9 5 9 3.=X=XeX4X3X`.z.r.z._.S.+X8XxXxXrX5XwXiXuXnXDXJXLXDXuX0XvXbXyXM.^ ( ` m h n c n b U U ( w.d.s.d.s.s.a.e.p.T.5XsXBX4X<X<X<X`._.5XBXBXyX(.c.Y.[.[.E.T.s.d.s.R.E.E.[.|.sXBX3Xj.y./. X/.R.R.R./.5XBXwX2X'.R././.R.'.}.3X<X2XrXcXmX2XC.C.1XwX5XuX",
"w w w h n ) I.P.I.`.3Xx.V 9 9 q 5 5 I X.z.~.<X<X6X`.h.z.<X8XwXtXqX$X4XwX4XiXFXnXFXDXDXSXuX0XcXDXJXS.H R *./ b / J.].3X].^.j.@.) e.a.R.E.R.s.T.[./.`.`.`.`._.Y.h.j.j.`.eXsXeX3X/.Y.T.T.U.d.d.i.i.a.U.E.[.dXsX/.r.K. XdX X/.T./.|.sXFXBXwX}.'.|.|.<X<X3X5XiXrXkXcXbXrX+X+XxXbXrXrX",
"b n n c b +.I.L.@.t.h.V ; - 9 9 5 - ; e ' o.g._.6X3X~.~.4XwXqX1X@X(.~.z.g.`.uXxXzXnXrX8X8X8XzXLXJXD...R  .( #.t.6XBXBXVXBXeX/.u.@.@.p.p.p.a.a.K.U.t.h.3X@X~.j.K.U.a.e.R.7XaX3XP.a.a.s.i.i.d.y.y.e.a.a.E. X7XY.y.|.7XdX7X|.}.'.R.sXFXFXrX2X}.7XpXuXpX7XsXDXDXcXbXbXmXrX0XmXDXSXcX",
"eX6X^.h.%.%.h.L.@.+.' r = , 9 7 ; ; r $.).R R h.'.Y.Y./.4X4X@X_.~.'.j.O.^ ^ (.BXDXxX+XV.C.1XvXLXJXjX$Xg.$.l.).).eX4X+XyXqX4XeX`.@.F I U ! #./ / #.p.~.eX5X3XY.U.U.s.w.w.K. X XK.y.K.p.e.e.R..X/.d.a.s.R..X.XR.U..X.X XdXsX3XK.R.pXFXFXuX0X2XpXuXuX<X}.uXJXGXzXiXbXcXzXcXGXJXLXDX",
"VXuX5X(.h.R %.^.h.] ' s 9 e e ; = = T =X).] g Y ! @.t./.3X<X@X`.3X<Xz.O.! ! r.<XVX4Xx.o.r.`.uXDXKXjX1X(.l.l.W.).P.%. .@.~ $.].].@.z f a v Y b b / p.^.eXeX4XP.a.s.i.M b ! &.K.K.j.J.t.&.K.7XsXdXs.s.R.E..X.XR.s.R.E..XdXdX Xy.a.1XFXFXnXFXiXiXiX5X}.}.uXLXLXMXzXcXNXNXMXGXJXDXcX",
"@XM.l.l.h.O.y.K.J.%.$.T s s t - 5 e [ OXl.F 0 8 w Y p.].4X<X3X6XpX6X`.Y.K.y.y.'.%X~.O.^ ) j._.uXrXS.j.y.t.].~.z.t.( ( / v v Q Q Y v v v a v / _ ) #.K. XdX`.K.a.e.e.w.#.h.P.^.~.^.^.P.J.^.dXsX6XU.R.E..X.X.Xs.d.E.E.T.T.R.d./ s.iXFXJXDXDXFXnXrX'.c.}.FXPXIXZXMXNXNXMXJXLXDX0XD.",
" . .o.(.M.W.h.z.^.).l.{ G T ' X.1.1.5.5.[ d , 7 w Y t.^.5XiXuXiXpX5X`.|.7X/.j.c.C.c.j.u.r.x.V.uXuX_.F z y.aXeX(.%.~ / m m n n c Y ~ ~ W g j ~ ` #.e.a.E.[.T.K.K.a.K.j.z.(.4XqX4XeXeX7X^.^.].I.t.s.E..X.X.XE.s.d.s.E.a.i._ _ / s.sXBXDXFXFXnXxXxX}.c.}.nXDXJXDXLXKXJXJXJXmX-Xv.Z.",
"] ' b.yXBXyX5.,.l.M.k.L Z J b.&XkX:XXXZ.6.' p p l ( h.(.uXFXBX<X'.c.j.Y.Y.Y.K.j.'._.`.'._.1X8XBXDX1Xi , X.eXtX(.] f j m n n n n ( Q ( E v Y Y Y #.#.d.s.K.t.U.E.E. X7XeXuXBXuXqX3X4X6X^.I.t.Y b e.R.[..X.XE.E..X.XR.i.w._ i./ _ Y.3X4X2X5XuXBXBX5X2X5X5X2X2X$X0XJXLXJXjXA.v.B.rX",
"%.%.x.&XlX#X..K [ ' H V B L Z.-XhXhXF.G.v.3.R Y O.y.^.1XxXbXwXY.y.u.u.u.u.y.Y./.<XwXrXzXzXcXjXzXBXoXB i f.uXxXZ.,.F w w h c n Y p.#.j a *.&.W *.K.p._ w.i.a.[.]. X7XsXBXFXDXBXxX`.j.%.4.J.i.n w n e. X XE.E.E.E.E.s._ _ i.p.e.) ) t.%.r._.pXBXDXbXiX}.~.o.R H ..kXPXJXG.>.k.9XJX",
"%.%.5.5.&XoX,.,.1.9.L A A 9.A.F.F.hXjXhXD.N.k.%.g.P.3XwXwX1X~.r.@.@.y.y.y.K./.<XrXbXbXmXmXJXmXcXjX-XS.D.9XmXmXkX&X3.l w v b j w *.@.g 8 b ( Y #.{.U.` Y ` p. X[.#.a.[.*XaXCXyXoXg.| d C E Y j 0 0 / [. X[..XE.a.s.i._ e.i.i.i.i.t.J.J.P._.1XrXcXnXiX_.g.H l d H V.kX9Xb.f.8XVXBX",
"~ %.g.3.M.k.[ b.:XjXF.7.:.A.jXZXZXZXZXMXkX9X+XN.@XtXVXxX$XM.l.3.t.P././.Y.Y.`.eXbXbXkXcXcXDXSXMXMXmXkX9XcXbXmXMXkX(.X.E 4.J.+.E P.I.l 7 z n n ( p.i.Q Y / #.{.U.( / ( ~ *.%. .F d q y e C l 8 8 7 a s.fX7X XE.d.` ` ` -.-.#.i.p.^.^.^.).3XwXrX0XwX0XS.k.R z d U ^ X...f.+XzXyXW.",
"@.%.h.g.3.| J Q.vXMXAXH.7.A.MXKXKXGXZXMX9X#X&X=X4XrXxX8X(.l.3.3.P.*XeX3Xz.g.(.wXSXzX0X9X9XzXzXjXMXmX$XB.+X2X0XkXyX1X(.`.7X].].4XsX*Xz.h.@.@.! w h j M ` _ ` ` ( &.( z 0 0 p g p g F | 3.5.%.| F g 0 b E.dXdXT.e.` ` _ -.i.#.p.J.P.P.Y.@XeXBXnXnXuXrX+Xz.y.y.~ ! v U E r.(.oX<.] ",
"o.3.h.l.X.' i J Z.XXZ.7.:.A.jXjXjXF.F.D.Z.B.oX@X(.m.k.k.W.l.o.f.(.4XxXwXM.x.C.8XbXzX9X9X0X0X2XD.-X$XB.>.o.k.B.yXtXwX<X3X/.K.|.uXsXsXwX6X3XT.p.@.c n _ i.` Y E h.W.%.e 7 8 0 f Y &.].6XBXxXtXtX3X&.a 8 v T.7XT.#._ ` _ _ #.#.p.J.p.e.j./.wXnXFXDXBXnX1Xz.'.].`.Y.r.~ r.~.m...o.M.",
"l.h.h.h.o.' r , r Z B N B B B A A [ n.(.k.<.(.(.m.<.K | 3.l.<.f.N.$XxXrXC.M.+X2X0XrX9X0X0X0X$XD.f.2.v.k.| R o.`.VXxX+Xz.u.^ z.+XwXBXiX1X`.].[.[.U.p.p.i.#.( h.*XaX5.r e t p v ( P.*XBXVXmXVXVXtXI.E 8 8 Y U.a._ =._ _ _ _ #.p.p.i.i.e.Y.5XuXnXzX0XwX<X~.`.qXxXxX4X_.4XtX%X~.+XyX",
"y.@.@.#.( U q , , r r u B r , , 9 s ] R y d g.(.~.l.o.X.X.o.o.o.3.oXxXxX@X(.%X8X8XrXjX0X9X0X0X0XV.m.V.+Xk.O.j.}.BXxX2Xx.O.u.j.+XyXuXrX(.g./.7XfX X[.I.p.#.#.).CXaX6.r r 9 9 f *.J.).=XwXrX9X>XM.&.@./ b Y ` ` ` =.` _ _ _ e.p.p.i.p.e.t.T.5XrX$XC.C.c.c.c.`.wXnXxXtXtXxXtX1X@X1X",
") t.t.t.( Y q , - e V T $.X.C y e y d d q d %.).W.l.x.k.o.....[ | M.uXuX@X(.+X8X0XcXNXNXNXNXcXMXcXjXcXxXwX_.M.%XtXiX1XV.~.~.(.rXBXnX8Xz.@.K.T./.T.T.J.&.p.U.I.M.b.J J ,.Z e f +.=.J.~.`.(.Q.$.( #.a.T.s.-._ _ ` ` / ` ` _ i.a.a.a.U.U.#.@.^.BXbX8X$XV.n.<.c.wXFXrXiX8X8XwX5X_.z.",
"&.&.J.U.E p - ; ; - t E L.J.+.( E E E ! Y ~ t.h.j.z.l.k.,.K R G R l.*X4X`.(.+X%X9XmXJXGXJXSXMXSXJXmXcX8X$XoXz.Y.'.+X1X2X0X1X_.wXnXbXwXg.y.K.p.e.J.a.i.p.^.~. .y u [ ,XyX#XJ C Y +.#.%.g.j.=./ ^ ` a.U.a.a.s.p.*.` Q ` =.s.i.e.d.T.^.K./ w.[.DXLXJXbX0XS.V.uXFXDXzX0X0XrX0X8X<Xz.",
"J.K.T.K.l 7 , - - 7 g  .&.&.&.h.J.P.J.t.r.t.y.j.l.P.M.k.<.X.| R  .o.(.1X).M.C.1XkXmXDXJXLXJXMXNXvXuXS.C.<X<X`.'.'._.2XrXmXxX+XS.yXVXuXx.y.K.#.t.) _ _ K.6X6X3.u r { lXCX,X,.]  .*.#.@.@.h.Y.^.y.+.( b M i.E.s.i.=.#.#.i.i.i.i.s.E.E._ n w.3XFXLXLXDXDXbXnXFXDXSXbXzXcXSXbX0X+XC.",
"J.t.J.K.U a I E d E p.t.@.&.&. .@.^.*X*X`.P.y.y.l.l.(.OXM.3.O.^ @.o.(.4X@X(.(.%X1XoXV.2XcXbXjX0X8X2Xx.c.5XpXpX5X2X0XjXmXDXmXjXV.V.qX4XP.y.y.a.U.i.w./ y.7X7Xk.G J Z >.b.9.l.).^.p.J.#.=.U.7X6XI.M c w w M d.s.E.[.E.s.i.i.i.i.s.[.s.` ` R.3XuXVXJXDXDXbXrXrXzXmXDXbXDXDXFX0X_._.",
"@.t.t.+.E *.J.E F h.[.U.t.e.@.~ t.^.7X6X*Xh.~ y.z.M.@X=XW.g.3.%.%.T | j.).`.`.%XW.o.| g._.+XV.V._.(.c.Y.3X3X@X4XbXDXJXLXJXKXmX+Xg.5.l.K.a.R.T.a.i.#.) e.Y.Y.l.z.k.H , - V !.aX6XY.K.a.=.U.E.a.` b w 0 0 w ` i.p.U.U.s.=.-.i.i.R.{._ i.R.|._.<XeXbXVXbXxXrXnXcXmXJXDXDXbXnXiX2X<X",
"#.t.@.~ @.h.4.C u ] J.J.t.#.e.#.J.Y.^.^.K.@.~ e.P.`.`.C.m.k.l.l. .g q a t.].`.(.(.x.g.c.~.c.c.c.C.~.j.) ~ @.r./.nXVXDXDXDXDXzXx.U f ~ _ e.R.K.U.K.J.p.t.a.T.3XsXuX3., , p &.[.[.T.a.E.U.e.M c c h w w w n i.i./ m ` i.i.=._ _ _ M n s.dXdX^.~.@XuXuXrXiXiXiXnXJXJXDXmXzXwXwXzXbX",
"#.#.) ~ g.!.l.R e d E &.t.t.t.#.h.K.K.t.@.e.t.U./.3X`._._.).~.3.C 9 7 0 Y K.W.(._.`.}._.<X1X2X+X_.<Xj.v a n @.y.'.`.+X(._.m.,.T q 7 w ` U.T.J.U.U.p.a.s.p.].sXBXFX@XV 8 v M i.i.a.d.E.T.@.c c c b _ i.U.E.{.i./ c M ;.i.-.i.M c w w #. X[.K.P.`.4XeXwX5XiXiXiXnXSXSXuXrXwXpXSXJX",
"#.@.)  .z.).!.o.d g l @.J.J.J.p.K.y.@.) b ) i.E.[.].3X6X6X3X(.3.l 9 p l ~ J.~.).c.`.<X<XpXFXDXvXrXwX~.U g v ( @. .%.%.~ l 8 8 7 7 7 a s.U.p.p.i.s.[.R.) #.U.Y.5XeX^. .( _ ` _ i.p.s.s.U.*.M ` #.a.].7X*X].R.#.#./ _ _ ` ` ` n 0 0 8 a Y ` #.t.K.`.5X6XpX7X}./.}.uXnXxXxXiXwXnXDX",
"*.t.t.%.z.`.~.%.E +.~ ~ t.K.K.K.y.a.a.@.n ) e.s.J.K./.`.'.x.g.3.^ p U t.t.h.P.`.@X=X%X+XwXFXDXDXzXzX1Xr.U Y @.e.h.6.h.@.v w c 0 7 8 v -.-._ =.i.s.U.K.e.) e.@.g.z.K.*.p.U.i.i.i.e.w.i._ -.i.` i.T.[.^.P.y.) ! p.R.U.s._ _ ` n c w w 0 0 c e.K.P.`.7X5X7X X/.y.u.'.sXBXuX<Xx.C.<X",
"@.#.t.y.z.`.).r.R %.t.@.~ y.Y.P.K.E.E.e.z ! p.p.#.&.%.O.~ ^ @.U.+.f l.yX@Xg.I.!.^.@X%X8XrXuXuXtX8XuXBX`.r.r.g.z.x.j.h.O.l w c h 0 w h c m ` -.i.i.U.t.i.U.K.y.a.h.t.#.a.U.U.i._ ` M m ` i.i.w.e.#.+.+.h.j.r.@.Y.'.).Y.a.a.K.P.e.e.s.p./ / K.*X4X4X3X}.3X7X|.R.! ! K.].Y.u.) ^ @.",
"( @.r.j.z.`.3Xz.| ^ ( ( ~ &.P.J.K.T.T.#.! ) p.e.( ( ~ ^  .h.L.J.I f !.aXtXW.3.g.W.(.8XuXxXwX+X_._.1XiXwX4X4X4XqXwX_.~.M.h.n w c M Q n c m ` _ i.d.p.e.e.R.^.^.T.U.@.( K.U.U.a.e.` b m _ i.i.i._ ( v @.].3X3X`.~.'.Y./.T.Y.3X6X/.[.[.[.J.+.J.7XsXsXpX3X5XiXiX5Xc.) ! ! w.Y.~.g.~ ",
"( #.y.P.Y.`.4X@Xg.O.^ *.h.l.h.h.t.t.t.&.#.+.#.( / ) #.h.Y.3X).O.y d 4.).Q.k.X.g.(.8XvXVXzX2X(.c././.}.pXFXFXFXFXDXbXvXnXeXj.v v ` -.` M M b / M ` a.U.K.Y.^.).^.a./ ) K.K.K.R.U.e.M m ` -.-.` / ` / K.7XtXtX4X`.'.R.R.~.(.7X}.x.y.t.p.#.( ` t.].dX7X}.iXFXDXFXnX`.r.) Y.BXFX4X%.",
") e.K.P.Y.'.`.%X+X+X`.3X5X@Xz.h.&.%.&.J.&.( ( / ` #.p.K.I.*X).%.e d +.$.{ ' ' x.yXvXVXVX0X$X@X'.^././.<XnXDXJXJXJXDXvXmXBX).~ U / _ =._ M b v c n ` [.4X@X(.W.K.e.) e.i.e.e.T..Xa._ M ` -.M n M e.E.7XeXrXyX1X<X`./.P.W.*X7XY.r.O.%.+.` -.m n i.T././.5XnXFXJXFXBX<Xy.~.nXDXtXx.",
") t.U.J.P.~.~.%XBXBXnXnXxXwX`.g.%.%.%.*.+.( Y b Q #.p.t.&.L.P.%.s f I I C d G OXtX>X9XyX8X4X5X7X5X3X}.<XuXVXDXLXLX9XA.8XwXg.g g Y ( &.p.d.K.t.n 7 w U.CXxX@X~.j.y.a.d.i._ _ Y.7XT.e.) ` ` M n ` T.7XsXiX1X@X<X3X4X@X~.Y.`.3X`.P.j.@.` M M c c M a.K./.3X5XiXuXwX'.y.y.}.BXJXzXV.",
"#.t.K.y.z.~.~.4XBXBXtX8X1X1X~.%.~ h.&.*.Y v a v ( #.&.#.t.&.&.E d d I T E f T l.n.6.5.M._.@X3X5X5X1X<X<X+XV.D.vXmXv.:.v.m.F , q ~ t.K.R.E.7X3X^ - 8 j.sXBX5X/.J.y.t.s.i._ #./.eX].h.J.U.s.i.) a.`.4XxXxX<Xx.~.`.5X5X}.Y.Y.3XuXeX_.g.~ b m m M _ a.R. X3X<X<X_.z.x.x.j.<XFXDXvXS.",
"e.t.y.j.W.).~.~.@X@XQ.M.+X(.3.T R J.I.&.E f v ~ _ #.@.t.a.J.%.l g I %.X.C g f T T ' ' o.g.k.x.C._._.+XC.x.P P 2.:.H ..k.k.R p v K.]./.K.R.3XeXj.l R ^.eXuXwX/.r.) t.U.R.U.K.7XsX5X].].].[.E.R.[.<X1XxXxX8XC._.<X3X5X7X'._.4XuXxXpX'.! c c M i.s.a.R.7X6X1X_.'.~.`./.y.c.wXBXxXN.",
"y.j.j.~.`.@XW.X.H R o.P.`.(.%.F F %.J.*.+.@.p.t.` ( ~ #.p.J.K.( x t.*Xl.V q g W E  .X.g.x.k.m.(.%X1XwXrX2X2.A J L K ..3.(.^.h.^.E.3XE.d.K.eXBX5XK.^.6X6XrX0X'.e.b e.a.R.T./.6XsX4X5X^.%.~ ) K.3XuX4XwXwXwXqXxXtXM.M.).`.4XiXuXnXuX`.b c m i.s.s.K.K.].eXiX1X<X_.4X7Xj.g.C.1X<Xz.",
"t.Y.`.wXrX5X~.F q g ^ j.`.1X%Xf.H | ~  .h.`.*XM.X. .~ ( ) +.&.W x K.3X6.s y a v ! #.h.OXyX8X8XiXiXuXBXDXDX$X2...1.k.k.m.+XeX6X6X7X}.'.j.'.6XBX5Xc.`.6XwXrXiX_.O.! ! ` e.K.<XuXbXmX2XK a c b t.3XBXwX2X2X0XbXVXD.' F t.3XBXFXbXxXwXz.z w M i.a.a.a.j.'.<XiXwX1X+XwXeXY.%.r.z.z.Y.",
"K. X6XdXaX*XY. .w g O.l.V.xXVX9Xc.| O.%.g.=XaXoXo. .! z 0 0 w 8 y R 3.E g w w a I @.P.`.4XeXiXwX4XwXyXrXkX$Xv.>.1.(.%X%X1X5X5X3X}.}././.7XdX3Xz.h.h.z._.<X3XY.O.~ ~ ! ~ h.4XDXJXVXm.q 8 v ) y.T.5XrXzXcXmXVX2XP , 9 v ].FXDXDXbX4Xg.w w ` i.a.y.t.P.^.`.<XeXwX1X2X4X).h.@.e.j.Y.",
"K.].].^.L.4.J.@.q y z.=XoXkXmXGXvX;Xm.3.g.l.M.`.M.o.V , = - 9 8 q g f v n w 0 h Y &.K./.`.}.<X_.+X+XB.1.1.1.>.<.1.N.%X%XqXeXwX<X/.}.3XeX6X|.j.r.%.r.g.j.j.h.%.%.r.K.y.y.j.3XBXFXwXH , a @.a.r.j.'.8XVXLXJXyXP , , 9 z Y.iXmXJXcXC.| q z _ p.K.z.P.^.`.^.~.`.<X4X2X4X`.K.e.) e.I.",
"e.a.a.#.~ ( @.b , i ).BXjXjXNXcXvXkX(.M.M.5.k.%XrXB.Z = 7 p w w w w a j a j n v +.t.J.'.`.'.(.(.(.(.k.2...[ [ ,.<.k.m.(.qXsXuX<X}.3XsXBX_.r.O.r.h.z.Y.z.%.%.+.%.K.P.K.Y./.`.@X+X<.H R @.P.].'.j.x.+XVXDXlXm.i 7 I Y Y ^ k.0XLXmXf.| ^ r.P.^.`._.~.^.Y.I.J.I.~.@X_.<X/.R.a.y.t.P.",
"c n M b b ! ! w , H 4XDXmXNX0XS.#X+X<.X.(.oXB.;XvXkX>.< u f w w w w c x a v ~ ~ &.I.~.~.<X}._.M.x.x.k.5.3.<.,...3.k.k.W.+X1X4X<X<XwXFXBXC.o.o.r.j.P.~.~.4.%. .%.e.%.h.Y.Y.z.g.r.j.z.(.3XeXaX4X<X_.k.M.`.c.R d E #.#.! F f.uXLXSXV.f.z.@X@X*X@X_.~.P.h.t.t.K.P.~.`.}.`./.Y.'.^.~.",
"w c M b @.+.+.E K k.wXDXKXZX9XS.Z.>.H V [ 1.B.oX2XN.P < r i C C 0 w w 0 w n ( p.p.].3X<X@X4X4XC.<.f.f.3.k.k.5.k.k.k.l.x.k.k.z.'.wXvXBXxX<X(.x.g.g.x.z.W.3.%.@.@.U ~ j.^.Y.j.y.K.`.5XeXwX4X4X5XtX*Xl.^ ^ U l T E @.) z d x.uXDXDXwXm._.sXBXeX1X+X~.z.r.@.@.r.r.j.*X3X`.'./.`.}./.",
"n e.a.J.Y.z.~.).$X8X9XcXJXGXjXD.b.K i < N K Z.B.2.B < i H >.k.H 8 , 9 9 9 l Y Y t.].eX5X1XwXtX$Xf.m.N.m.k.5.k.n.x.x.l.l.3.3.x./.xXnXrXrXrXwX_.x.f.o.X. .R  . .U l U j.].*X3X1X4X4X4X1X@X~.(.`.@XP.O.^ O.x.x.3.%.%.%.U | ~.@X1XyX6X(.c.3XeXtXtXeX@X~.z.j.r.@.@.y.Y.`.~.Y._.<X<X<X",
"| ^.`.4X%X8XkXkXkX9X-XF.0XjXrX$XoXb.B i >.XXtXb.A 1 2 2.8XvXrX7., < B >.1.K , 7 J.7XiX5X5XiXrXD.oXyXrX$XB.m.N.Q.x.l.l.l.M.W.~.@XxXrX2X8XrXrX<Xx.m.o. .^ H ' R I z U j.`.`.4XwX8X1X<X_.(.~.~.~./.%.E %.(.xXxX(.g.`.4X4X|.}.~.~.x.Y.'.x.z._.1XrXwX4X`.~././.Y.y.e.) j.z._.`.<XwXBX",
"(.5X<XwX8X9X0X0X9X#XS.b.1.v.#XrX:XB...H x.qXtXm.A A v.zXKXKXZXhX:.P jXZXcX:.* ; l.].6X4X1XwX(.x.V.VXVX$XS.Q.N.W.W.M.l.M.W.W.).3X<X1X+X-X9XrX_._._.m.g.g.%.%.+.&.E  .z./.`.|.`.(._.<Xc.j.j.K.K.y.! ! r.eXLXJX$X+XxXtX6X].].K.~ @.y.Y.y.~ h.P.P.).`.@X3X5X`.Y.P.K.K.Y.`.eXuXiXBXFX",
"BXwX+X(.%XoX+X2XkXD.m.2.P P S.rX8X+XM.x.(.4XqXS.1.b.kXJXLXLXHXNXv.F.MXLXMX2 @ = e R h.P.W.=X~. .K C.4X%X(.(.(.~.~.W.W.(.~.x.~.`.1XrXzXbXmXvX2X<X@X@X~.x.3.o.%.h.W.(.`.`.`.'.Y.Y.@X_.j.r.t.J.J.%.! y.P.BXLXVX2X5XeX<X~.Y.J.@.U @.y.a.) ^ ~ ~ @.t.Y.`.6XeX@X(.`./._.@X<X5XiXpXiXiX",
"yXN.b.N.qX+XoX+X9XF.G.v.v.v.#X-X1X+Xx.j.x.+XqX$X_.$XmXKXIXIXJXjXv.F.9XDXJX:.= * = , y H k.4X4Xo.H R j.~.~.(._.'.~.c._.<X'.z.Y.`.2XcXDXLXJXbX2XV.(.N.k.x.g.g.r.r.).3X6X3X`.`.<X7X6X~.h.&.t.p.p.&.K.~.(.uXiX1X<X5X3X'.K.K.y.@.~ u.a.a.t.#.#.e.e.s.K.Y.].eXeXiXeX@XrXuX5X<X'.'._.<X",
"N.,.<.n.%X$X#X-X0XNXNXcXjXS.V.$X1XV.g.r.k.+X1XwX2XD.zXJXLXKXMXv.v.A.D.rXvXb.d , = , q T n.;XtX+XR l @.I.^.).(.1X+X_.<X5X<Xc.x.Y.5XbXDXLXJXcXV.C.V.+X%XN...X.O.^ %.Y.7X6X4XeXsXuX6X'.t.( ( #.#.p.].(._.pX<X_.`.3X/.R.K.K.a.y.y.j.P.P.h.h.J.t.t.K.h.%.h.(.eXsXeX6XeXuX5X_.'.'.`.3X",
"X. .g.P.).(.$XrXSXJXKXJXcXS.b.oXyX&Xg.r.x.c.<XwX1X+X2XcXMX9XV...2.N.%XyX9X%XQ.f.[ 3.%.+.4.Q.=X5Xl.T O.!.^.Y.`.uXnXuXuXsXiX_.j.z.nXDXbXbXcX0XC._.8XxXFX1X| F E ^ ^ &.^.3X6XsXsX4X).P.@.n v b ! #.I.^.3XiXeX`.Y./.R.K.K.K.K.K.T./.).~.z.j.y.t.^.3XW.3.r.j.`.`.z.'./.|.3X`.`.}.3X7X",
"k.g.z.P.h.3.(.uXJXJXGXjXB.2.b.%XqXoXg.o.j.~._.<X<X1XoXV.m.f...K o.x.+X%X4XrXzXcXVXBX(.H u d H j.~.g.%.z.Y.Y.<XuXnXxXuXBXsX@XM.`.FXDXnXzXrX8X}.5XnXDXzX+X' s I +.*.&.@.r./.3X^.z.j.t._ / Y v Y #.t.I.|.6X6X`.R.K.K.K.K.K.K.T.|.}.`.~.Y.j.O.r.5XBX&Xk.j.Y.Y.y.U z ) K.].3X}.}.<X<X",
"V.M.W.L.%.o.(.wXbXjXF.S.2.' 3.OXoXM.X.O.K.'.@X_.2X4X_.k.f.x.k.f.u.x.C.(.@X1XkXmXDXvXoX<.F , , l ~.~.x.j.Y.`.<X1X8X1X5X5X7X_._.6XFXDXnXuXrX1X'.<XBXDXrXm.H d I +.&.#.~ ^ r.h.%.%.@.) _ s.p.+.~ &.t.4.K.[./.T.E.R.a.R.^./././.'.'.`.`.~.Y.O.r.%XyXoXk.x.^.P.( a x ! K.7X6X3X}._._.",
"N.oX@X^.&.g.`.wX9XD.A.B.b.6.<.x.g. .R  .y.'.5XiX8X+Xc.x.z.+XyX9X_.C.C.(.(.OX+X2XkXyX#XN.x.g.o.k.W.).~.~.~.+XwX1X1X<X<X'.c.c.<XuXFXDXnXxXrX<X'.<XxXDXBXV.H d d f ] ~ @.@.y.P.P.J.) / _ U.I.L.4.&.@.&.J.K.Y.R.R.R.a.E.|.7X3Xc.z.~.`.`.~.P.h.g.N.Z.C.(.M.l.4.@.b c ) R.7X3X<X<X<XwX",
"S.m.g.X.U E z.4XcXcXD.v.A.oXl.T T l ! ) y./.wXxX5X(.x.g.C.wXBXVXjXV.m.M.W.^.~._.8X$XN.B.oX4XrXtXrX1XC._.wXtXxXBXeX4X).c.y.c.5XBXBXvXuXrXwX5X2X}.1XiXBX5Xo.d d R m.(.(._.@XiX|.t.! / p.[.^.J.t.#.&.&.#.t.T.E.R.K.R.E.|.7X`.~.(.`.(.`.(._._.M.N.oXoXW.l.h.t.e./ ! #./.3X1X5X5XpXpX",
"8Xf.H , - 9  .%XJXJXcXD.S.+Xx.R d l U ) y.K.(.oX(.M.x.f.C.uXDXJXcX2X_.C.l.g.g.C.&XoXm.B.+X1XrXuXtX8X+X8XVXDXxX%X(.'.'.|./.Y.}.eX<X+X_.2XwXuXiX<X_.1XwX1Xf.K <.+XVXDXxXtXuXeXh.Y ` ` w.a.s.#.i.#.#._ ` #.T.[.T.T.T.T.T.R.Y./.`.(.^.~.%XwX8X$X+XoX(.W.l.4.&.&.( ~ #./.5XiXwX2X2X1X",
"rXf.u ; , 7 R 4XJXJXMXjX9X$Xx.%.o.g.~ ! ! O.x.(.(.C.(.z._.wXFXDXrX1X<X(.g.o.<.z.W.+XyXvXcX8X8X1X5X2X+X1XxXBX_.g.O.O.K.6X4X(.'./.c.j.x.c.<XiXiX1X2X2X2X5X_.V.rXJXLXJXMXmXwXo.l _ p._ / ( _ _ -.*.M n M #.I.[.^.I.U.a.U.R.T./.^.~.P.M.qXxXkXkX8XV.W.3.%.%.&.&.+.Y &.].sXnXwX1X1X8X",
"jXD.f.<.%.F  .`.bXDXmXVXBX%XM.z.(./.h.~ ^ O.`.eXqX%X<X}.}.<XuXFXpX<X<X_.x.f.g.%.x.+XBXJXDXrX9XqX8X1X+XV.(.(.z.x.h.u.c.3X*X`./.Y.R.j.j.j.~.`.4XwXwXiXiXuXiXnXDXJXLXMX0X2XO.0 w i.{.#.! ! m c c c c h b =.I.[.[.P.a.) #.p.P.I.z.c.z.(.qXrX9XkX8XoXm.k.g.g.t.#.@.#.y.`.uXiXwX1X5X8X",
"mX0X8XwX*X .G 3.%XrXyXyX%Xx.h.'.5X3X`.z.j.z.<XBXxX1X<X<X<X<XiXuXpX5X1X<X_.<X(.| | g.@XeXuXkXvXmXvXzXwXC.M._.+XqX4X'.'.@X`.^./.'.Y.j.z.z.z.~.@XwX5XwX1X<X5XbXDXJXSX9Xf.H - 5 j s.E.e.t.@.v 0 7 9 w m Q i.{.].[.P.t.! ! ) t.h.x.x.M.M.V.oX$X;X$XoXN.qX4XM.%.@.y.y.j.Y.].3X3X5X1X1X",
"JXcX0X1XM.R F 3.(.%X(.x.%.O.j.|.5X4X%X+X_._.5XuXpX<X<X<X<X}.4X4X1XrXxXwX1XuX5XO.l ~ K.`.1XzXDXDXVXtX<Xc.j.'.4XxXuXwXwX<Xx.o.g.M.Y.Y.~.~.~.(.(._._._.@X<X2XuXFXDXDX$XB = = ; C a.a.a.T.Y.#.n w 0 j M _ p.I.T./.R.a.e.@.j.~.(.m.m.b.f.m.V.oX%XoXm.S.lXlX(.g.t.y.t.y.y.I.`.3X5XwXrX",
"mX0XoXb.X.R  .l.M.).z.%.~ e.Y.`.5XwXrXrX5X_._.wXiX5X}.`./.'.'.}.5XbXDXuX5XxXtXj.O.@.T.].5XFXFXbXuX4X`.Y.'.`.wXBXiXiXuX1Xx.u.x.V._.(.(.(.(.~.M.x.x.M.+X1X8XyXcXbXcXm.V q G ' o.&.h.K./.*X*X^.J.#.Y b -.s.a.a.K.a.a.U.^.4XuXzX0X8X8X$X$XoXV.oXM.<.m.%X%Xn.%.@.e.e.) e.T.].4XwXzXbX",
":XN.1.>.' +.*.h.J.P.h.t.t.K./.4XiXBXFXDXnXC.k.@XBXxX%X_.`.Y.Y.}.uXDXDXnXwXxXtX}.Y.j.Y.`.5XBXxXqX<X<X`./.).@X5XiX<X<X1X2X1XiXiX5X+X(.(.~.W.M.M.m.x.k.S.VXFX8X$X2X$Xf.1.%XuXuX*XJ.t.U.T.].*X].dX].) b _ s.s.i.i.d.a.T.`.eXFXJXJXmXmXbXzXS.b.m.f.o.r.z.l.X.E Y / Q ` p.[.7XwXzXcXmX",
"9XB.,.J ' 4.4.h.h.h.h.j.K.Y.`.3XuXBXFXDXxXk.O.<XVXtX+X_.`.P.x.7XFXDXSXzXxXBXxX5X'.P.P.I.].7X`.~.'.`.3X5X<X+X5XwX_._.V.<XuXDXJXnX+X(.(.~.z.x.C.(.M.v.D.VXmX-XS.m.oXS.$XzXDXJXxXz.h.T.U.U.U.[.[.[.+.0 n -.s._ M M ) a.^.%XcXKXKXMX9XD.v.<.<.<.o.o.g.g.o.T f v b b ) R.}.pXFXDXDXMX",
";XoX,.'  .%.h.J.h.J.J.K.P.Y.~.@X<X2XwXuX<Xo.u.eXBX1Xm.x.x.l.3.M.5XBXrX_._.`./.j.K.y.U.a.a.y.y.J.Y.Y.}.6X5X<X<X5X'.j.g.z.2XDXJXuX+X+X@X(.C.M.(.+X%XoXS.$X$XS.B.#XwXkX-XB.rXDXtXh.#.a.s.a.a.U.E.[._ 8 0 c M _ / M ! e.Y.(.0XDXSX9Xm...P K X.<.<.3.o.o.%.%.%.@.! M y.|.iXbXJXLXJXcX",
"N.%Xn.3.%.%.h.&.&.h.K.P.Y.Y.~.`._.+X<X'.x.r.'.iXDX0Xv.>.o.r.| | t.^.Y.o.@.p.U.a.y.e.i.i.w.w.e.a.K.K.'.3X3X5X5X}.Y.r.%.g.+XJXDX1X<X1X<X}.<X+X<XwXtX1X(.x.x.m.N.rXDXDXoXg.~.4XP./ ( ` _ i.i.a.R.R.) 8 7 0 h / =.I.t.%.^.4XrXzXzX0XV.f.o.o.<.3.3.3.%.G | *XeX`.j.y.K.3XiXBXDXDXFXrX",
",.Q.W.3.] ] +.*.@.&.j.^.`.`.*X@X@X+X@X`.(.~.@XkXmXDXzXD.f.g. .U ~ +.E U ( _ _ _ w.i._ ` M M e.a.a.K.Y.`.}.5X3Xc.r.y.y.Y.5XDXbX1X5X5X2X5XwXwX1X8XwX1X`.z.z.W.c.6XFXBX+XY.K.K.e.` ` M M ` i.U.T.J.( 0 0 w c m E.aX7X~.4XuXkXjXjX0X2XS._.C.g.g.g.h.t.d R 7XBXsX5X_.`./.'.~.'.<X1X8X",
",.6.X.C s E +.*.#.+.t.^.3X7X3X).'.@X@X+X&X_.2XkXbXJXLXMXD.>.R I v U Y ( ` M ` i.w._ ` M M ` i.J.a.R.T.'.`.}.'.j.j.K.R.|.pXxXrXpX5X5X0XuXxXwX2X2X1X<X`.~.~./.`.|.uX4X+X^.E.s.a._ -.` ` -.-.s.i.Q n ` -.` n c E.aX].(.wXnXSXDXSXNXjX-X+X_.M.x.z.'.P.U U Y.|.5XeX5X5X/.j.w.^ ^ x.<X",
",.G r ; , f E @.p.*.&.P.~.^.).).P.P.(.5XeX<X<XuXDXJXLXKXD.[  .~ ~ ~ ( ) / n M _ _ ` M ` _ i.U.J.a.t.K./.|.}.R.Y.'.|. X|.<XwXwX5X5XpXxXbXbXnXuXwX1X<X`.~.`.`.`.|.7X}.^.R.E.s.s.s.-.` -.i.i.i.` c b s.U.p.Q E Y.[.z.z.4XxXDXJXLXJXmX9X2X<X<X@X@X5X`.j.@.y.R./.|.6X5X3X}.j.O.O.x.<X",
"<.H < = - 9 T +.*.&.+. . .%.h.^.].P.z.).3X|.}.<XtXDXJXvXb...r.h.P.P.J.( x x ` U.a.e._ e.s.p.K.K.j.r.y./. X XT.R.|..X.X|.|.}.5X5XtXBXFXFXVXDXDXFXuX5X}.|.`.`.`.}.7X7XK.w.i.s.s.d.;.M _ i.p.a.p.( b ( #.p.&.p.Y.K.r.I.7XiXBXFXDXDXBXrX1X5XwXwX5XiXiXpX`.Y./. X7X6X5XiXiX2X_.+X1XiX",
"X.J V e e 9 g I *.t.+.U ~ +.h.].*X!.3.%.z.R.j.o.f.(.N.b.,.3.W.=X3X`.K.! w c i.E.[.T.K.U.J.L.I./.K.y.K.E.[.E.R././..X.X/.|.|.3X3X5XiXiXpXwXiXuXiXuX5X6X3X|.`.}.}.fXaX`.w.x w Q -.M m _ K.^.^.!.P.Y z #.U.R.a.U.J.[.[././.`.<XwXxXrX2X<X<XiXiX5XpXsXBXeX6X7X7X7XpXpXiXiX0XwXxXnXbX",
"J X.X.X.T e p I +.J.J.&.@.&.J.[./.g. .o.j.j.X.H V A B G T 3.W.+X_.4XP.T a b i.p.e.p.E.[././.'.<X|.}..XT.R.R.R.R.[.[..XE./.|.<X<X<X3X}.'.'.'.`.}.`.3X3X|./.}.|.}. XsXiXy.q - 7 w c M d.[.=X=X6X@XE g e.[.E.T.a.K.T.[.R.#.! ) Y.4X5X`.`.|.|.3X3X5XpXpXpX7X3XpXpXiXpXsXuXuXuXnXFXcX",
"K <.M.Q.6.Z G T %.t.J.t.#.&.h.h.y.R.~.+X<X(.o.H z A J J Z V G <.(.%XW. .~ _ i.( c v e.E. X|.3XiXuXaX6X/.R.E././.E.[.|.T.Y.].3X3X`./.c.y.u.o.g.j.Y./.|.3X/.}.|.3X5XxXtXo.9 ; ; 8 b #.{.7X6X*XeX4XU 8 b U.R.R.s.a.i.w.` M M ` E.sXuX7X|.|./.|.|.|.|.|.|.|..X XpXpXuXuXpXpXuXBXnX0X",
"N.7.B.%XN.L ,.(.~.g.%.t.@.~ E +.a./.wXbXcX2Xf.| | b.7.H i i z x.qXqX%XW.j.y.#.` w 8 v e.Y.|.pXBXsX6X/.K.R.R.R./.T.|.|.R.K./.|.|.).Y.j.y.y.r.r.r.y.Y.3X7X|.|.}.3XtX1Xu.q 8 9 , a -.s.U.P.h.h.*X3XU q z _ i.d.d.d.i.i.i.i.` e. XFXsXpX3X/.R./.|.|.3X3X X/.R.'.3XiXiXpX3X<XqXuXwXV.",
"8X$XD.;X&XB.N.tXyXW.3.%.~ a z e.R.`.uXDXDXxXk.' %XVXlXx.H F ^ *XBXBXyX~.g.@.e.) w 8 0 b #.I.].7XE.a.w.i.a.E.E./.}.|.|.'.Y././.~.I.P.Y.`.3X<Xc.u.) j.|.6X7X6X6XpXpXY.H z ! ! v ! p.J.p.t.@.r./.|.R.y.a.a.w.i.s.s.a.d.a.E.d.a.7XsXuXpX6X|./.|. X|.|.|./.K.c.c.}.5X5X}.'.~.(.%X(.o.",
"oXS.#X9X9XN.b.qXqXN.g.%.E z ! U.|.7XuXFXBX%X' ' qXDXVX(.X.O.h.).tXsX@Xx.%.%.t.e.w 0 0 w j n / ( a a b d.s.R.E.|.dXpX3X}.'.'.~.Y.K.j.~.wXBXxX+Xo.^ y.}.5XwXiXiX5XeXY.y.Y.T.E.].[.K.t.t.e.@.#.T. X6X|.[.U.a.s.R.s.s.a.E.E.a.y.|.sXsXdX6X X.X}.|.|.|.<X<X<X2X1XpXiX2Xm.u.u.g.g.K i ",
"b.v.Z.S.%XQ.b.m.m.m.l.h.h.%.t.Y._.6XeX3Xz.| l l j.5X1X3.'  .+.%.P.~.~.P.&.*.@.U q 9 7 8 7 7 8 8 7 5 a i.E.R.R. XsXiX3X}.}.'.'.Y.y.r.z.qXBXBX2Xf.^ j.3XBXBXbXiX5X<X}.7XeX5XeXsXpX`.K.a.y._ #.a.E.|.].T.K.a.R.E.U.s.a.R.R.y.K.[. X|..X.X.X.X|.7X5X5XwXzXcXcXcXnXFXcXD.f.x.g.| i , ",
"1.#XyX#X1.<.k.m.m.m.g.h.P.P.P.~.(.(.(.x.O.H U l U o.| R ..' F F ] %.h.P.J.#.f 7 , 9 q w p 0 w 0 w w w M s.R.E. X6X7X<X<X}.`.'.c.y.r.j.@XiXxXwXx.O.~.sXDXDXnXwX<X<X3X7X<X@X5XsXFX7X^.P.t.#.e.a.U.K.K.p.t.#.t.i.a.s.K./.Y.j.j.j.y.e.y.R.R..X3XpXuXFXbXmXmXmXSXMXmXcX0X0X0XD.2.V i ",
"1.lXVX8XH H 5.%XqXm.X.$.$.+.h.^.`.~.(.x.M._.@XN.%.X...o.m.5.H i s  .O.P.T.E 7 , F %.h.h.3.%.&.%.@.) b b i.a.R..X3X3X}.}.}././.Y.y.e.y.~._.2X<Xz.O._.FXDXFXuX5X|.7X|./.Y.Y./.|.3X/.K.K.U.e.` ) ~ ! e.t.@.Y ! / e.Y._.1X8X8X%XN.o.! y.R.|.3X5XuXFXFXnXbXmXmXmXmXcXzXzXmXSXcX0XV.b.",
"J oXqX5.H V (.BXrX2.H G F R h.^.~.M.~.`.qXbXDXcX(.<.<.$XmXmX-X9.Z R @.J.U.! U z.<XlXlX@X~.*X=X`.@X~.! n ` a.E.|.}.3X}.}.'././.z.r.O.j.z.~.(._.z.g.C.4XuX5X<XpX7X3X|.E.K.c.z.r.U U ) t.w.n w z a Y #.a.#.@.~ I @.8XVXNXNXKXJXVX+Xx.~.`.3X6XwXrXnXrXrXzXcXcXbXMXcXzXzXMXmXMXlX;XoX",
"r u u V C ' `.uX%X..V V ] %.3.z.h.g.M.%XtXnXBXwX(...oXVXJXJXVXjXx.R ^ +.&.&.3XBXBXrX%X`.~.^.*XdXBX6X) c M i.E. X|. X}.}._.`.`.'.C.M.g.x.(.<X%XV.x.C.x.x.'.3XpXiX3X/./.}.<X}.^ ; , I j.%.U U @.~ @.t.U.K.K.h.| g.JXIXKXKXIXKXNX0XqX%X<X3X<XwXbXcXzXzX0XjXzXzXcXcXzXzXmXmX9XD.v...",
", 7 7 a W +.z.`.`.z.R F %.^.z.g.@.%.+XtX$X+X(.o.F X.wXBXjX:XlXcX+X<.i f E J.*XyXzX8XC.(.z.r.T.6XBX6X) w c i.s.E. X X}.`.}.2X5XwXzXwXm.k.+X8XrXrX`._.'.'.}.7XuXuX7X.X}.iXFXFXK * ; R aXyXQ.(.(.h.%.%.J.J.!.M.1.S.LXUXUXUXUXGXF.F.5X<X<X}.<XrXVXmX0X0X8X0X9X0XjXNXcXcXSXmXF.B...V ",
"- 9 l b ( &.t.j./.|.y.U %.].^.g.@.g.@XqXm.3. .g p g.@XM.6.6.Z.-XkXN.i , U r.z.$XmXxX+X+X~.y.K.].eX/.U 8 0 M w.s.T.|.`.<X2X8X0XrXmXzX+XC.+X2XxXxX4X_.pXpX7X5XuXiXpX7XnXDXJXVXi = , E yXCX>X4X%XW.o.o.l.W.(.N.2.#XJXUXUXUXIXjXA.+X8XuXwX@X@XwXbXDXnXrX0X8X0X0XzXMXMXMXJXSX9XD.<.V ",
"r - l Y +.h.J.j.^.7XP.X.g.).*XM.t.g.l.l.&.+.v a ! @.+. .E 3.oXlXVX:XL d %.h.<.S.DXDXS.m.^.J.t.^.).h.^ g 8 x ) K.3XwXrXzXcXnXzXjXjX0X1X_._.<XwXeX1X<X5XpXpX5X5X5XpXpXuXuXqXb.9 , , q X.W.W.*X+XN.h.3.N.oX&XN.>.m.lXLXIXKXNXD.$X1XwXwX5X3X_.<XbXDXbXzXcXzXcXDXJXJXKXKXKXMXjX#X2.i ",
"B.< d %.~.~.h.z.~.*X~.h.l.W.`.W.z.g.3.&.#.b j Y #.&.*.$.%.oXvXKXKXjXZ.W.3.g.5.oXJXJX;Xg.y.h.P.!.%.h.~.%.F I ^ Y.xXBXDXDXSXSXmXcXjX0X5X_.'.}.5X5X1X<X5XpXiX5X<X3XeX3Xg.| V , 7 s T g y F +.~.oXQ.M.n.N.Z.#Xn.K ' N.-X:X8XD.S.1XwX<X~.'./.Y._.uXDXGXGXKXJXKXLXLXLXKXLXDX-XB.>.J u ",
"vXL H (.eX@Xg.g.g.P.~.~.z.~.`.~.z.x.z.J./ w w Y E h.!.L.l.yXJXLXMX:X9X(.g.k.N.oXmXDXqXg.U @.^.P.#.I.7XQ.X.R E J.wXnXDXSXSXSXGXMXMXcXrX_.~.}.wXiX5X<X5XpXiX5X<X3XeX`.l = * = I J.].J.| R %.W.oXN.N.N.B.N.&Xn.X.R | <.(.(._.+X5XiX<X(.Y.K.K.'.5XFXJXLXLXLXPXLXJXJXSXzXS.P H K ..] ",
"lX:...<XqXN.5.3.g.x.(.3X4X1X%XoX`.~.M.h.Y 8 w b E %.].P.] l.qX8X+XV.x.o.x.tXxXkX9X8XN.X.z ! T.I.h.L.4X(...'  .%.M.$X0XjXMXJXKXKXKXmXbX1X_.3XsXFXuXiXpXiXsXuX3X3X4Xc.F = # r J.[.*X].~.x.^.3XyXyX1XoXm.M.).3.g.z.t.g.I./.@X1XiXuX}.'./.R.a.R.}.uXDXJXJXJXJXcX2XV.Z.m.f.| | %.h.h.",
"oX<.3.m.x.l.l.b.%.l.(.1XtXlXyX(.~.~.`.J.l 0 n / ~ &.t.] d q d R X.3.%.I  .wXDXmXoXm.r.! w n a.K.]  .@.@.R ] $. .1.b.S.-XcXLXUXIXKXMXjXS.x./.5XBXFXuX5X5X5X<X'.c.h.t.) U Z $.Y.P.h.P.W.W.@XuXFXJXbX0XV.C.z.%.l.*X^.K.y.K.|.sXBXxX6X*X X.XR.T.`.5XzXwX2XC.x.u...f.x.x.j.c.j.z.Y.P.",
"f.3.g.o.o.%.g.k.g.j.z.(.1XtXuX<Xx.j./.Y.~ b _ #.#.( (  .T d q q U @.( v w @.*X).x.o.^ v c n / ` U l d d F  .3.k.2.b.S.0XcXJXIXUXLXcXZ...| y./.sXsX3X'.'.c.j.x.g.l.l.P.[.7X*XP.%.g.l.W.W.Y.3XBXDXVXvXwX1X`.M.~.*X).!.K.y.R. X7X3X|.|. X}./.`.3X5XiX_.f.| R o.(.1X_.c.C.C.C.`.`._.",
"g.x.g.o.%.o.o.g.f.x.x.M.(.qXxXuXW. .y.U.t.#.#.&.M b / #.I.).O.q w ) #.b w 8 v U U ~ ~ Y / / M M b U ' ' ' o.m.$X$X#XD.8XzXbXSXJXGXjXS.f.f.z.Y./.c.c.j.y.u.u.h.z.j.l.(.4X6X].j.y.j.l.W.z.h.z.`.4XxXxXuXuXeX4X3X`./.Y.K.K.e./ M w.T..X|.7X7X}.<XuXBX5Xo.^ y.}.iXFXiXC.x.C.2XwX+XV.",
"(.4X(.z.g.k.k.g.k.m.M.W.W.+XxXbX`.^ ~ #.p.i.#.+.b c ` U.dXBXz.g w E O.^ R R U U / _ _ ` ` ` ` / _ P.qXtX$XoX8XbXDXvXD.Z.2XzXcXjXNXcX0X2X0X0X+X~.j.R.K.y.y.y.h.z.y.y.z.~.'.R.y.w.j.j.z.~.~.j.O.h.@X<X<X3X3X|./.R.a.K.T.R.! w w M T.|.}.6XsXwX8XiXxX8XC.z.'.5XuXwX5XC.x.m.wXwXS.V.",
"%XyX;X%X&XoXZ.b.b.n.x.3.g.(.wXxX`.@.) _ i.i.i.=.M m ` U.6XBXP.R | x.&XoXW.l. .U Y _ ` #.#.@.~ ~ @./.BXBXkXyXtXvXxXxX2XD.2XzXbXmXNX0X0XzXLXLXrXx.'.|./.y.y.y.y.h.4.%.g.h.c.Y.x.l.y.y.Y.`.*Xj.F ! K.K.K.K.K.K.y.a.a.K.[. X&.g g +.].6X3X3XsXFXbXtX5X2X_.`.}.5X0X0X<X_.m.M.+X1X+X+X",
"-X&XZ.#XyXqX#XN.k.k.g.%.r.c.3XiX<Xy.) =.s.i.i.i.` M ` p.`.<XY.K.8XDXJX9X%XqXW.R ^ @.~ @.P.x.g.g.h.`.wXwX8X8X1X+XV.S.2XrXbXbXbXmXmXDXmXGXLXPXbXV.'.7X6X/.r.u.h.h.O.~ r.z.Y.K.P.!.K.K.'.3X4X^.u.) e.a.a.y.K.a.e.a.t.J.[.7XP.T T %.^.).z.c.5XFXDXBX5X5X}.`.5XiX5X8X2X_.C.C.V.+X1X<X",
"-X$Xb.b.+X%X+XoXx.x.g.j.j.R.3X6X`.u.( s.U.i.i._ ` ` w.a.~.~.Y.|.DXPXJXlXyX%Xk. . . .X.M.wXyX1X_._.<X5X2X1X1X<X_.V.2XxXDXDXcXzXmXJXJXJXSXJXJXcXS._.5XsX7Xg.O.j.z.z.g.z.Y.Y.^.`.^.^.'./.}.3X`.K.y.a.a.K.R.R.R.a.p.e.p.^.].!.4.h.J.J. .E ^ Y.tXBXuX5X1X5X5X5XwXwX2X2X2X+XC.x.k.k.x.",
"tX%Xm.k.M.~.~.(.z.x.l.P.Y./.}.<X~.~ ) s.U.a.e._ i.s.s.Y.).^.~.Y.eXxXzXqX%XM.o.^ ' | (.vXmXcX8X%X+X2XwXwX@X%X5X2XxXFXFXDXSXbXnXrXzXzX0X0XiXzXrX1X<X5X5X`.h.o.r.c.5XwX<X~.M.).|.`.(.'.'.}.`.~.Y.K.K.a.K.R.R.R.a.i.y.K.^.J.I g &.^.U.E v ! K.eX4XC.<X5X8XrXuX0X0X0X2XiX<Xx.k.<.o.3.",
"uX8X_.x.x.~.~.c.Y.P.Y.j.r.z.(.`.'.z.z.z.Y.Y.t.U.R.E. X7X|.^.P.y.O.g.~.`.z.g.g.o.g.%XmXJXZX0XF.$X2X2X8XwX1X+X+X5XBXBXbXmXmXFXnXrX1X2X<X<X3X5XwXiX4X(.x.o.o.o.O.j.wXDXnXC.x.~.}.`.^./.|.|._.'.'.R.K.K.R.K.R.R.K.y.y.K.E.#.8 5 ] *X[.&.%.K./.|.Y.Y.~._.1XrXmXSXcX2X+X1X+XC.f.r.%.%.",
"VXxX%XN.(.@X`._.~./.'.z.x.z.+XiXuXuXqXqXsXiX`.P.K.U.T. X X/.K.e.` / ` ) _ p.t.E x.uXDXDXjX-X0X0X9X0X$X1X1X1X2XwXwXiXuXcXSXDXFX0X2XpXpX5XpXpXiXuX1Xx.g.g.f.u.u.C.wXDXxXc.r.Y.|.3X_._.<XwX5X<X`.`.'./.E.R.R.R.U.K.y.t.U.J.v 7 I [.].L.W.3X|./.K.K.'.~._.8XmXJXJX0X2X+X(.M.x.z.j.o.",
"lX1XN.(.6XaX3X@X`.`.'.<X5XiXnXFXSXcXrXnXFXiX~. .b / w.a.T.T.a.w.( Y c w w n v I X.@XBXVXjX9X9XvXcX8Xm.1XwXwXwXwXpXpXwXzXSXDXbX2X2XiXiXpXpXwXxXFXuXV.V.<X<X'._.wXuXVXwXc.y.'.3X4X<X8XuXbXnXeX3X`.E.E.E.K.K.K.Y./.E.R.U.=.( v *.J.h.%.).*X^.R.R.K.Y.^._.+X0XDXDXzX1X$X_.x.x.P.z.o.",
";Xo.H | ].aX3X/./.`.<XiXuXBXDXmXnXwXwX5X_./.@.x w w n / t.g.o.X.>.>.' i 9 9 7 q I l.yXmXjXjX-XrXwXN.k.eXBX8X1X4X<X<X5XxXSXDXbX1X2XpXpX5X5XuXmXJXSXrXrXBXuX5XiXBXsXuX<XR.R.R.}.3X5XuXBXxXuXeX`.I.Y.R.T.T.T.T.[..XT.U.p._ b ( I.L.l l J.]./.R.y.K.^.`.<X+X2XcXmXrX1X1X_.x.x.z.g.o.",
"<.q ; y t.6X3X|.|.`.`.<X1XtXbXzX2X5X}.K , , w b n x M ) P.k.1.C.D.-X9X-Xb...' ' C ' N.yXzX8XoXN.g. .X.4XFX5X'.P.z.Y.'.<XrXbXnX5X<X5X<X<X5XbXJXJXDXzXrXiX5X}.3XiXpX3X/././.'./.}.5X6X7X}.`./.Y.K.j.Y.E.E.T.U.U.t.( v b Y v v @.&.p 8 n a.[./.c.`.<X1X5X1X0XzXnXwX8X1XC.x.z.z.g.o.",
"o.9 = ; U ].*X3X5X3X`.(.%XwXwX2X1XwXV.B = ; F h. .Y @.j.`.(.V.rXcXMXJXJXMXVXmXZ.:.L ..x.4X4Xm.' T l R ~.uX5X`.j.j.j.K.Y._.<X<X`./.}.}.}.pXFXJXmX8X2X<X3X|.R.R./.|.E.R./.|.|..XR.R.a.y.y.u.^ ~ y. X X[.K.t.@.) v a v E *.t.~ Y v 9 8 w e.|.6X1XwXuXnXuXwX0XrXuXwX8X1X1X_.x.x.m.f.",
"%.F 9 , v J.~.).*X3X3X@XwXwX+X'.1XiX+XL < H k.(.5.5.l.P./.'.V.1XlXMXKXKXHXKXKXNXF.S.K ' o.*Xl.$. .E ~ j.'.3X5X`.'.Y.'./.~.z.c.C.<X5X<X'.5XBXFXxX2X'.c.R.R.K.a.R./.E.E./.|. XE.R.w._ _ e.y.y.y.[.sXsX|.K.( Q Q c h =.I.dX].^.E ( +.&.( y.].iXsXsXFXFXbXuXwXrXrX0X8XwXuX2Xm.V.2X2X",
"&.+.I v ~ #.r.z.~./.`.4XuXeX_.~._.eXwX%Xx.6XyXyX8X%XN.x.P.z.C.%XvXmXKXHXHXHXGXGXGXvXB.L | o.l.^.).P.#.@.j.6XeX1X_._._._.z.j.c.<XiXuX1Xm._.1XxXrX2X'.c.R.T.R.R.y.R.R..X.XE.R.K.a.d.y.d.K.E.R.K. XaX7X^.t.! n m n n #.J.J.J.@.I +.^.^.l.j.j.~.'.3XrXBXFXnXnXrXrXrX0XwXuX0XD.2XrXFX",
"@.P.z.@.@.+.~ @.h.P.P.@X5X@X`.z.P.'.`.).l.g.1XbXDXlX+Xl.g.r.z.=XzXJXJXKXKXHXGXHXGXMXA.1.<.X.h.T.^.K.@.t.Y.4XwX2X2X1X<X(.x.M.%XtXDXbX8Xz.j.`.4X@X<X'.}.3X3X].t.) M s. X7X XE.K.a.R.E.R./.7X|.R.K.K.a.e._ / / / Y j v n a j w 8 g ~ J.Q.W.^.K.@.@.c.3XiXnXnXzXrX0X0X1XiX5X2XwXbXDX",
"%.3X3Xt.( ~ ) ) %.r.g.M.(.`.(.z.j.r.r.t.v z g.wXBXzX%XM.g.%.h.+XtXzXmXJXLXKXJXJXSX0Xm.oXoXM.k.%.@.@.e.K.T.}.wXiXyXtX8X(.V.$XrXVXJXmX1Xk.x.'.`.`.+X<XiXuX3XR.) n c d. X7X X.XE.E. XdXsXpX7X/.y.) ) _ _ _ i.s.s._ Q Y v v #.( g 8 8 U %.h.|./.y.@.y.Y.`.5XuXuXiXwX2X+X2X1XwXnXDXDX",
"P.6X5XJ.E U ^ #.t.%.3.o.<.g.g.g.%.@.~ ! n x @./.}.%X+X(.M.3.u.z.+XoXB.2.v.9XvXrXS.f.f.1XtX4Xm.K O.@.@.h.^.3XtXBXbXbXyXS.S.kXDXJXJXmX2Xf.x.c./.|.@X1X5X5Xc.w.! b ! a././. X X.X.XsXgXsX7XdX.Xw.M ` i.i.w.i.i.i.` #.I.J.4.I.I.P.&. .+.@.t.!.P.P.j.a.K.j.Y.7XuXiX5X2X2X2X8XwXrXbXJX",
"^.dX7X%.U ~ @.#.y.%.3.3.3.g.g.k.%.@.r.t.t.#.a.J.z.(.(.OXoXx.g.x.M.M.>.i H m.%X(.<.<.g.~.4X`.x.'  .%.%.&.I.7XuXuXnXnXrX2X2XSXDXcXcXzX+XC.`./.Y.`.}.1X<XC.g.u.e.u.Y.`.'.a.E.E.R..X7XdXpX3X|.T.a.d.i.i.w.w.` n c n U.U.*.&.^.*X6XtX@XW.P.^.W.g.h.Y.[.R.y.y.c.}.5X1X<X5X2X8XrXrXcXcX",
"K.7XY.^ U +.%.r.h.g.M.(.(.~.W.M.h.h.P.^.].].Y.g.x.M.N.Q.XXn.k.n.k.+XoX| z X.l.g.o.g.r.r.Y.z.h.E T Y ) &.a.`.5XeXpXrX8X<X5XBXnX0X0X1XC.z.~.j.%.P.<XrXyX%X_.'.}.4X6XeX`.y.y.K.K.U.R./.|.}./.R.R.a.a.d.w._ M x w w M m b &.^.@XqXyX1X+X1X6X(.g.g./. XT.y.) O.j._.+X_.5XrXrX0XzXnXD.",
"t.I.&.U ^ +.%.h.P.W.M.W.~.~.~.!.K.^.`.`.`.].~.g.k.n.<.<.5.,...<.k.N.@XP.R F  .@.r.r.r.h.P.z.h. .G f U &.K.^.@X5XiXiXqXC.c.<XeXeXqX`.g.o.| F l @.1XxXCXwX5X3X7XiXsXiX3XY.K.T.R.i.w.a..X X XR.j.R.T.K.t.#.) ) m m c c ( ^.eXrX0X8X1X$XyXwXC.g.r.j././.Y.u.! @.Y.).<XwXxXcXzXnXrXv.",
"K.T.J.O.~ +.%.h.P.l.3.o.o.o.t.J.K.].3X|.K.j.g.l.(.oXk.f.f.>.,.k.x.<.<. .v ^ y.y.P.J.j.z.z.x.k.g.,.F F  .t.P.(.@X5XtXwXx.^ O.P.^.^.P.r.%.O.| | u.'.6XsX4X}.}.'.Y.}.<X@X`.].[.T.d.) e. XdX6X}._.}.eX5X@X~.j.T.U.e./ ! @.*XBXvX8X2X1X1XuXrXS.C.c.z.`.3X7XY.^ @.Y.`.V.0XvXbXbX0X+XC.",
"T.[.Y.t.~  .%.t.l.g.%.X.H F E @.y./.3X/.e.~ %.W.;XkX;X;X9X-X%XyX'.o.R ~ ) e.y.K.W.W.~.~.~.M.M.+X@Xg.T l U %.l.~.`.4X@X%.g q w x b @.K.R./.@X3X/.Y.'.`.@X}.'.z.P.R./._.'./.[.R.y.M w.E. X6X6X5XsXDXFXbXwX+X5X3X/.T.t.) Y.uXrXS.m.x.V.tXVXbXyX%X(.1XxXBX1Xf.u.~.).+X8X0XcXzX$XC._.",
"T.T.K.%.@.@.@.r.$.%.%.%.O.^ ^ O.j.Y.].K.! n r.`.rXzX8XS.$X-X;XOXQ.k.k.Y.T.%.) j.+X4X1X%X2X+XwXBXxXM.T q 8 a E 3.u.z.5.] a 8 0 w n #.T.7XeXwXiX3Xj.r.z.<XwXwX_.`.'.'._.+X}.R.a.e.` w.d.R./.3XpXBXmXDXbXzX2X8X5X4X<XY.%.j.<X1XV.x.<.x.+XtXvXvXzXuX8XxXxX2Xx.x.z.~.$X0X8X2XS.V.+XoX",
"U.p.~ ~ @.@.+.@.%.o.r.x.~.`./.z.j.j.z.r.v l %.@XrXvXrXB.P A J [ <.M.4XaX*Xo.H r.|.7X3X1XwXrXtXnX4Xk.' l l U  .%.@.U I l U Y z n E t.^.7X5X5X7X/.j.o.x.iXDXVX0X%X}.<X5XiX7XR.y.d.i.w.d.a.R.3X5XwX0XrX2XD.D.2X_._.`.z.h.z.~.1X1XC.g.x.M.S.#X8XtXxXrX8XwXoXg.l.I.P.+XrXwXV.m.+XiXN.",
"#.Y w Y e.+.@.J.Y.z.z.(.<X4X3X`.C.z.z.j.@.R %.*XBXBXxX$Xv.2.b.b.g.x.3XsXiX`.g.Y.@X%X%X1XiXwX2X_.(.x.g.z./.].I.h.X.v x ) P.l. .~ %.I.3X3X`.'.Y.Y.J.@.g.sXLXJXSXnX1X<X5XiX6XY.y.a.d.d.y.y.R./.`.%X1X2XS.V.V.(.(.+X(.W.h.l.).1X1X+Xz.).@X+XV.S.0XrX2X$X1XC.<.g.j.%.(.5X3X_.C._.wX+X",
"v w 0 n #.#.&.J.^./.`.%X4X1X+X1X$X+X@X`.h.o.x.5XzXvXvXrXcXJXJXlXV.f.x.`.aXsXeX5X4X%X+X1XwXwX$XoXW.(._.<X3X*XI.J.] a w t.=X).3. .j.^.`.~.z.z.j.j.I.t.o.<XJXLXLXSX1XV.(.`.`.W.P.K.a.y.y.y.y.j.c.C.m.f.k.b.b.b.oX%X(.x.g.M.).1X4X1X+X(.+X<X+XV.+X8X0X8X1Xc.3.o.o.O.x.g.g.z.C.5XBX1X",
"v g z ~ t.J.P.I.~.~.~.~.4XrX0XkXcXcXrX1X~.z._.iXnXcXkX9XmXLXLXmXD.7.o.g.`.eXBXuX4X%X%X1X1X<X@X+X%X1X4X5XW.X.E ( b w w t.*X*Xz.z.@X3X_.z.h.%.&.&.h.h.O.j.iXDXDXnX<Xc.j.j.z.z.K.a.d.y.y.y.j.c.C._.v.2.f.v.v.v.Z.#XN.n.W.M.M.%XwXwXwX+X+X1XwX1X+XuXBXBX5Xc.O.| | R 3.h.Y.'._.wXFX0X",
"l f U y.Y.~.~.^.).P.%.o.~.uXFXVXVXmXzX2XC.M._.2XuXnX$XB.+XbXvX8XN.5.X.X.o.~.4X3X'.'.<X3X<X@X+X@X%X4XqX4X3.y 9 9 0 0 v &.4.%.g.'.=X4X(.z.t.#.#.t.y.a.) ! j.3X6X}.}.'.R.K.Y.Y.K.K.a.K.K.Y._.<X2XwX2XV.v.2.2.>.1.m.S.oXoXm.M.1XwXBXiX0X5X5XiXeXqXwXeX4XY.@.! Y @.+.g.j.'.`.<XwXBXrX",
"T E O.P.`.`.(.`.3XY.| U @.`.sXBXVXvXzX$Xm.z.'.C.wXuXM.<.g.m.f.<.g.3.%.+. .r.Y.y.y.R.}.}.`.`._.+X_.1XwX3X%.7 - - 8 v L.!.} ' 3.P.*X).z.h.t.e.e.a.J.K.e.! n ~ y.Y././.R.R./.Y.K.K.a.K.Y.'._.2XrXcXjX-XB.2.2.2.f.v.S.S.oXm.M.eXBXFXFXrX2X<X5X<X).M.@.l g v b Y p.[.).l.P./.`.4XsXwX",
"$.%.%.^.6X<X+X<X7X'.^ l U E h._.1XrXmXzXV.M.'.C._.wXm.o.c.(.x.x.k.&.+.( +.j.R.K.j.'.}.`.`.`.(._.`.+X1X<Xr.8 8 t w E *X^.E +.+.t.I.h.h.y.e.e.K./.K.t.t.) b M e.E./.R.R.K.K.j.K.K.R.R.j.Y.3XwXzXbXmX9XD.Z.B.S.$XD.D.$X+X1.m.uXBXFXBXnXwX1X`.Y.j.~ q 7 7 g v b #.[.*Xl.r.Y.`.@X3X<X",
"L.%.T h.eXuXqX1X_.x.~ Y b p g T %.<XVXVX0XS._.C.oXqX~.g.~.3X@X(.I.h.&.h.P.^./.P.R./.`.@X`.~.'.'.'.'._.`.#.w v ` Q Q q.&.( #.@.@./ / @.#.#.t.K./.U.t._ _ ` ` d.E.E.R.R.R.a.K.R.R.R.K.K.`.<XrXbXzXcXcXNX9X0X0X0X0X0XzX8X1.<.~.`.].5X5XsXsX|.T.y.) ! ~ ~ l l n n ! ~ U ) Y.~.^.'.}.",
"P.+.d F ~.sXtX%XoXk.X.&.&.R F C U z.xXVXyX$X+X_.1X1X(.M.(.@X(.(.~.P.j.K.Y././.T.R.|.5X5X4X@X`.'.'.~._.~.@.j m _ ` Y W #.#.) @.U b ! ! / _ _ e.a.a.e._ / m _ E.U.a.R.T.R.T././.}.E.R.R.}.1XuXDXJXcXcXzX0XzXbXcXcXmXJXcX2.H H U n r.'.6XsXdXT.) e.K. XP.^ Y Y v a w b ( t.Y././.|.",
"h.+.f f E Y.`.(.oXM.3.l.g.%.h. .f U +XrX1X%X4XiXrX1X+X(.(.(.~.(.~.Y.c.Y.Y.'.R.K.[.6XsXFXBXiX5X<X`.(.).I.~ h h j b n b / _ ) %.g.j.j.t.@.~ ! _ e.w.` ` n w ` E.T.R.T.E.|.7X7X7X3X.X'.'.3X5XnXDXJXJXMXcXcXSXDXJXMXGXJXkX2.K ^ Y v v ! @.h.h.@.~ ) Y./.P.h.%.E Y a w / _ #.t.R./.3X",
"h.%.] F a U O.3.3.3.W.P.%.t.t.@.l U z.`.`.@X+XqXeX5X4X4X@X(.~.`.'.j.y.K./.T.K.a.R.|.pXsXuXiX5X5X7X@X).t.a w h h w j Q / ( &.P.6XuX5X^.R.t.) _ / ` ` M w w M R.T.E.E. X X X7XpX5XpXiXuXiX2XrXFXJXJXJXSXDXDXJXJXJXmXjXv.H R h.t.+.l 9 - - 7 g ~ e.T.T.Y.J.~ v v a w n ( e.y.y./.7X",
"(.@X!.R g g f F  .%.^.h. .+.&.@.v _ K.j.K.z.<.<.3.h.l.~.).).`.<X'.r.) K.|.|.R.R.R.'.'.'.'.'./.}.|.(.h.b 0 w h h m n m Q Q ~ ).BXDXuX^.[.[.K.e.` b M w 8 x / d.K.E. XdX7X|.|.6X5XuXFXBXBX<Xf.m.tXvXvXDXVXmXDXbX9X%Xb.V q l  .&.#.E p - - 7 g ( a.T.].P.U 9 p v v a f ( t.y.y./.4X",
"4X=X).O.a 7 q I E %.%.3. . .t.+.Y w.p.@.U l d i g d T h.~.W.~.3X`.r.~ T.7XpX<X}.'.R.J.y.t.K.R./.].h.l 8 0 w w h n Q m Y ( E 3.@XwX).%.&.R.U.t.#.) ( n x c M ) ) K./.3X]./.^.`.3XxXFXwX(.O.z y i H <.B.Z.Z.N.1.>.A i , 7 8 w z Y I s 9 7 9 g E +.&.4.X.C , 7 R $.E ~ &.J.y.g.~.5X",
"k.l.3.O.T y l +.%. .O.X.$.%.+.~ +.e.J.t.^ l q 7 7 9 l J.I.z.~.*X~.r.j.6XsXnXuX5X}./.Y.J.K.K.a.a.t.~ g 8 0 w w j } Y Y Y Q *.L.L.l. .d g b ` #.#.h.t.#.( b ! ) ) @.t.j.P.J.h.z.`.wXeXz.H , , , , , , , r , , , ; , , 9 y , ; , y V e - - 7 e C s s e e s , - C X.%.h.K.I.I.x.~.<X",
"C C ] I.h.F E I.h.%.%.z.L.@.U U %.J.P.W.`.l.d 9 , e ~ I.!.W.(.@Xh.%.).BXDXVXBX6X'.Y.Y.P.K.K.e.) E Y a 0 w n n n *.#./ Y / =.^.*X4.F 9 7 8 v &.L.I.K.p.#.~ E ~ ~ / v l U E ~ @.%.M.h.F q , q 9 e q q q 9 7 7 , , 8 u G R , # # = : ; * ; - e u u 9 , e e 9 , e Z G R +.h.P.W.~.`.",
"s s ' W.!.g.%.%.g.o.%.L.P.&.U ^ g.~.`.(.~.z.%.R d y ' Q.&X=XW.o.F b 4XJXxX+X+XT.P.!.(.`.^.K.t.&._ / p 7 8 j ` =.{.{.p.( Q *.q.q.E s t q 7 g J.=XP.#.) U U U ! ! U z 9 q f E T d y y 9 9 p f a a v I v a g p s f F F X.6.: $ $ @ # * * * : - r r r u Z u 9 7 - - , y F U o.W.`.`.",
"C s Z 5.*X3XP. .X.g.h.h.+.E @.t.W.3X4X).z.M.oX+X3.' ,.n.XXn.' 9 , v 7XCXx.F F ( r.`.eXeX].J.&.*.#.b 7 * * 5 a Q q.I.=.Q a 8 q s p j T C 9 p 4.!.P.@.! z g g z ~ X.H 9 y I E d e 7 9 q g g g f Y I j v f v I T +.( $.3.6.< @ $ % : < : = * = ; ; ; r u u 9 - - - 9 y u u d H ' ,.",
"s s u Z W.*Xl.3.3.l.h.3.] E t.J.z.).).^.~.+XrXxX9XN.k.k.3.[ s - 7 E &.$.F p a I y.'.).).L.&.( Y Y a - * # % ; e W I S f f q 7 7 9 t C s 9 e f C 4.4.X.F q 8 d n.>Xk.B u R U q 9 9 7 q a a p f f I j I W I W E $.J.J.3.,.< # > A 7.L < * * * * * : : r r r , - r B Z B ; = ; < < ",
"C e 9 u ' g.x.h.x.x.Q.M.3.4.h.t.%.$.@.@.r.M.%XyXlX%XN.1.,.3.R 9 q *.q.Y v b n b E @.*.+.Y U Y n Y Y g 7 = * * 7 8 7 9 u V 9 ; * * * = - , ; ; 7 ' h.O.d , , H oXvX%XL u d i , 9 q 9 g I I e 9 , ; 5 s T T E T T ] { B < % @ > L 7.L : # # # # # # : < ; = ; ; : r r : * * * = < ",
"s 9 9 s E h.Y.c.x.(.tX;XN.Q.l.r.+.l a g F O.l.(.$X$XoXN.N.oX$.- 9 -.{.( ( U.r.^ ' U #.#.! E E ! Y _ ) E F p 9 g T 9 ; ; - ; * * # * # * * * * ; { 3.F 9 8 z g.8XzXrXf.r , , , e 7 7 p I T s ; * * * ; : r r V B r : * # $ $ % > 2 : # @ # # # # # * * * * % # % % % % * * * = r ",
"y s t j &.z.h.x.x.%XBXvX&XoXW.g.@.! ! ] ]  .O.g.b.#XS.oX%XqX5.* = } [.l.*.!.lXxXV.R ~ &.r.g.4.@.~ _ #.&.4.+.R X.%.V = * = = = r B B r * # # # : J Z 7 9 F o.+XxXnX8XP ; , r i u , = ; e V u , = * * * = = = : * % # @ $ @ $ $ @ @ # @ @ # # # # # % % % % % # # # * * * = = = ; ",
"y e g T h.^.z.x.m.oXyXrX%X%X+Xc.l.t.4.W.W.l.o.[ <.Z.Z.Z.kXCX1.# # S =X=Xl.Q.VXLX0Xo. .h.P.W.W.h.@.%.#.#.t.g.k.m.m.V * # * = ; B X.8.,.< % # # : Z T F U O.'.uXmXBXB.1 = , u r , ; * - u u , - - ; - , < : * % # % % & @ @ @ @ @ @ @ @ # # # # # # # # # * * # # * * : : : : : : ",
"9 q I  .W.*XQ.Q.M.M.oX+X(.1X<X(.(.M.k.OX4X+X+XS._.#XN.k.%X4XZ @ @ 6 !.>Xz.h.BXBX;XO.+.L.^.W.n.t.t.P.J.#.h.XX;XyX$XA * * : < ; B ,.n.,.H 1 # # * N { W.(.(.wXDXJXtXL = * r e , = , , s G u ; : ; : : 2 N 2 = % # % > & @ @ @ @ O @ @ @ # # # # # & % # # * * : * * * = = * * * * ",
"8 8 E ~.5XeX>XoXm.B.B.M.V.wXuX8X+Xm.k.$XBXVXmXmXmXV.1.5.W.m.= $ $ * Z 6.@.#.J.%.6.&.z.x.P.z.M.j./.~.h.h.W.+XrXxXcX2.1 2 9.K < N [ Z.b.k.< # # # ; Z N.4X8XxXbXvX_.2 1 1 u 7 ; ; t { ] C - = ; : = * : < 2 * % > & % @ @ O O O O @ @ @ @ @ @ # # # % % # & # * * # # # @ @ @ @ @ ",
"8 9 O.*XeX@X~.C.k.N.S.V.S.kXmXzX(.f.V.vXDXJXJXJX:X<...<.(.V & o $ % = - 8 C } +.=.J.~.(.*X*X~.~.Y.4.3.!.`.(.%XxXvXb.B N :.N < 2 L S.oX>.: @ @ $ # : ' ^.}._.C.m.| B i Z u - ; r ] #.T , % # # % % % * : : : 2 2 @ O O O O O O O O O o o O O o $ $ $ @ $ $ $ @ @ @ $ $ $ @ # $ $ ",
"7 - F 3.X...x.C.+X%X#XS.Z.;X9XS.f.k.%XxXvXVXVXjXv.o.| oX@XB O o # # # * * - C q.I.6XCXlXCXdX/.%.F T 3.OXeX%XoX#X#Xv.2 2 1 : : A Z.9XZ.2 % # # # * ; s  .r.O.H i i B u ' V 9 s ] 8.6.r # $ o o $ $ @ # % > 2 4 & O X         .   X X O X X & > @ o X X     X & 3 > & > 2 7.G.A & ",
"= - , ; ; r 1.tXzXzXkX8XoXZ.b.3.M.@X5X4X<X<X@Xm.g.h./.yXoX1 O o $ @ # # # * ; U OXCXlXkX;X8.H = = 9 H 5.N.2.B 2 2 2 : : * % : b.lXvXA.A < r Z T { V d ' k.1...J B r r < = * r ,.,.Z = @ @ & @ o $ o o O @ & & X X X             X O & @ & 7.,XA @ @ > 2 2 2 7.hXjXF.hXAXZXGXhXA ",
"= ; ; ; = r n.vXvXkXkXrXyX>XQ.OXtXyX(.<.J Z K 3.XX&X&X,X2 & o X o o $ @ % * % * A M.v.P 1 % @ @ * = = * & @ o o $ $ @ % * = , o.kXmXkX;XN.b.W.^.].~.c.+XzXcX9XZ.b.[ V * $ o $ % * * % * 2 7.G.2 % @ $ o o o o @ $ # @ $ @ % > : N 2.7.7.A.lXcXA.1 A ;XCXyX(.(.4X+X4XtXmXJXJXkX>.",
"# # * * * r 5.oXXX2.9...,.,.J 9.9.L r : * # % * : 2 > & O X o X X $ > A 7.J % @ # = = > % @ @ * 2 < = @ o o o o $ @ * < V K X.<.8XbXmXVXVX8XM.~.T.c.<XvXJXmXNXrX$XM.k.< % $ @ % * : < A XXlXlX:XA N A < * # # : : r : ; 6 Z $.!./.yXtXlXCXvXrX1XX.W.CXtX(.g.%. . .%.z.qXBXDX9X..",
"$ $ # # * < L :.< % @ # % @ O O O o o o o @ & @ o o o o o o & & > A Z.;X;XN.N = = = B 7.:.2 : B A A B : % % * , < N ,.x.x.oX+X(.+XwXrXxXVXwXg.g.r.| V.VXJXmXvXnXrX4XM.G , ; e C C { 3.Q.OX>X>XB.A 9.W.X.5 * ; 6 r 5 5 e S 6.^.].4X@X%X4X*X=X=X@X~.`.3X~.r.^ ! v v U | x.pXBX%X| ",
"# @ @ % * = < < = % % : 2 2 & X   X X & 2 v.Z.2.A : % % : r B J 2.&XlXlXZ.N.<.J B Z ,.Q.oXQ.1.J V J J i r V Z E +.3.!.Y.3XeX+Xm.z.Y.~.+X*X`.z.r.U z ~ J.P.(.iXBXuX1XQ.%.d y f W I ] 3.l.5.' V - ; u ' G r ; ; ; ; - 5 s q.*XOX^.I.4.l.l.l.n.n.x.l.P.^.I.&.*.( ~ ) r.k.m.C.1X+Xf.",
"= = = < < 1 i H ' ,.2.7.N.Z.A.2 @ @ > :.$XkXvXcXkX;X5.B N D Z Z J W.Q.Q.n.8.3.' Z T $.h.P.=X*X$.,.W.N.N.+X+XP.4.O.%.h.Y.3X4XW.X. .~ ~ t.J.P.h.^ g 8 9 7 z l.W.~.~.~.^.~.r.T d g T E  .3.] s , ; ; 7 g X.[ < - 7 5 5 9 S &.Y.~.W.J.&.#.&.t.J.h.%.O.%.P.I.L.h.g.(.2XbXMX9X$X2X$Xm.",
">.>.L i ; , F | 6.8.b.b.k.M.1X(.X.K 8.;XyXkXcXMXvXlX2.< r B N r r Z G [ 3.5.6.{ Z T +.*.} &.L.L.!.4XeXrXnXxX4XM.g.x.z.~.`.).z. .z z ^ r.h.y.b q , q 8 q %.(.<.B i | ~.4X4X`.g.' E  .%.h.+.p , 7 C ] L.].n.Z s t 7 9 V { 3.).).P.#.( ( @.#.h.L.g.%.t.t.p.K.!.+XwXDXLXIXMX9X0X0Xv.",
"-XlX#XB = 1 Z X...' ,.6.<.1.oXtXlX;X&X%X%XOXoX%X>X8.< < G V e r s V u u G ,.6.T V F I j t t I +.h.~.<X5XrXuX1Xm.x.1X4XM.z.).`.P.! ^ r.Y.Y.@.g 7 8 w l E *.P.W.Z i X.3XBXBXuX%Xn.3.3.g.P.h.d 9 T !.*X6X*Xl.+.E C 7 9 Z 6.).>XOX@.b Y ( @.&.I.].).^.K.) ) t.~.yXkXVXIXUXGXjXjX0Xm.",
"kXzX$XP 1 < 2.n.<.[ ,.6.1.2.b.kXcX-XB.k.g.%.X.<.' < < A [ B e s f C s e V X.$.T G C g 8 8 j *.J.P.'._.2X8XrX1Xm.m.sXsX~.j./.|.]. X|.6X6X/.@.x w =.U.J.X.R ^ [.].z.@XsXsXwX1X@X).W.z.h.P.%.y y P.dX6X`.h.%.&.+.d 9 9 V !.aXqXl.v v Y +.+.&.I.].).I.K.@.e.K.`.4X;X8XJXIXJXzX9X9XV.",
"#X+Xm.v.A.D.$XS.v.[ [ ,.,...2.%X0XN.1.<.{ G Z B ; ; C C e 9 e s S f p y V ] ] I C s q 0 v #.I.Y.^./._.1XrXxX1Xm.x.(.(.j.t.K./.[.7XaXsX7XK.) b ( ^.].!.t.t.g.<XtXaX6X4X`.(.c.~.*X*X~.g.%.U 7 d ].aX5X~.%.O.L.l.' s 9 0 J.7X!. .v n ( #.#.+.*.*.( ( #.a.R.T.[.`.(.(.mXLXDX2X:XkX-X",
"N.N.S.jXVXDX0Xv.L J [ X.......N.>XoXb.,.Z u e - = r T C - ; 5 e f C p p s T T C p 9 8 a ( U.[./.`.}.<X5XxXxX1XV.h.3.O.) e.p.t.@.r.K.U./ x w g E +.@.@.P.6XeXeX6X`.j.o.r.c.z.P.).).P.$. .d - d ].aXeXx.F T XX%X5.} g 0 ~ &.~ U W b / _ ( Y n n M / #.s.R.U.R.K.j.C.VXJXrXV.2XvXkX",
"k.k.N.0XmXVXD.P B L 1.3...[ 2.N.%XqXoX,.V u e 5 - s ] C e 5 5 8 p S s g g C C d y 9 7 v p.K.P.^.`.3X5XiXnXnXrX<Xz.%.v n ` e._ ) M c w 7 7 9 8 8 8 8 z K.aXeX`.~.j.o.r.~.3X`.z.h.t.#.@.( a , p t.=Xx.V 9 T %XqX5.{ a j Y E Y ( ( / ` _ #.( / ` ` _ i.s.a.a.s.p.e.R.pXiXC.z.5XxXzX",
"<.m.b.B.v.2.P i B [ 3.g.X.,.n.(.oXqX+Xo.V V f y e I +.E C s p f W W g f f f d y q 9 7 I I.T.Y.^.}.3X5XwXuXBXuX4XP.~ v n m M / M ! n n z l z q 7 , , q t.6X6X_.c.c.z.`.eXeX`.j.^ @.! Y Y v a g d s s , 8 ] tXyX,.u g ~ *.+.~ #.#.t.#.*.*.&.&.#._ i.s.a.a.i.s.s.i.a.y.y.t.P.3XrXlX",
"<.5.3.3.<.K H H ' | X.3.<.M.oX(.M.M.x.%. .E I T $.4.q.( W W W E } W j f I f g g 8 7 7 U [.7X`.`.3X}.<X5X1X<X5X<XJ.( b n c c c M e.t.K.E.R.y.%.E |  .| Y.eX>X~.~.(.<X5XwXiXwXz.l w a U Y I I a q 7 7 - 9 $.aXvXb.d g +.#.@.%.#.#.=.*.@.+.@.&.#.p.i.s.s.d.i.i.s.s.s._ e.a.Y.`.@X4X",
"X.%.%.%.X.' |  .' ' | X.<.M.+X@Xx.<.<.k.3.%.] +.L.!.J.+.W I I W W j j I I I E *.E g q F J.6XaX7X/./.`.`.`./././.K.Y Y ` / n b a.'.3X4X7X|./.`.).~.M.~.1X8X+X_.(.(.4XiXrXBXuXz.F q q w a f f g 9 7 - ; ; T qXvX%XU I #.&.&.t.t.p.4.h.P.^.).z.@.p.a.s.s.i.i.i.s.i.a.U.R.T.[./.`.5X",
" .~ ~  .$.E T U E E R O.%.h.P.Y.g.X.g.(.(.k.G F { $.} ] } } W j g a v I S I +.L.+Xx.o.F F J.7X].Y.P.R.E.R.K.U.E.) a ` _ *.( K./.4X1X$X+X(.(.%XyXiXrXyXtXkXrX8XS.C.<XuXBXBXsX`.r.! ! ! a p q 9 7 7 9 7 ; F ).rX%Xr. .%.%.&.p.#.t.l.).3XeXaX4Xh.e.a.s.s.i.i.i.s.s.R.R.[. X[.Y.~.@X",
"R  .^ E o.O.F q g v E @.%.%.%.O.O. .z.4X4X3.V G T { T ] $.&.} j g j I v E +.%.^.BXBX=X' 9 g +.t.J.t.a.e.b n n b q 7 a Y E J.).`.4X+XoX(.~.z.+XtXmXDXmXcXbXbXrX$X+X1XiXnXBXuX3X/.R.R.a.( v g g v ( +.@.E *.^.<X`.z.l.M.z.h.j.r.h.W.`.W.).eX6XP.e.s.a.d.i.i.w.i.U.E.T.K.a.a.e.t.].",
"| | | O.h.h.~ g 8 a Y @.#. .^  . .%.J.Y.I.' V [ Q.6.T ] E E ( Y v I ( *.!.^.W.@XuXsX*XR 9 8 l @.h.t.) w 8 a n n 8 7 8 v &.!.`.`.@X1X8X%XM.g.M.1XzXmXkX2X0XwX1X$X(.1X1X1X_._.'.|.}./.T.P.+.f b i.E.[.[.I.J.T.`.].7XeXeX5X`.z.h.h.3X/.%.h.Y.T.U.a.i.a.d.d.i.e.U.[.T.U.) b b ! @.T.",
" .T  .P.I.J.#.! x x n ( @. .~  .E ( ~ Y ~ T X.=XaX4.I ~ ( Y Y n Y E K.[.dX].^.~.6X3Xj.d , q E h.I.%.z w a ! e.a.~ Y l @.L.).(.+X1XrXrX8X+Xx.f.S.kXkX8XD.$X%X%X+X+X1X4X+X(.'.'./.|.`.^.^.K.( ) a.R.E.K.&.*.I.~.).].6XeXeX3X~.~.~.].^.#.e.i.i.i.p.i.s.a.a.a.K.Y.].R.a._ M ) T. X|.",
"^ ^ %.P.P.K.t.! b n b ~ #.*.( ~ E I j z v I l.sX6XX.f ~ #.( Y b / / p.U.^.P.P.P.@X}.~.| y s T R %.^ l Y #.t.U.T.K.K.K.I.z.N.$X-X9XrX0X0X0XD.m.S.kX9X0X2X$X$X_._.+X1XuX4X'.'.'./.`.]./.T.t.) ) e.U.U.e.E / e.t.&.t.j.'.`.@X(.~.^.^.T.#.` ` ) _ #.i.a.a.R..X X|.|.[.R.w./ K.7XdX7X",
"%.y.h.z.Y.P.t.^ ! ! ( ) #.@.( E v v a a I R +.3.' q 8 v #.#.~ Y Q M n b +.&.J.Y.<X6X5XM.H d V s d F ~ #.&.&.J.J.P.^.].^.M.$XlXmXcXjX9XjXcX0XD.$XjXkX8X2X2X8X_.(.`.1X5X`.~.Y.Y./.^.^.Y.K.y.@.) _ J.p.w.( m n n x ! ) j./.`.~.!.~.!.t.( b ` #.#.a.U.U.R.R./.T./.|.].a.w.w.P.6XsX5X",
"c.z.~./.`.~.h.+.E E +.+.%.%.~ a w a j I T T y 7 7 9 8 f E ~ Q Y b n w w b ) y.j.M.+X4XB.J Z V C I %.&.@.~  .@.t.j.~.3X@XoX9XmXJXmXNXNXNXNXNXNXNXzXjX9X9X0X8X+X_./.`./.Y.Y.K.P.Y.^.P.K.K.K.t.#.#.#.@.t.a.` c x b @.y.K./.].].^.R.a.e.n c a.6X7XR.U.U.a.a.a.y.K..X[.t._ d..X7X3X3X",
"%Xm.c.`.`.~.g.| U v ) O.%.O.z w w a j I I C q f ' h.h.%.+.Y b b v n n n ) ) ! F K k.>.H V V d f $.P.t.+.+.@.+.@.h.P.`.+X%XkXmXJXGXZXMXMXNXjXMXSXbXmXmXmXvXkX$X_.~./.^.Y.K.K.K.K.J.t.t.a.p.p.t.t.@.@.P.^.K.e.J./.].|././.`.7X|.T.y.) n n R.BXsX[.p.p.a.K.K.R./..XT.y.e.a. XsX6X}.",
"8Xm.k.z.k.f.f.o.g.x.g.X.%.U 8 8 w z f I T d 9 E 1XsXeXW.%.Y c c Y W Q Q / ) E R +X1X<.u i V u C $.4.@.%.%.%.@.&.r.h.z.~.%XkXNXGXKXGXGXZXMXjXNXcXNXMXMXSXSXbX0X+XW.Y.P.K.a.a.a.a.t.@.e.p.p.p.t.t.t.K.^.7X7X6XeX6X7X].Y.z._.5X3XY.j.K.i.` K.aXdXE.i.a.R. X6X6X X/.U.a.a.a. XdX6X|.",
"tXoXk.3.<.2.m.2XAXkXB.2.G e 7 8 f v I E +.f 9 U qXFXtXQ.3.E w w v } #.#.@.@.@.l.lXVXoXB i Z u V I E  .$.h.h.%. .@.%.h.W.8XkXNXMXJXJXGXGXMXjXjX9XjXNXNXNXMXMXzX1Xz.h.j.K.a.a.R.T.t.@.e.p.p.t.p.a.K.Y./.6XiXsXuX}.j.j.Y.`.6XsX7X).^. X{.` e. X XR.d.s.[.7XdX7X/.K.R.U.a.R.E.T.R.R.",
"8X$Xm.1.S.mXJXJXGXNXB...u - , 9 f I E ] $.G 9 d +XBXtXQ.x.~ 0 8 Y &.q.*.@.@.h.).rXtXb.A Z G V y y f E +.h.g.%.%.#.+.%.W.qXkXNXMXGXJXGXMXMXjXjX9XjXzXcXcXcXzXrX%Xx.%.t.K.a.K.^.T.t.#.e.p.i.p.a.a.Y.P.J.Y.<XwX4Xx.r.j.'.].6XsX7X/.^.I.#.b ` s.s.d.d.a.E.E.T.R.a.i.s.E.E.R.K.K.a.y.",
"0XN.f.m.jXLXIXKXGXjXv.>.,.J r r f F T $.O.T i z h.7X=XQ.!.t.g 8 v &.q.*.&.&.h.W.m.J A J Z G d e - 7 R &.&.%.3.%. . .o.W.qXtXkXcXGXKXGXGXMXNXNXNX0XrXzXcXcXrX8X_.r. .K.[.[.].].Y.p.t.#.#.e.p.a.K.^.!.*.| m.9X9Xn.3.W.`.^.^.Y.K.y.s.( b b / _ _ _ w.a.U.s.i.i.i.i.U.E..XR.R.a.K.R.",
"$Xm.f.m.kXJXKXKXNXA.2.B.kXcXb.V F C F E ] R F U @.I.).W.P.@.g 7 z #.&.*.@.%.h.l.J u ' [ Z G T C u u  .%.&.4.$.T ' X.X.m.1X9X9XjXGXJXSXGXMXNXNXNX8X$X1XwXuXwX1X~.O.~ U.E.[. X XT.p.e.i.e.p.a.K.T.|.3Xr.^ C.vXVX8X$X+X(.h.Y a n / _ / ` i.i.i.U.U.a.a.a.#.` _ i.s.R. X XT.R.R.R.R.",
"%X(.x.m.2X9XjXjX:XZ.2.D.JXLX-XK F F f f E ^  .U ~ @.P.~.J.@.v p w Y } $.@.*.%.X.Z Z G Z u B [ n.Q.!.h.+.h.&.E $.W.(.k.b.%X9XkXcXcXcX9XjXNXcXkX0X+XV.+X8XrXqX@X~.@.( i.i.a.K.T.a.e.i.i.i.a.R.^.7XdX6Xr.r.eXDXVXuX%XM.g.&.( b / ~ ( =.U.U.U.K.U.T.E.T.a._ M b ` U. XdX XT.T.E.R.K.",
"Y.M.n.(.@X+X$X-X$Xm.f.S.mXcXf.A ' F I C R U +.E v U y.t.h.P.&.Y T v f I  .O.O.F q 9 , ; - V 3.7X6X*XP.@.@.%.X.).BXtXV.m.%XtXvXcX0XD.v.S.$X8X%X+X(.C.`.<XeX3X).K.t.` / Y Y b M ( ` i.s.s.s.a.a.E.E.@.^ @.`.4X%Xz.O. .+.*.p.p._ ! ( p.U.U.J.p.t.K.^.I.p./ M b Y U.3XsX3XY.R.T.R.R.",
"h.h.z.(.%X$X2X8X+XM.x.N.S...2 N H ' I C F l U F F F U @.P.*X].h.$. .@.R T f y q , , - - e ' L.).W.g.+.( +.$.3.).tXyXx.o.W.4XyXtX1XV.m._.@X<X_._.`.~.`.`.^.^.R.d.p._ / b b n b m / _ s.s.i.i.e.i.e.Y U ~ @.T d y z U @.p.J.&.Y ( #.=.U.s.#.p.#.i.J.p._ Q m m Y #.].7X^.Y.K.U.K.T.",
"g.g.j./.+X+X+X_.Y.z.(.M.v.:.L J A K T l g y T l.5.X.F E P.OX>X&XW.M.`.M.' y 9 y F  .X.Z s %.!.4.T T I Y #.*.&.4.6.3.+. .+.+.h.).4X`.`.|.|.`./.`./.Y.K.t.#.e.w.M ` i.i.i.a.I.J._ ( / _ i._ w.i.a.a.K.[.].P.~ v z U ~ &.[.=.Y Y Y / -.=.i._ _ s.( ` Q m m Q Q Y / p.T.K.U.p.K.R./.",
"x.r.j./._.(.~.Y.Y.Y.M.k.8XmXcXA.P B d p w g X.eX=X3.y d %.k.N.yXlX;X8X$Xk.G R o.M.).*X4.T &.I.R C F S I } +.$.*.4.$.( Y n v +.U.^.^./.].|././.[./.T.K.a.) / M M c ` i.s.].aX=XJ.( Q ` i.i.i.U.T.].].3X`.!.J.&.( E E *.I.=.~ v b Q _ #.Y ! i._ n w w h h Q Q W ` ` _ ` i.i.U.K.R.",
"g.r.c.'.~.z.P.P.Y.~.g.f.rXJXDXS.A r d y f f ] W.W.G , y R H >.lXVXMXMXcXoX5.(.%XoXOX).l. .4.^.T R R R E ] } E #.P.t.#./ / / #.a.K.T.Y./.].^.T.E.R.R.K.a.i.` b M M M M _ I.].^.J.=./ ` s.U.U.K.K.P.).).z.h.g.4.+.Y Y ( *.#.` Q n c _ J.4.L.I.Y 0 0 w h n Q Q Y Q Q b / ` -.a.K.K.",
"x.x.M.(.C.M.x.x.Q.M.g.o.M.qX+X| V i F ] X.T T ] H e , , 9 r K @XVXJXJXcXoXQ.&X8XoXm.<.R F +.L.T T E $.4.3.] T #.].I.#._ i.s.{.{.K.K.P.`.3X`././.E.E.K.K.a.) ! i.i.n j Y ( Y / =._ ` _ {.].[.U.( ( !.`.z.%.$.4.( m n b / ` ( =.Y c *.*XsXaXP.I a a n m Y Q ( Y j a g v b #.a.K.Y.",
"W.M.M.N.Q.(.x.x.M.x.j.| G d y l T U ~ l.L.6.] ] g.V u y 9 , u 3.;XVXvX;Xm.M.+XvXxXb.J u y F ] T R  .h.L.$.T I &.7X7XU.=.a.{.[.[.Y.^./.7XsX6X7X7X X7X X[.T.e.t.[. Xt.~ *.E v Y ( ` Q Q i.{.U._ n v h.*X*X~.5.&.Y n n m Q ( #.( *.n v !.eXOX .g j v Y Y Y ( ( Y w y p C +.P.P.K.R.",
"C._.(.M.m.M.x.l.n.g.r.o.T z d F  .@.@.@.4.h.$.4.3.] T V 9 7 y { n.&XB.x.h.M.oXBXDX%XK r , e C V T '  . . . . .h.].7XJ.( +.( #.I. X7XdXdXdX7X|.[.7X7X X X XT.E. XuXuXeX^. .! #.p.` b w w n n n w v h.5XxXqXk.%.E v n m / ` _ #.( m 0 7 ; = - g f Y } } E Q Y j 8 p 4.OXOX(.~.Y.K.",
"M.M.M.g.g.g.x.Q.Q.k.X.%.+. .~ U E #.@.+.$.$.[ X.o.5.5.G y y C { } $.{  .t.J.W.yXCXM.V 9 e y s Z Z C I S W J.^.l.$.$.E } ( n b / U.E.E.{.T.e.! / ` i.s.a.U.K.~.7XBXDXDXqXX.+.U.U.+.b 0 7 8 w n v o.<XBXzX8Xm.%.) Y n M / ` ` _ _ Y q - ; - f ( W E } $.} } W a 8 V yXVXvXwXoXW.K.",
"g.<.3.%.3.X.3.Q.k.3.X.O.+.+. .E E &.&.+.E T F T R ' G C C f d I F F T ~ #.h.h.j.<.H i - e C T C V C F s I I.].P.+.E #.U.{.i.b w 0 n n n n c c h h h h M i.a.U.I.<XeXeXM.R @.I.^.z.r.@.~ v ! a.T.*XsXBXrXyX(.g.&.) b n / / Q ` i._ 8 - t } [.[.&.S T } T S g w 0 T yXJXVXqX).`./.",
"<.| ' R ' X.n.M.3.<.X.' F T ] $.&.l.%.E l l d d y p y s T R d s C G I E J.`.(.g.<.H - - e T T C C C T C G h.{.p./ / i.E.fXE.Y 7 ; ; 5 0 h m m n c h h m _ s.{.K.y.j.j.~ @.K.z.1XpXxXBX3Xj.I.3X7X=X6XeXqX1X(.).].U.Q n m m m Q ` n 7 0 Y *.I.L.] S S S p g a j j v h.4X1X(.`.`.'.",
"G H K R G 6.).x.o.<.X.G y T 3.X.4.!.l.R g q 7 9 r u G [ n.5.K u u s g W ^.uXrX#X&X<.r , e C T G Z C ' X.T F +.( ` ` d.E. XU.v 7 5 5 7 w m ;.` Q m m m / t.].sX6Xz.^ O.y.K.`.5XuXFXDXVX5XY.z.h.J.h.^.^.~.~.`.].[.U.Q n Q Q Q Q n 7 8 a n W W S j j j t 0 j W Y Y n b ^ o.`.6X<X<X",
"r V L | X.Q.Q.| ' 3.M.' i T X.,.X.l.6.T q , 7 V >.>.>.+X#Xb.Z r e u y W *XVXVXkX>X6.B r G [ <.[ { Z ' %.T p I #.@.t.T.]. X) 0 w Y =.*.S W -.-.Q ` _ _ p./.sXFXsX@Xh.K.E.|.5XBXBXvXvXtX$XC.k.E b ) a.p.a.T.Y.t.p.( / / ` ` i.p.#.( *.~ Y j g 0 0 j w 0 0 j W W Y *.! b j.eXuX2X+X",
"..1.2.o.x.Q.1.K ' x.).3.F F K ,.X.6.' V 9 , F *XrX$X-X9XN.B 1 , r < r T L.>XtX%XQ.L B J 7.Z.N.8.K J $.} f g T t.K.J.I.*X].E w Y I.[.J.W W Q ` ` ` #.i.s. XsXBXiX`.'.[.|.5X8XwXwX=X`.}.5X`.@.n n / i.a.a.y.y.@.~ ( #.#.` / #.a.U.[.I.+.a p 8 8 0 j 0 0 w j j n W $.#.t.3XBXuX2X<X",
"+XBXyXf.<.M.5.o.5.Q.M.g.| F F ' l.X.V y s C $.*XwXlXvXyX>.< ; 9 9 , 9 d ] 3.M.g.' V J Z.9X:XN.>.J G $.+.S s f *.[.J.h.!.l.} E } &.q.&.&.&.( / _ _ ` _ s..XdXaX3X]./.6XiX1X(.Q.n.M.P.`.7X^.r.@.t.K.a.a.K.K.Y.K.O.&.p.p.=.=.t.K.^.3XI.+.p 7 8 j / v w 0 h j j h j &.P.^.7XeX8X8X2X",
"1XVXVX+X<.k.5.m.oXm.x.x.o.F l R 3.' p y C ] X.$.f.&X;XV.V : : 9 e e , e f { 6.<.Z G 1.&XD.A.7.K H Z ' ] T p s @.).[.%.] 4.&.E W W E &.I.I.#./ ` ` ` ` i.E.7X3XK.a./.sXBXwX~.3.X.X.g.P.^.I.z.P.).@X^.h.r.P.dX7Xz.J.I.P.P.].7X|.`.3XP.t.Y z Q U.[.*.W v n h w w w / U./.'.<X1X0XrX",
"f.yX%Xx.o.k.B.S.%XS.B.B.k. .E Y d 9 e d T R | O.+.l.5.' u ; = , e 9 - 9 y F X.k.x.5.8.Z.B.b.1.[ J V ' ] T C C %.].I.] T *.*.I j E } &.L.{.=._ ` _ ` ) ) t.[.[./ n t.3X1X(.x.&.~ R E Y #.J.P.W.+XtX=Xl.o.g.7XaX(.I.^.K.K. XdXsXBXsX5X~.L.L.P.^.W.).L.] v a 0 8 0 n i.K.'.7XeXuXnX",
"P K ..X.g.k.m.V.%XoXZ.oXM.g. .F , , q f F F E  .@.4.X.F 7 = = - 9 e e s f T X.5.n.N.b.Z.Z.b.1...L [ X.] E E +.J.I.L. .F I v j W E } *.q.U.=.p.i.i.i.e.) ) #.Y 0 0 v ^ o.g.z.~.h.~ z 0 a Y +.l.@XwX5X~.o. .P.].^.J.t.! b e.T.7XsXsXaX|.E.T.^.^.`.dX).E a 0 8 8 5 w ` K.Y./.<XwXuX",
"< i i F %.x.(.qXyXN.b.m.x.x.%.| l z F U U l U ( g.l. .F 7 ; - 7 9 s V C R R X.k.N.;X8X9X;XN.5...,.n.4.] W *.p.J.I.$.I S I I v Y } $.$.*.+.+.#.#.i.T.T.e._ ( b c 8 8 w Y @.P.6X5XU.v 7 8 g E h.`.4X6X`.j.@.&.t.t._ / M M _ e.( +.~ e.K.e.e.K.3XBXsX!.l 0 8 8 9 7 0 ` E.[./.`.<X8X",
"B i d T ' <.n.N.B.n.m.k.3.l.z.r.t.h.h.j.h. .U @.l.%.l q 9 5 5 7 e d G T  .3.W.OX&X>XtXxX%Xn.n.k.XXXX5.] I ( #.p.J.&.E I W I I W +.4.$.E ] +.*.#.e.E.Y.e.) ( ( ~ 0 8 n ` ) P.7X6X[.@.I R +.h.P.`.%X4X`.P.h.t.#._ ` ` _ i.s.=.n w 0 c / ` _ e.P.7X3Xh.U c h w 0 0 c w.E.R.Y./.+XwX",
"A H R <.Q.b.1.7.5.M.W.3.X.h.J.j.^.].].3X].I.U +.!.$.y , , e e e y d T ] ,.n.Q.Q.M.5.5.<...<.n.n.n.8.} S a Q ~ *.I.I.+.I E E E j } 4.4.h.P.L. .+.e.J.&.t.t.%.l.l.E Y #.( ( &.t.%.J.P.^.].].].`.*X@X*X^.P.P.U.e.i.i.i.e.a.U.U.s._ / / #.a.U.@.+.P.K.@.#.e._ ` b n M a..XR.j.Y.`.uX",
"2.2.X.b.%X#XZ.b.<.3.h.h.%.&.%.t.h.I.).].^.+.p E W.C ; , e u e e s d R  .,.5.k.3.F r u V Z G ] [ $.$.] S a W W E &.J.+.E +.$.+.E  .4.L.!.*X^.h.P.T.K.J.J.%.~.sXeXP.%.@.+.+.+.E z z @.T.^.P.^.).`.^.^.I.I.Y.U.e.e.i.w.w.d.a.U.E.T.s.p.p.J. .E &.K.a.t.p.a.#.s.E.U.e.R.|./.j.Y.`.5X",
"B.7.2.m.S.kXkXZ.>.' O.%.&.h.&.t.h.h.J.P.t.l 9 f +.d - 7 9 e e e C C R ] [ X.3.3.' R l.).l.V s G ] { { S t 8 t W +.E S I *.*.+.+.%.J.L.!.].^.%.t.#.J.E.U.h.aXDXBX(.h.%.@.#.+.( U w ~ t.&.@.K.K.K.U.p.p.a.U.U.i.i._ ` _ s.a.U.T.K.J.J.K.h.+.t.^.^.E.^.K.t.( K.7X7X3X<X<X`.'././.@X",
"B.B.b.N.D.8X:XXX1.K | %.J.I.J.t.O.+.&.@.+.I a I &.F - - 9 - - u f C ] $.$. .] $.O.g.4XeXl.F f d s T } E w 8 w W q.I p g E +.E +.h.h.4.g.~.Y.@.! Y ( #.#.I.aXaX4X(.(.h.+.#.p.t.t.t.&.&.#.#._ / ` _ _ e.i.i.s.-.` _ _ i.R.T.I.K.%.t.P.Y.P.Y.T.^.`.|.3X^.K.y.R.7XuXsXuXwX@X/.Y.z.~.",
"A.v.B.oXoXS.N.V.B.>.' 3.L.W.z.g. .+.&.*.E j Y E q.$.t - ; * = e T T [ 6. .E U T F X.).OXk.X.G , 7 } q.Q j p a } *.g 8 0 f R E  .n.l.L.%.o.o.^ I v z a n #.K.P.!.!.!.L.h.J.J.t.K.^.^.P.&.#._ _ _ _ ` _ _ -.-.-.;.-.i.s.U.K.K.P.P.L.I.I.^.^.'././.`.`.`.~.'.5XuXxXbXvXwX<X_.~.z.~.",
"1.>.1.+X#XS.Z.D.b.2.<.5.k.M.x.3.%.%.4.~ v v U #.L.4.T 7 * * = V E T ] 3.X.T T { F  .X.>.XXOXJ * ; ] L.} p g } =.v 9 - - q I ] +.4.!.L.6.X.X. .E U g 8 8 v / _ U.I.L.P.P.h.h.t.h.P.^.T.J.p.p.=.#.` _ -.-.-.-.;.;.i.s.s.a.K.P.P.P.~.^.~.`.).(.`.`._._.4XiXuXFXFXnXuXrXwX1X_.V.(.@X",
">.9.>.N.m.B.D.Z.Z.Z.S.b.b.m.k.x.k.x.g.R g l U &.^.!.T - * * r T R R  .X.3.6.6.6.R F H 1.>X&XJ ; , +.q.W g j *.q.W g t e t g E $.4.!.OX&X&XOXW.g.] s 7 0 a w w Q =.[.[.P.J.h.h.k.L.I.P.J.&.#.#.` _ -.-.` ` M M ;.` i.i.p.j.h.h.P.~.@X`.(._.+X*X@X@X5XuXuXBXFXFXnXuXwXwX1X_.V._.<X",
"v.7.A.$XN.m.B.Z.cXJXvXD.A.S.V.+X%X(.X.F f I E ] &.$.f - - r T C G ' 3.5.k.3.3.3.[ < i m.;Xb.G e V %.} S I I Y +.W W } ] j a S ] %.z.$XyXlXtXqX(.l.' f n Q Q n n *.{.^.J.%.h.*X&XoXM.h.%.*.&._ M M ` -.` m m m m m ` p.T.~.x.k.M.@XeX<XC._.<X@X`.`.3X5X5XuXxX5X_.(.z.c._.<X4X<X(.",
"9X-XF.:XD.A.Z.:XMXLXJXjX:X9X9X8X+X5.G G T R $.] T C s 9 e ] h.{ r Z Q.OXn.,.,...B ; , L B.8.[ ' %.4.+.E E I I I ~ $.L.&.f q q T g.(.oX#X%XqXtX4X).g.h.I.J.#.+.( ( &.&.] E z.eXCXqX(.g. .%.h.( n b ` _ ` M M M M ` w.U.|.aXqX(.C.1XuX1Xm.(.`.).^.Y.c.C.2XrX2Xf.<.O.O.r.c.5XsX%X..",
"0X0XjX9X0X:XA.A.kXDXvXD.Z.oXm.>.J V H ' | X.$.T 9 9 p f C E 4.] , < b.OXb.1.5.L N 1 = N 7.7.[ 5.!.P.h.*.~ ( ( E R %.4.E q 7 7 t X.@XqXoXM.l.L.!.l.J.L.L.I.I.q.&.&.*.+.I +.!.=XtXqX+Xx.O.%.&.+.( #.#.#._ ` ` i.U.E.U.K.^.6XsXwX%X8XrXqXoXM.M.P.I.z.c._.wXBXuX+XC.g.g.g.x.@X%Xk.H ",
"v.v.D.9XcXNXF.F.$XS.2.L H i , , i i ' 5.k.n.6.V - , 9 C V y C r = * Z k.5.1.N.B.P < = 2 1.8.9.,.l.h.t.@.( +.( ( &.I.+.q 7 8 q 8 C ).aX=X3.F f I *.&.4.q.J.J.&.J.&.*.*.~ +.^.@X+X%X+XM.%.%.%.+.J.{.I.#./ ` _ U. X[.K.K.P.`.eX5X+X1X%X@X).W.h.%.h.~.`.4XxXFXFXBX1XoXQ.3.X.X.K F d ",
":.:.B.8XcXNX9X0X2XB.2.J < , ; ; , i K k.n.n.X.V r r u C V e - * # * B X.X.>.Z.-XS.2.A 2 A 2.9.[ T T  .@.+.( Y Y K.K.v 8 p g f p C 4.=XW.V , 7 0 W E *.&.*.+.( ` +.*./ Y +.I.`.(.+X>XQ.o.%.@.( J.[.E.( n b ) U. X[.K.K.K.P.3X4X<Xc.g.o.g.h.@.~ #.K.`.eXeX+X(.%X%XQ.M.X.G V V F F ",
">.<.(.%X9XjXjXrX8XN.1.' u , , 9 e i H K K [ G u u u u V C s ; * % : u K ..,.Z.jX9XD.2.A B A J Z d T %.t.~ Y Y Y @.#.I v ( E S s T { T s - ; 5 8 8 w v Y ( ( v l ` / Q b Y h.@X%X=X).z.h.%.#.( ( #.) ! c c n U.dX XR.a.a.T.].3X}.l.| R  .t.e.! ( w.^.=XP.F i F o.l.4.$.] E E  . .",
"m.m.+X8X0X8X8X8XoX5.' K F d i y i V V V H J G u B V u u u y r : B B V K ,.8.D.hXA.:.P A B u u u G 3.W.P.@.+.( E ( ( ( #.{.[.E p I C e - - 6 e 9 8 0 a v ( _ ` #.J.#.n n Y %.).*X(.Q.W.!.h.+.E Y U E Y v n / s.[.[.R.K.a.K.Y.@X@Xz.x.W.I.a.y.~ ~ ) h.P.~ 8 - e v $.] T ]  .X.X.%.",
"+XS.$X2X0X2XN.1.' G F l f l F d u y d X.n.,.Z u V d u u u e u [ X.X.' ..2.v.Z.D.v.:.A B B r r C 6.Q.W.!.h.&.*.( E ( *.*.*.+.f g E +.C s T { T C p 8 a Y *.#.i.[.3XI.n c Q &.P.^.OX@X).W.h.&.@.&.J.[.[.&./ _ s.s.U.R.a.e.e.I.6XwX~.(.*X^.j.j.g.*.@.t.e.b 0 9 p n E I I R 6.5.,.X.",
"+XS.#X$X+XV.k.K q y d g a U +.] u , u 3.@Xn.B r u V V V u 9 u ' 3.m.2.<.f.m.m.b.v.7.2.9.J r N ,.=X=XW.5.3.%.&.+.$.+.Y Y I I C 7 f L.4.] 4.!.4.T f q f E *.=.U.fXdXR.c w M p.P.^.@X4X(.M.).^.P.Y.^.].].P.#.#.p.p.T./.R.a.e.Y.6X6X'.(.(.~.4XtX+X%.h.^.K.! g q a n W v I  .!.@Xn.<.",
"+XV.oX$X+XC.x.o.z y z l ~ t.I.L.' d G [ ,.>.B < r V Z B r 9 , i ,.&Xb.1.b.v.b.n.b.b.B.b.9.B V ,.*X=X).k.%.$.%.4.l.h.+.( I +.*.8 , ] 4.4.4.!.!.l.T d Y #.=.p.p.K.U.#.n h m i.J.P.~.).W.).*X).h.L.).).!.P.t.) t.T.7XeX7X~.r.h.`.|.}.`.~.).BXJX8XT %.7X*X&.I g a w w f E +.h.P.l.n.",
"V.m.M.(.(.M.z.r. .F U U %.P.W.n.[ ' J J B Z Z r N u B B u , - r 1.qXoXB.b.b.B.Q.oXoXM.<.' s s I $.l.W.).!.h.4.L.^.[.L.+.] ] I 8 ; 9 r f E h.L.!.h.+.@.#.=.i.#.@.b Y b h c / h.!.h.L.P.!.l.%.$.&.^.].^.K.#.~ t.].eXsXeX`.P.h.Y.3XeX(.x.W.tXVXM.8 E *X=X4.T a a p w a I T  .+.O.o.",
"m.g.o.X.X.o.r.r.%.E l q y u u r u G J B N [ 6.J A Z Z Z N < , r 5.>X>X#XoXXXQ.Q.Q.n.,.G F y 8 a f R %.I.!.J.&.h.t.P.h. . .T y 7 - ; ; 7 a +.%.^.`.^.p.#.#.` Y U b Y Q Q M Y @.K.*.#.h.&.I f E &.^.*X^.J.e.) @.K.].3X].].^.t.z.6XeXz.o.%.^.).R 7 ^ !.!.E p 0 a f g a g f f F T | ",
"m...l f R ' ^ @.J. .d 7 , ; = * = < B < < [ n.,.9.,.[ { Z r < r J 5.n.N.(.).l.o.J Z Z V G T f p f I E } *.*.#.*.@.%. .+.h.^.h.F 9 - 9 a b ~ @.].sX6XP.4.J.#.~ ~ +.t.#./ ` ~ ( ` ( Y ( ( a p v &.L.[.P.J.p.) b ! ) e.y.e.( #.P.3X6Xz.@.~ ( U g U @.&.$.f 8 w a g g a l  .$.' T U ",
"V.<.F d F R o.%.&.@.U g F V < ; * = < = 1 L L A A J [ J N r ; ; = = r Z X.3.] F s u Z { ] } S 0 j Y W v W E I Y #.~ U h.^.qXqXh.I v ( I.!.t.@.).aX*Xj.#.t.P.).+XN.W.+.) p.*.( ( b Q *.&.} j j ` _ p.&.P.R.#.W h h h c c b e.^.@X`.|.^.J.&.@.) #.#.*.E a 8 w v E E T V h.*X4.T F ",
"D.m.g.F d R  .$.%.&.%.%.z.l.,.J B < < * : B B < < r B Z B u r = * * ; u { { C T X.X.X.X.] T f j W E E j f v f v Y ( +.t.P.=XqX~.3.h.[.dXaX].y.z.).P.h.t.h.@XBXBXeXl. .t.U.=.( n c / =.J.=.Y j j n Y #.[.E.J.} c w w w w ~ ].6X3X@X3X`.~.h.J.J.t.&.*.E g 0 a E L.!.3.T  .l.] C T ",
"0X0XV...T | %.+.%.l.~.M.k.5.5.n.8.:.B < 2 N N < : : = < r u Z J B r Z ,.} C s T 3.).=X!.$.C g v E E W f g f g g f ( p.t.z.=XqX`.l.r.P.*X6X7XP.z.P.P.P.h.l.@XBXBX&X3.%.h.K.t.( a w / =.U.=.Q m h 0 b U.[.Y.I.+.w w h h v ).aXqX_.(._.(.z.%.t.P.P.t.t.@.l q 0 l !.7Xk.G G T V V F ",
"cXkXN.x.g.X.O.R  .l.OX+Xk.K [ 5.B.Z.2.:.L N < < < 1 = ; r N { 6.6.,.4.L.] p p T $.^.=X!.] d g I E W S f f I f s f *.J.h.P.4XeX<Xz.^ ^ @.y.K.Y.~.h.j.P.P.z.(.yXyX(.m.W.l.l.J.+.f a Y ( p.=.m n h w ( E.3X].I.E w w h w / dXaX(.c._.).W.g.~ @.U.^.K.t.h.@.z 9 9 R z.X.u V G C G C ",
"cXS.b.g.g.%.@.R U %.W.=XC.[ B N L 2.2.:.A 2 < 1 N N : : r u Z [ L.6.$.] f t t I ] 4.h.4.] C I E *.] T T T R F d V $.4.4.h.*XeX`.P.e.~ Y n / t.R.I.j.J.Y.P.~.@X(.~.M.OXm.n.l.%.E +.+.E E n j h h b p.].6X].J.E a v n w ` [.`.W.`.3X(.l.%.@.e.a.T.T.P.[.^.@.z g ^ z.<.u V  .X.X.R ",
"$Xf.<.3.h.h.$.T T | g.+X%Xb.B 1 < < < N B 1 = : < r r 6 : r B J ,.{ Z e - 5 e C ] $.} W E E ] $.&. .G T ] X.T V u ' ]  .%.^.*XY.!.J.@.Y n n b d.[.^.I.Y.Y.P.P.z.z.).aX>Xb.3.3.3.4.4.E a w w w h b *.L.!.!./.].^.h.@.v / ) %.P.^.3X`.g.%.@.y.y.K.Y./.7X XE.y.r.`.4X(.l.j.P.~.~.o.",
">.>.o.o.%.%. .F H H | C.8X;Xv.P 1 * * N 8.L : : : r r r r B Z X.6.6.Z ; * 5 9 e S ] T f S T } 4.h.+.V C ' ] G V C T T R ~ P.).T.P.t.` / M m b e.T.T.Y.^.^.P.P.P.x.).aXqX5.X.3.3.!.L.I 7 8 8 0 w Y W E l.!.].dXaX].J.#._ ) t.P.^.3X7X/.P.z.~._.`.`.`./.T.[.|.7XuX5X<X<X`.Y.`.<X'.",
"G ' o. .X.g.M.M.<.K K b.9XvXkXS.L 1 * < 8.7.B < ; ; - V T X.k.).=Xn.Z 6 e s p s D C e 7 9 s $.!.!.$.s s T C s V F T ]  .@.h.h.t.) ~ / ` ` ` _ e.t.K.T.].^.P.~.P.W.Q.&XOX3.o.g.l.!.!.] g w 8 8 g v j Y h.L.l.(.@X^.K.a.s.a.U.h.Y./.3X}.~.@XBXFXnX5X}.K.y.R. XuXrX2X1X5X}.`.`.4XsX",
"T O.%.X.<.N.yXvX8X>...b.jXMXMX9Xv.N 1 < L 9.Z r , - , C $.n.@XqXaXOX[ Z T T { ] { W t 8 8 g E L.).4.s s C u u Z G G R %.I.T.e.@.~ ! ` i.w.e.e.e.y.y.K./.`.~.W.).`.~.W.W.h.%.g.P.P.P.4.&.4.E d d W *.4.4.$. .%.z.Y.y.K.U.K.R.R.T.`.3X|.`.5XFXDXbXiX<XY.K.R.3XuXuXnXxXiX5X1X5X5XiX",
" . .O.%.g.oXBXDX9Xf...b.jXMXNXF.7.A 1 < B B u e s e e T 4.M.+X@X).z.3.' T { 6.6.$.] T E } &.4.4.P.$.f d f s V C G G { 3.I.I.p.#.( ` ) i.a.a.p.t.e.e.a.K.^.~.~.@X).W.l.^.~.g.%.h.h.l.W.@X=XW.X.T +.&.&.L.^.~.`.<X`.z.K.R.R.T.E.[.`.`.3X5XwXiXxXrX5X_.Y./.Y.`.nXDXDXnXiXwXwXiX1X2X",
"^ H | o.3.(.uXnX9XS.m.-XSXKXGXG.:.P < , H J H G { [ $.3.l.^.`.(.h.%.$.T s C ] } } } ] } L.*X[.&.~ I f g p d F C C G ] l.I.J.&.#._ #.#.p.U.U.K.t._ _ e.a.U.P.P.W.l.g.h.Y.P.h.&.t.h.z.+XuXBXtX=XW.&.%. .h.7XaXBXBXtX(.z.Y.T.T.T./.3X`.|.`.'.(._.+X_.~.z.^.~._.nXJXFXiXiXnXnXrX2X2X",
"d y H @.o.M.4XwXcXrX0XcXLXPXJXG.....V V { n.XXn.5.M.!.4.%.I.].P.%.%.$.f t p e 0 f S C D $.q.&.&.~ E I g d F T d d p R h.P.a.#.#.-.=.i.a.U.U.J.h.e./ ( #.t.&.*.$.3.h.J.t.~ @.J.I.P.P.+XtXBXtX@XW.+.+.E +.I.3XiXBXbXrX_.~.^././.R.T.T.T.K.K.j.%.g.z.h.g.P.~.V.2XzXiXwXrXnXnXuX5X2X",
"d d | O.O.g.`.4XwXrXcXMXJXLXcX7.A K ' ' { !.=XOXX.X.X.] ] h.!.P.r.O. .F d t 5 5 9 p t g j W E &.4.*.E I E $.$.' f T @.J.J.p.#.` _ i.a.U.p.p.K.t./ b v ( #.Y v E &.J.U.( z ) U.[.K.h.W.@XOX(.z.o.R E E @.h.M.1XxXDXxX<X~.^.]./.K.K.y.e.@.@.~ ^ O.g.3.%.x.~.M.x.+X2XpXuXuXrX5X2X5X",
"O.| O.O.O.r.z.~.(.@XyX0X0X-XN.[ Z ' R R T R T F s s C T R %.h.l.%. .O.X.T C e ; - 9 t j v ~ &.4.I.J.E +.h.J.l.5.6.L.^.P.h.J.#.Y / p.{.T.t.e.K.&.E I R  .~ U v ( =.U.J.b w n e.p.#.%.!.].4.%.h.%.%.*.t.t.h.W.3XeXxXwX`.'.^.^.j.y.e.~ ~ %.r.g.g.g.k.x.x.W.@X`.x.~.pXiXiXwXpXpX1X5X",
"3.| X.%.%.g.M.(.`.(.(.f.L P K R ] I I E f y 9 , - 9 s d C X.g.L.W.W.).W.,.3.5.G 9 7 g W Y +.&.L.J.*.( #.J.P.^.).yXaX3Xz.g.I.t.v Y p.{.I.#.@.J.I.z.x.M.M.O.^ ) #.U.I.p.n w w m M ( @.I.^.%.+.P./.Y.[.[.h.^ h.`.`.C.`.`.Y.P.z.r.r.K.z.Y.~.(.@X4X%X$X1X1X$XqX1XM.x.<XiXuX5X1XpXpXpX",
"X.H | g.3.3.M.&X<X+XN.>.H i l F I a g a s F ] ' K V u u s C ] 4.).*X=XOX5.b.>X=X{ s g g E *.J.^.J.+.( _ #.J.^.*X>X4X).%.o.J.p.) Y #.U.a.@.+.^.4XiXrXnXuX~.%.#.p.I.^.#.` m h h c Y ( t.p.&.+.%.h.I.^.[.%.C  .I.P.t.y.J.P.~.Y.h.j.'.3X@X@X1XwXrXwXnXxXyX9XrX1XC.x.<XwXnXuXiXiXiXuX",
"[ ' o.%.o.3.Q.&X1X1X$Xm.H d F F a p 8 7 p [ n.;XyX#X>.Z Z Z C T R $.g.3.[ ,.Q.%XW.V T T S +.J.p.&.#._ ! b ( J.P.W.W.P.h.g.P.J.#.Y #.J.&.J.h.`.CXFXBXDXVXyXW.p.i.y.a.t.e./ h n m M b n v U Y I +.4.I.J.@.v b a.U.a.a.a.Y.|.7X`.c.c.5XiXwX1X1X$X$XyX2X2X8X2X<XC.c.<X5XnXFXFXSXDXSX",
"' ' | X.| X.n.+X9XkXrXS.9.G G C g f f C ,.N.N.%X8X+X(.<.J Z B d u y r , u G G X.R T ' X.$.&.+.E ( ` ` Y l E z.W.M.l.z.z.^.).P.%.( &.J.J.I.I.W.*XdX6XeX4X).J._ ` _ e.a.i./ n Y Y b b v v b Y E ( @.#.#.) n c _ U.]./.Y.'.6XsXeX`.~._.@X1X1X1X+X+XC._.+X2X+X+X+X`.<XwXnXFXFXFXFXuX",
"H V G K H ..Q.%XkX8X#Xb.[ { G s d E 3.Q.yXvX$Xb.1.>...,.[ J G V B r r r Z { Z T ' ' { 5.!.$.E Y n Q Y ! U X.`.4X).~.Y.Y.].*XP.$.+.*.&.4.J.I.J.&.+.E Y Y ` ` M M ` i.s.e.` ! ( (  .+.+.@.~ U U v b b ! n w w b i.`.^.j.Y.3X6X3XY.Y.Y.~.`.<X<X<X<X+X+X1X8X2X1X4X5XeXuXuXuXiXsX3X/.",
"J ..[ G H >.(.eX+X2.H H ' R f e l E  .oXCXvX#X>.H J H J J Z Z Z C G s e { 6.5.).Q.6.6.4.h. .( Y b ) #.p.j.^.eXeX*Xz.l.P.P.L.h.$.*.*.#.#.*.&.#./ w w w w h h h m #.U.p.#.t.#.@.#.L.h.%.&.@.U a w q z ~ l 8 8 0 b ( ~ ~ e.T.T.h.y.O.y.z.~.`.<X<X5X8X0XzXvXvXrX1X<X7X7X}.'.j.y.w.! ",
"1.OX%Xn.,.3.C.(.n.H , , e u s e g s u ,.>X;X8.L G X.<.[ Z r r B Z Z r r T X.6.Q.L.6.6.g.L.&.t.#.b #.&.t.K.].3X@X!.$.&.P.P.*.+.( Q Q m b v v Y Q ` Y n c h w w v t.U.+.~ t.#.+.#.J.J.h.h.g. .d 9 l %.(.M.<.H w v n c v Y t.I.t.y.u.j.'.`.1X5X5XiXBXFXDXvXrX<X~.W.j.j.e.! ! ) ! ! ",
"5.tXsX%X(.M.x.x.,.G r , ; ; e u Z V G ' X.[ Z H H ..(.%X5.B N N B r , , e g I +.+.] $.!.!.J.J.t.Y ( *.@.&.J.t.%.+.R E #.J.#.n j h ` m w 7 7 a ` i._ Y n c h n &.3XP.R R ( ( ( ~ &.J.P.z.M.k.' T X.(.tXVXBX3X%.! @.) ! Y t.].`././.`.6XiXwXtXuXuXsXtXqX(.l.%.@.*.^ b n b e././.j.",
"k.@X4X%XoXC.(.C.M.m.o.F e s T ] { Z $.l.,.J Z d V J @XaXQ.V B B B r e 9 e q g I I I E &.&.4.P.t.~ @.K.J.@.Y U E E Y v Y / ` n w c -.Q w 8 0 j =.( *.*.Q j w E ].BX%X3. .( ( ! ! e.j.~.+XrXtX%XW.%XeXrXrXxX5XP.r.J.P.J.&.P.3XdX6XaXaXsXsXeXsXeX(.o.H u i d l Y $.b v ~ K.aXFXsX3X",
"M.~.C.+X$XS.(.C.1X%X+Xl.%.3.,.,.V C 4.Q.,.K { T u r 3.<.G u ' n.] e e p g q t e g g I Y ( ~ +.+.t.P.].T.( b ( +.( ( Y Y n n w w m ` m n Q ( =.q.&.%.$.( j w +.6XtX+Xl.t.#.) ~ @.@.t.~.yXVXVXtX(.wXuX1XV._.(.I.J.h.Y.K.K.^.].7X6X7X7X3X`.6XFX3XH ; * * , q z b Y v v +.*XBXDXVXeX",
"~.`.(.+X4X+Xm.+XrX%XN.W.W.5.X.{ C ' X.' J 6.6.J 9 - ; = ; e 3.=XL.C e f T I f f f p g a j j j j +.T. X[.@.I ( -.@.( ` Q Q =.Q w n v Y ~ &.p.J.I.OXW.4.Y a n J.eX4Xx.g.J.t.&.&.h.t. .3.oXtXxXQ.| x.6X6X|.~.z.P.h.y.g.4.L.P.P.^.T.J.K.e.y.7XaX'.l , = ; 7 p I v w w n #.K.3X3X<XwX",
"~.~.W.W.~.x.g.(.).k.3.3.3.$.{ Z ' [ ' Z Z [ 6.X.Z e ; r Z G 4.L.6.T I W $.+.W E I j g w a w 0 0 a #.E.^.4.+.+.( +.#.#._ ( ( ` M b m n v ( ( @.{.6X!.%.Y a ( `.sX`.g.@.t.a.K.J.^.`.%.F H | o.F F O.^.3X`.~.z.j.@.^ O.%.%.%.@.&.#.#.t.) ) T.].K.@.! l p 9 y d a g n ! ` ) t.t.K.|.",
"3.o.%.3.O. .X.O.O.E O.$.] ' ' G B Z Z Z V V T $.[ V X.).L.[ C r r e T *.4.$.] E +.+.W j j h 0 0 w W &.J.P.!.4. .*.p.p.#.@.@.#.) / m m n n b Y J.[.I.E a ~ [.sXsX}.j.@.) e.t.a.].7Xg.F r.r.U F $.h.r.z.Y.~.~.j.~ r.P.`.P.@.O.) ) e._ _ s.U.U.U.U.T.T.h.o.| G T ~ #.@.~ ` #.#.e.U.",
"o. .| R R ^ R F F F F F T R T d 9 , r r e y F ] { X.5.5.{ s - * * - C &.4.$.+.+.%.&.*.( v w w w j n ( &.[.6X^. .( p.t.&.h.h.K.t.#.n n m b / ( ( #.=.Y a Y ].BXsX4X'.t.) _ _ e.R.a.E h.).].P.%.~.W.h.J.P.P.j.z.'.rXBXBX%Xk.g.&.( / b ` s.s.a.U.T.].*X4XyX4X(.3.~ E ~ ^ ~ _ =.) w.",
"W.g.%.+. .%.h.3.| ' H ' X.] R g 9 ; = ; , y ' ' X.l.3.V , , - = ; 9 s &.L.4.+.]  .%.L.J.E v a j Y Y Y *.I.[.P.+.#.&.t.h.^.].^.I.#.v v Q i.a.( Y / ` ` n c h.6XeX4X`.j.@.) ! / ) _ ~ I.!.z.o.o.M.(.~.P.P.I.P.c.<XnXVXxX(.x.P.K.) v n _ p.a.a.K.^.^.`.uXFXFXnX%Xo.~ y.e.) ~ ( n w ",
"(.~.h.%. .%.n.oXS.V.+XoX3.T C g , , - - - u X.,.X.X.' u , 9 y C T e e $.q.4.4.+. .$.!.^.L. .U I E W I I ] +.*.*.%.P.^.^.].[.I.&.( Y Y #.E.U.` Y M ` ` m n @.^.|.`.'.j.t.t.@.#.t.a.T.^.P.@.l ^ z.~.).W.W.).M.z./.5XeX<Xc.x.~.^.p./ ! #.p.t.a.K././.'.iXBXbXnXwXM.P.]./.Y.P.Y.! 8 ",
"(.W.W.3. .k.%XtXnXxXBXtXm.G u y H | ' u r V [ [ T T s s s e f ' T e C 4.4.$.$. .]  .h.^.I.4. . .R E E I I E E ( J.7X]. .E ~ / Y v Y +.J.{.t.( / ` ) ` n w #.[.[.Y.P.j.K.K.t.t.h.P.T.R.K.y.r.r.K.I.~.W.~.).~.z.~._.3X@X`.@X4X6X Xi.@.p.e.e.K./.].3X<XpXbXmXBXpX(.`.3X`.<X6X6Xt.w ",
"1X@X~.3.X.M.eXBXBXxXxX8Xm.J u T Q.@XM.,.' F G T V s C Z e s p d e 9 T L.6.{ T ] T T +.h.I.L.4.l.L.%.4.&.+.E I E L.7X4.7 7 0 n w w n ( =.*.+.+.( / +.W 0 w #.I.K.y.r.r.Y.]./.j.K.P.P.K.K.z.z.P.j.~.P.P.P.z.z.P.~.).`./.`.|.`.^.U.i.a.U.e.e.[.|.|.6XeXuXnXFXBX5X(.~.].`.'.`.|.a.c ",
"@XOX(.k.k.(.1X2XOXoX+XoXM.<.K g.yX>Xk.X.X.C f T T I C C C p 7 q 7 7 p I T { { T F s s W +.r.M.qXtXoXl.h.+.E R R *.&.s - 9 j *.I g v b Q ~ %.h.q.*.( z 8 z U.T.t.t.@.@.K.|.|.'.P.P.z.P.P.K.Y.P.Y.P.P.z.h.h.J.P.P.T.P.a.a.r.^ ! _ w._ a.a.a.E. X7X6XsXBXBXsXpX}.c.'.3X5X<X}.`.r.n ",
"g.z.Q.M.Q.4X8XZ.f.b.Q.@X(.x.o.%.~.l.' T T f C T ] E I F p q q 9 9 7 9 s T $.$.] d 9 e ] z.(.%XBXBX@X%.I Y Y E E +.R F f I $.q.} I j v I %.W.*X).*.( n w U U.E.U.e.#.@.K.|.3X`.~.j.h.z.P.Y.Y.Y./.^.z.z.P.t.a.K.K.a.t.e.) l q w M i.i.i.e.w.d.a.R.[.].|.3X|.Y.j.r.T.6XBXnXxX4Xg.U ",
"r.x.M.Q.>XuXyXS.b.,.6.k.3.o.F p l E I p q a U +.&.] T I f g I v p y p C ] 3.4. .T 9 R 4XBXBXtXqX).z.~ a v / #.J.l.O.+.+.$.L.l.3.] C I +.4.!.OX!.&.*.( ~ t.J.p.i.e.#.@.t.Y.|.3X@X~.h.z.~.~.~.`.7X].P.j.P.K.a.a.a.i.e.s.p.Y 8 8 c ` _ ` w.w.w.w.w.w.) ) e.y.t.t.y.E.7XBXDXDX1Xh.J.",
"W.M.<...k.(.oXS.Z.B.b.,.K H y p a Y b w 8 w n #.#.] E I E 4.h.h.%.] f F  .3.&. .R g O.dXFXCXm...G  .~ Y Y ( @.U.).J.@.^ 3.4XtX+X,.V T 4.h.g.h.$.+.#.p.Y.*XP.@.e.e.#.) ) t.'.3X4X~.h.W.`.).~.`.7X].'.P.Y.T.K.a.a.s.a.K.E.#.w 0 c ` i.w.i.i.` / ! M / b M y.T.[.E.R.'.iXDXrXx.) p.",
"3.[ i , < H k.oX#X8XS.b.,.' R F Y Y n w 0 w c Q +.W E  .h.*X=X(.P.%.I f T ] $.+.E T I  .l.g. .T E *.t.U.U.t.#.K.J.t.) U X.tXDXkXb.9.{ X.%.%.%.@.E +.K.3X4Xz.~ ( ) ) _ ) ~ h.~.).P.z.~.`.(.~.~.`.'.'.^.[.[.R.K.K.R.^./.3XJ.w x b &.[.U.e.a.e._ _ e.K.t.u.Y.eXuX3X}.'.5XsX`.) ! _ ",
"R e ; = ; u 1.b.8.B.S.oXm.X.g.g.%.] Y w 0 w w g I ] T ] ).aXeX(.h.R d p f T ] $.X. .] C p l ~ Y } E &.J.K.t.t.t.K.p.#.Y +.*XtX8X#XXXn.5.5.3.l.4.E %.3XBX%Xx.@.( ) ) _ / ~ t.I.^.P.P.!.).~.~.~.~.Y.P.R.[.[.[.T.K.E.3XeXaX^.( ~ ) !.6X].h.t.d.e.y.`.4X3X|.5XxXzXwX<X`.}.|.P.@.( #.",
"R u i V K 3.m.b.2.>.B.%X(.M.x.x.r.X.E j w 0 v } { T R ] $.!.=XQ.3.T g g f R 6.W.(.).l.R f z Y E I I +.&.t.t.t.t.!.I.t.Y ~ t.r.h.Q.OX>X>X%XoX(.l.R r.wXDX9Xm.%.%. .) ) ( ( t.I.^.!.P.P.P.W.~.~.Y.T.a.e.e.U.E.E.K.T.7XdX3X^.t.@.t.I.3X3XY.t.t.P.`.BXuX5XeXBXbXbXbXrX@X'./.T.J.#.#.",
"%.<.k.Q.(.(.M.m.<...k.%X4X+XM.g.X. .T a w 0  .>X>XT e T ] ] 6.Q.3.T I I +.!.*XyXtXyXQ.G d I W j a j ~ =.p.t.t.T.3X^.&.v b ! v d H %.(.tXCXwXoXn.E g.tXJXvXM.%.3.+.+.@.) @.t.h.P.!.I.I.Y.P.P.~.^.K.p.! n _ U.a.e.y.|./.h.h.e.&.t.a.[.3X^.K.y.~.xXDXwXM.C.uXDXDXDXVX$Xz.T.T.J.#.s.",
"o.k.oX%XqXqXoXM.o.| 3.M.1XxXwXx.G G T v z q K CXVXL ; V ,.,.$.6.} I I W $.OX%XtXyX&XX.e y F S s f T ] #.i.e.K.*X6X~. .g x n x w a U &.).4X@X~.).l.~.uXJXxXm.o.g.%.@.#.#.@.@.@.y.P.J.h.j.j.P.^.).K.@.b n b ) _ _ t.T.a.) @.K.h.h.h.K.R.T.Y.h.+XVXBXQ. .O.@XFXDXDXDXyX(.~.T.U.=.p.",
"m.k.M.+XyXtX8XV.g.| o.x.yXVXBX+XH H R +.Y p H &X#Xi - C T { ,.' F F I E $.6.6.6.N.[ 9 - 9 q g T +.E E +.J.~.^.).@Xz.F 8 8 w b ) @.#.t.a.y.y.K.E.I.I.3XtX+Xk.r.h.t.t.h.J.t.~ ^ e.K.K.h.r.g.P.~.W.P.y.y.e.t.i.` / / _ _ ! ) E.[.j.z.j.K.j.%.P.4XiXM. .l g  .<XxXnXnXBX<Xx.g.h.&.=.",
"8Xk.f.M.oXoXS.B.m.3.<.<.+XzXxXB.K | 3.4.+.I F  .y ; r T T { ,.T V d f E &.{ C B Z e 9 5 5 9 I $.&.E T g.eXeX1X<X`.g.^ z x ^ ^.3XY.p.a.d.w.w.d.a.t.e.t.g.%.r.y.j.j.h.l.I.K.~ ! t.E.K.z.~.].`.^.^.^.Y.~.^.P.U._ n c w w / a.].7X*X/.P.h.*.L.4X@X^ g p p 8 8 U g.M.Q.W.k.X.<.3.%.p.",
"%X<...<.2.1.v.b.b.5.,.>.m.+X+Xo...3.n.6.[ { ' C , ; r X.&.{ T C V s g I $.{ s e e e e s C T R %.&.W F W.BXBXeX5X).%.@.e.e.^.sXaX].P.a.s.d.d.a.e.d.e.) ! ) @.y.y.P.l.M.W.P.@.! ( K.[.|.6X6X3X[. X3X'.W.).`.P.#.` c w w / T.|.`.(.Y.j.%.@.z.>X).^ 8 p g 0 8 0 f j d C X.&XCXqX~.U.",
"k...P J K <.k.m.N.b.,.<.<.<.| H [ 5.k.,.] ] X.G e , e ] 4.] C s V C t s ] [ e , , 9 e [ W.W.4.%.$.E E h.z.W.OXOX4.+.p.U.p.^.6X3X^.J.a.R.T.E.[.[.U.d.w.e.e.t.x.~.c.(.oX(.Y.@.z l J.^.^.^.~.j.y.J.j.z.h.x.~.P.@.! / ` ( e.Y./.~.x.z.P.K.j.~.`.L.I a +.%.+.I f g 8 8 a h.aXVXBXqX*X",
"o.G i r V ..3.k.k.<...X...' G Z ' 3.3.%.%.O.] F r 9 p T ] X.T d s e 7 e { { ; ; = - u n.aX4XW.$.] $.+.F 9 y T ] Y E #.#.#.a.E.E.K.p.a.R.E.[.[.[.T.e.) e.a.`.eXwX<X<X+X(.J.l 8 v J.P.%.F d q p F R o.z.l.g.h.@.v U @.t.P.P.~.`.`.(.`./.`._.g.E I ( 4.L.!.!.+.f q 8 0 Y I.*X`.P.&.",
"3.G u r u G X.k.k.o...[ ,.X.G G ' o.%.%.g.X.T d Z p y C ] { Z G Z r - r Z B r r ; - V Q.yXQ.3.X.3.4.+.p - - 7 9 g v v Y #.a.E.E.a.e.e.s.R.E.E.E.T.e.! ! y.eXBXsX4X@X~.h.E 8 7 v &.%.C y d R R T d F %.g.X.%.%.U ! @.t.I.~.@X5X4X@X~.^.4X@Xo.| g.h.] ] h.^.l.R v j w 0 0 8 8 w w ",
"6.X.' H u V ..1.f.,...[ ,.X.F F  .o.g.g.3.X.T G T C d V C Z Z Z V 9 , r : B n.Q.r r ] W.!.,.' 3.L.5.3.T 9 ; - 9 y f f Y #.p.T.[.T.a.d.s.R.s.s.a.U.d./ b ) ~.*X4XC.z.j.~ p 7 8 a I T C R 3.4.$.] T X.g.3.l.`.Y.o.U %.t.P.~.`.@X`.'.~.`.@Xn.k.@XuXoX3. .E O.h.&.*.$.Y j w w c n c ",
"n.5...L H J 2.b.m.m.5.5.3.X.R E l.l.~.l.3.' u Z T B u B Z Z Z N r r B N : B Q.Q.N r X.4.$.T Z 6.W.5.3.] e - , 9 e C T +.t.t.K.[.7XR.e.s.R.R.a.a.U.s.w.M n z l ~ g.O. .a 8 8 w w 0 f g.+XS.f...G k.W.x.k.N.qX4Xo.U ~ t.h.P.~.~.(.~.Y.'.^.M.oXtXuX1Xx.<.R +.*.#.#.=.( @./ e.s.s.e.",
"W.M.M.k.,.5.Q.oXV.Q.n.k.3. .' %.l.^.^.h.o.V - u { C u u V Z Z r < r 9.,.N 2 B N r r [ X.C u e V T [ X.$.G u d V G G ] +.&.t.t.T.].K.a.a.E.R.K.K./.[.R.! 8 8 w v ~ ~ ~ ( b n Y v p ^ @XtXtX%X5...x.M.M.M.(.5X5Xx.U E %.r.h.P.~.].Y.Y.'.`.@XqXrX8X_.M.o. .*.*.#.#.` #.#.t.U.P.I.Y.",
"k.l.~.*X).W.M.x.n.3...G G C F R O.%.g.o.' r * ; B V 9 , V T Z B < N 5.8.N : < r r u Z C V V u s T ] '  .g.l.l.%.T C ' 4.!.L.O.%.J.t.K.R.R.R.T.|.iXpX`.^ q n #.U.t.#.( +._ #.U.&.| ).4XqX>XN.1.3.,.X.g.z.~.@X@Xx.E | O.%.%.h.Y.`.Y.h.j.`.uXBXrX2X+XC.g.%.+.h.J.&.t.J.t.U.I.P.h.c.",
"X.3.3.l.g.o.X.X.X.' V s s s d T U T ' X.' r , < r u , , e Z ,.,.N r Z B N B { [ V V Z G ] ] C s I E R  .I.*X].l.$.G ' W.].l.O.%.@.@.K.T.K.K./.dXsXsXeXj.^ t.U.[.J.%. .^ &.T.].P.).OX@XQ.k.3.X.3.(.m.M.~.~.Y.z.g.O.@.%.+.%.h.P.P.P.h./.iXuXwX2X<X+X+XM.x.h.I.P.*X6X~.&.a.T.J.%.P.",
" .] d C F F T R E T f f a p g F F F  .l.X.Z J 3.8.J - - r [ Q.n.B = < r Z >.).3.V V ' ] X.X.C e d f l I t.^.!.L.&.%.l.*X*Xl.%.&.@. .t.h.t.j.Y.3X5X4X@X3.R y.I.!.h.%.o.T E t.I.P.L.l.(.M.x.l.%.P.4X1X@X`.P.&.@.t.t.j.J.h.%.h.P.P.P.h.P.@X5XwX2X2X1X1X+X(.~.~.).eXR.~ @.^.7XW.X.L.",
"R ] f 9 9 g I E ( Y U ! v q 9 y u V X.n.5.[ ,.OXXXJ ; ; r J 5.9.< = A 2.B.OXqXn.' G X.%.l.3.V 9 ; , y g l +.&.J.t.&.h.P.l.h.4.4.@.E  .&.t.h.h.W.X.R '  .H o.g.l.h.%. .R E Y ( E Y h.M.oX4X*X~.].4XeX4X^.t.Y ! J.P.P.J.h.z.P.Y.z.h.t.%.g._.4X1XwXrXrXrX8X(.(.4X~.c w #.7XCX%Xg.P.",
"y  .&.s - q v Y ~ Y ! ~ U q - ; , e V X.X.Z A 1.6.B : r < r A B : : A Q.>X>X%X(.g.X.X.<.W.n.K B , = , 9 9 f +.J.&.*.4.h.&.h.4.4.( E Y +.&.J.L.3.F d H X.' X.x.W.l.3.<.o.T q q y  .l.1X+X(.!.h.P.`.4X`.z.+.Y @.P.^.P.h.j.P.z.z.h.t.) v U P.@X4XiXxXBXBXyX_.~.P.R 5 8 ( *XBX8Xm.k.",
"e C  .I p j I U Y U v l f y , = , r V G Z r < B Z Z r ; : < N r : < B 9.n.n.M.~.P.3.| ..b.#X;XD.1.J ' ' e 9 g +.#.+.h.P.t.+.+.+.+.~ U I +.P.!.$. .O.%.%.X.o.k.x.5.k.N.(.3.F F | XXyX4X~.g.^  .%./.`.W.l.&.+.t.P.~.~.z.P.W.P.P.h.e.) b ! t.~._.+X+X$XzXyX(.~.J.T 7 7 I Q.lXkXV.m.",
"J i d F R E I R I U R F H | G V i B ' X.G r ; r J ,.r = ; : r : : r r r u Z $.3.!.%.X.>.5.$XmXVXmXzXlXoXG , 7 w W +.I.).h.E Y Y } +.I f E J.h.+.^ h.g.3.3.3.<.g.k.oX%X#XZ.N.oXoXyXxXwX(.o.U ^ ~ h.J.h.t.p.p.J.h.P.~.`.`._.Y.h.t.e.! ! ) @.t.l.k.3.oXxXxX1XW.h.( w 7 8  .eXDXrXm.",
"<.H , i T O.%.+.3.3.k.n.oX;X%Xb.H K 5.5.J B ; r { { N : ; ; ; ; : N B < = r V T 6.3.N.#XZ.D.kXvXlXyXtX@X' q q w v *.I.!.J.$.~ ( %.%.( Y Y Y v l ^ %.%.3.l.x.3...3.m.N.B.#XyX1X+X$X$X1X(.<.3.j.P.h.%.r.J.K.K.t.@.t.Y.7X7X@X`.K.t.~ Y ~ &.%.%.g.x.g.N.tXxX%Xz.%.+.Y p 7 d oXDXJXjX",
"M.X.H F R  .$.%.m.(.%XlXmXVXVX;X[ K <.[ G V r , s Z Z Z r ; = * = A ,.A : ; = , 9 X.rXvX9X#XZ.8.>.,.l.&.E v Y E  .&.&.*.&.l.!.Y.z.P.K.#.U w 8 0 E %.g.3.x.M.3.| X.<.1.b.$XyX+X+XN.N.M.l.3.z.*X6X~.%.%.h.K.Y.y./ ~ t.].3X~.z.y.@. . .t.P.h.g.z.~.x.W.%X(.x.%.@.&./ ! 0 , | uXLXJX",
"rX8XS.V.V.V.N.oX(.`.4XtXvXMXjXZ.,.L H Z Z Z u , r s T Z r r = * * G n.,.< ; ; * = G 8XvXlX;Xn.,.T F E ( E Y ( &.h.t.+.*.q.).4X`.^./.T.#.b v a a O.I.W.3.k.3.| ' | ....5.8XuX$XS.S.m.T U t.P.).*X~.%.@.K.'.`.Y.y.@.t.I.I.t.~ @.j.P.z.z.P.h.h.P.Y.(.`.).g. .~ @.h.t.t.~ d i f.VXJX",
"bXbX9XkXzXlXzXjX&XoX(.V.8XkX#Xf.2.[ Z Z G C e 9 r D T e 9 - ; = ; Z { G N r u u ; 9 ,.#X;X&XN.l.3.3.L.h.+.#.#.Y &.@.( t.P.].6X7X[.[.U.~ U ~ @.@.3.^.W.3.X.K H K ' ' ' 5.8XkX-XD.#X1.s f %.3.l.g.h.&.#.K.'.`.`.Y.j.j.h.t.~ ! h.4XwX+X(.C.k.3.h.h.W.~.j.@.@.@.#.t.t.@.@.~ d l _.sX",
"$X;X9XlXxXyX;X#Xn.n.n.b.:XvXS.2.>.[ G V T C u e s s s 9 , 9 9 , e s e u B [ 8.[ - = B 1.Q.Q.N.M.x.z.~.W.l.%.%.@.&.#.( @.p.K.I.K.i.e.) !  .g.l.k.l.l.l.3.' H K <.x.3.' ..S.9XjXjX$Xf.' ' o.o.^ ^ X.%.@.t.W.~.`.).P.y.t.) n R &XVXDXrX-X$XN.n.l.l.h.h.@.( _ ) #.t.h.t.@.@.E z ^ y.",
"x.C.%X8XV...H V H J 1.Z.cXmXD.2.K J V C T ] V u s e e 9 - 7 s s C C s V [ XXyX).r ; e X.6.6.b.z.%.z.!.P.!.).).].[.K.@.( @.#.#.#._ b g F o.(.oXN.k.3.3.3.' ' g.W.OXz.R V 1.cXJXGXMXNX:X-X-X$XS.#XoXm.<.h.~.~.P.z.j.y.@.~ U 3.rXJXDXcX9X:XD.N.Q.W.P.t.@.( ) ( ) e.J.#.) ( ~ ! ! v ",
"g.(.%XZ.L r r i i H 8.:XMXcXB.K H Z u C R C u r 9 e 9 7 - 9 s C D S T Z ,.tXBXOXB ; 9 T R T ' T  .&.h.h.J.^.]. X[.&.%.#.e.e.e.e./ b U o.(.4XqXoXk.5.3.3.%.3.M.(.N.k.' H v.GXKXKXKXKXGXNXcXvXVXJXVX0XB.f.z.[.^.j.j.h.%.E @.`.bXMXMXjXF.0XD.S.(.(.I.t.t.#.e.) ( _ &.` M n U ! U v ",
"X.<.m.1.H < B L :.7.Z.:X9X-X2.' J u y f f 9 ; = - 7 8 5 5 9 e V C Z Z C { ).=Xl.g , 9 j ] ' V p I ~ ( *.&.E Y ( @.&.p.p.p.i.e._ y.t.P.%XMXMX-Xn.XXb.$.O.+.%.3.5.3.g.l.b.-XMXZXGXGXGXNXjXNXMXGXKXJXcX$Xf.l./.^.J.h.h.@.O.M.rXmXNXNXNXNXjXS.<.%.t.p.t.p.#.e.e.#.e._ ~ ~ h.~.).Y.y.",
"H | <.2.J A 2.7.G.A.Z.v.>.L J J G u y f a 9 ; = - 5 7 8 9 9 e t C Z Z V s V V u e e C +.P.W.3.$.G ' %.P.h.s , p Y e.U.U.U.a.@.@.h.(.%XzXJXNXA.7.N.N.x.X. .%.3. .X.).qX&XN.S.A.F.jXjXH.G.F.jXNXMXjX-XS.k.g.P.h.h.h.t.t.o.(.VXmXjXNXMXGXMXF.P d U #.#.) _ w.e.a.h.t.h.`.uXBXFXuX(.",
"..<.k.2.L 7.lXVXMX:Xv.1.L A Z Z C d f E E f e r 7 5 9 t t 9 e s Z S C s e , 7 e Z T ] g.(.OXn.6.,.5.!.).3.e ; 9 W p.s.a.R.K.h.h.N.-XcXmXkXZ.v.B.V.1X%Xn.o.%.%.%.3.(.oX2.K K L L 2.v.2.:.v.D.:XF.D.D.+XM.3.h.h.z.P.h.h.<.S.bXcX9X9XjXGXJXjXL , q v Y b ) y.a.K.L.P.^.5XwX0XxXxX%X",
"#XoXm...A A.VXVXNXv.:.b.1.[ ' T F T ] 4.4. .G s 9 5 e f s 9 9 s S S s s t 8 9 g C ] h.%X%XoXXXXXM.~.).h.F 7 ; - j p.t.#.r.h.*X3X8XvXJXmXS.m.(.(.+XxXxXqX`.g. .X.3.,.>.J P K >.7.7.v.7.:.:.7.A.B.7.b.Q.z.g.P.~.).`.~.h.<.S.kX9XD.D.F.NXJXvX2.< y U %.%.h.h.g.t.J.I.^.z.r.x._.4XtX",
"NX8Xf.H J 9.7.2.2.:.2.Q.n.,...G R R X.l.4.] G G C s s s t 5 7 g T S g s p 8 8 t S E 4.tXlX#Xn.5.5.<.X.F y q p p v ( ! ~ %.W.yX&X-XvXVXyXoX).).W.@XyX&XM.P.r.O.$.3.Q.B.:.2.v.A.F.jXNXF.G.G.7.7.:.2.f.M.M.h.P.*X6XOXz.g.%.&XlX:XA.jXNXNXMX9X7.>.x.<XeXwX+XN.x.O.K.`./.g.O.r.x._.iX",
"VX:XL N B i < r r [ 3.x.b.5.<.X.X.[ X.3.,.{ [ X.4.] Z s t 9 9 f T W f p 8 0 0 p p g ] %XlXZ.,.,.,.[ G s s ] L.L.R U @.J.h.W.OXn.k.x.4. . .%.+. . .%.X.' E ^  .X.n.tX8XA.:XjXNXZXHXIXGXNXNXhXhXhXF.D.V.M.g.3.z.).M.M.x.z.!.OX8XkXJXJXmX0XD.v.V.1XbXVXvX9X8X(.o.z._.`.(.C.(._.<XpX",
"kX2.B < u i i B Z X.X.o.3.k.k.M.M.5.5.5.3.[ [ ,.6.{ C s s t t p f T C p 0 g g f f f G 3.*XXX5.$.] ' { V s 6.=X>Xn.%.l.).W.W.P.%.R g 0 8 8 w z v f I R  .R H | ' 6.qX8XD.mXKXKXKXUXIXHXNXNXZXKXKXGXjXD.k.g.x.3.3.<.x.~.W.R u ,.oXvXVX$Xv.v.f.V.wXkXkX9X0XiX@X3.g.(.%XwXxXxX8X+X}.",
"L < B B V X.n.5.G ' X.X.] X.k.W.oXN.n.b.6.,.{ Z Z s e t s s s s p s s f I I T } q.' s C 3.Q.n.{ G T 6.{ s T l.).W.l.!.~.Q.Q.l.F g 7 0 w w x ~  .I E +.!.).W.k.<.' 5.1.A.mXKXKXIXUXUXIXNXNXHXIXIXGXNXD.L ..W.W.z.z.W.*Xx.r = < K >.K P L L 1.Z.;X8X0X-X8X8XM.o.g.M.@XiXFXrXV.z.|.",
", , V Z Z ,.).W.G R | R G ' 3.k.b.n.Q.8.,.' G s e e e e t s t t t 9 9 s } E ] !.].8.C 7 q R G g d T L.4.F d V X.h.Q.Q.3.O.g.W.L.@.v Y ) _ a.I.&.~ Y +.).yXyX+Xm.<.| O.o.9XJXKXKXKXKXHXNXNXHXKXIXHXNXG.L K M.@X4X@X&X(.L i F ' | X.X.3.k.b.N.N.$XqXqX+X<X'.g.g.j.Y.(.<XuXwXC.z.'.",
"i i H G T ' 3.3. .G F G ' ,.,.,.' K [ G V G T V e e e e 5 9 e e 9 7 - 9 t S E &.^.L. .d y y y I T $.!.!.] V H o.l.!.P. .R &.].].J.Y E #.p.I.I.&.( n Y !.qXqX+XM.m.x.g.o.<.oX9XD.v.G.F.G.jXJXIXLXKXjXA.L H K 5.Q.W.n.,.[ 3.W.(.W.M.(.oX8XlX;XZ.#XwX4X_.C.x.g.j.P.Y.j.c.`.}.'.~.Y.",
"B u G T X.X.X. .[ G H o.M.n.,.K u y y y y G T s e e 5 - - 5 5 e 9 9 9 9 s I W E *.%.W.*Xl.d q I E ] 4.4.T $.).*Xn.K.e.U ] h.I.I.J.] W *.&.U.p.+.v a Y !.=X+X+X`.(.(.M.l.o.d i < u L >.7.A.jXZXNXjXF.B.9.J G G K G ' ,.n.Q.oXOXQ.N.Z.S.9XkX9XD.Z.V.(.C.M.c.c.z.Y.Y.j.j.Y.'.'.'.~.",
"; , V ' %.3.X.o.5.<.o.M.%XXX<.' i 9 i H ' 3.{ r r e 9 5 5 9 e V $.6.6.5.!.4.E F a @.*XaX).U p p a q p s e X.>X=XoXP.) l E &.p.J.p.+.~ +.e.U.t.) ~ y.Y.@X1X@X<X@X3XqXtXOXL.T 7 d X.n.N.N.Z.A.D.A.v.b.5.,.3.3.X.K G X.W.%XoXZ.Z.N.XXN.B.$X;X$X$X0XjXrX8X$X1X1X<X2X`.'.Y.'.'.'.`.@X",
"9 F F F %.h.o.X.k.).`.<X+XB.b.<...H K o.M.n.G ; - 9 t t 9 9 s ] !.OX=X=X=X!. .d g t.].].^.@.p 9 7 5 7 7 9 f 3.).tX`.O.l ~ t.&.t.U.a.#.#.e.a.t.t.^.7X6X4X4X3X`.x.x.W.Q.Q.X.d s O.>XlX&XN.Q.W.k.h.3.6.6.4.W.M.g.X.' 3.(.@X#X#XoX$XQ.n.k.oX%XS.D.mXLXJXbX9X0XrXuXrXiXpX7X}./.`.<XwX",
"%.P.%.l R %.g.3.M.).(.`._.M.C.(.oXS.V.m.M.k.B = = ; e C S C V T 4.!.!.L.3.3.O.z l &.J.J.T.J.I y 9 7 7 7 8 9 d W.tXqXk.R  .@.+.*.I.J.t.t.t.t.+.+.!.*X@X(.).^.h.] H F l d d H  .3.qXCX%XX.G F d E $.] T 6.Q.k.5.3.<.x.).%X%XoX$X$XS.b.b.XX%X-XD.jXDXDXbXrX0XkXxXrXiXuXsX6X<X5XwXBX",
"`.^.r.E E %.l.l.x.z.z.W.~.x.~.@XyXxXxX+Xx.X.i = ; ; r X.L.3.C C C p , 9 C h.h.R R %.&.t.J.t.E d q 7 9 q 8 7 y %.@X>Xn.3.h.t.E Y %.&.h.L.I.t.E U *.J.h.l.h.&.+.$.@.t.@.~ @.t.P.h.P.z.| i , ; ; t W E I +.P.x.l.3.k.x.oX%X+X+X8X8X0X8X$X-X9XyXD.v.m.S.S.$X0XkXxXwXM.(.4XsXuXBXDXLX",
"z.~.j.@.@.g.h.l.P.z.W.h.h.h.z.oX1XkXkXS.g.X.G r 9 6 B 6.!.6.Z V p 9 , e 3.6X].g.$.t.t.P.P. .g y 0 7 7 p g e e ' OX4XW.l.4.&.E E &.h.L.L.!.h.~ v Y p.J.h. .( @.h.[.[.P.K.U.T.I.@.E  . .T y - ; - 8 W E E h.P.~.h.x.(.4X+XV.+X#X8XvXDXvXcXvXkXS.f.,.>.f.S.8XkXtXN. .R o.5XFXFXLXJX",
"g.z.P.P.P.P.W.W.(.~.P.h.%.%.g.g.Q.oXN.b.<.3.3.G , e X.!.,.Z s d S ] ' ..(.eX@Xx.h.J.I.*XQ.' e 8 p 9 7 t C s q l `.aX(.' Z s w W L.L.W.Q.M.l.+.W Y J.I.$.Y ( _ a.U.U.U.i.e.a.a.) ) J.!.!.] y - ; - 9 a v E 4.P.I.).1XrXwXoXW.x._.bXJXDXzX$Xm.Q.oXQ.k.k.V.9X8X%Xn. .F d g.sXFXFXxX",
"z.W.W.P.P.P.P.~.).W.h.%.O. .%.g.M.x.k.M.Q.M.3.F y T l.W.3.V 9 9 6.!.5.<.N.+X_.f.%.t.P.`.+X5.F y e e e t C f g v ^.aX@XX.[ G , g &.!.@X(.M.l.%.] I +.J.$.+.#.#.#.#.=.=.i.e.e.p.p.a.P.).P. .T T Z u y q 9 p T $.t.!.*X5X%X(.M.g.x.tXBXyXm...K o.L.Q.oX;XzXcX2XS.m.<.| f R l.>XyX1.",
"M.W.z.h.h.j.z.'.).~.h.t.%.%.h.h.l.h.h.).eX%XX.F T g.).OXL.V ; e W.OXk.b.%XyX+X| R @.y.`.rX%X,.r 7 u e 9 e f I ~ t.).W.(.eXW.9 u ] W.OXXXN.k.3.$.E I } J.J.#._ ` ` M m M i.i.s.a.a.J.&.%.%.4.W.OX>XQ.X.I g f R ~  .+.L.).*Xx.%.J.!.z.X.H u y T @.%.M.yXVXmX9XjX0Xm.K p t s G H i ",
"~.~.l.g.g.h.z.Y.W.P.z.h.h.h.h.h.g.l.g.W.4XM.G F X.l.W.).4.B ; r $.5.Q.>XCXCXx.H l @.j.1XBXCXl.e 7 p 9 5 7 T 4.l.h.l.l.*XeXk.9 i ' Q.oXZ.oXQ.5.4.~ v Y p.U.#._ _ ` / M m ` i.s.U.s._ U ~ L.).=XtXlX&X!.L.$.W W F p a } P.*X~.t.( g q d X.%.%.~ n v ~ oXxXmXVXJXvXC.H 9 8 q g d R ",
"`.~.g.r.g.g.~.).~.~.P.z.x.z.P.P.z.g.4.l.x.' d  .3.$.$.6.' e ; e F T 6.XX>XQ.C 7 g ( P.%XyX=X4.p q f 9 7 p %.!.).l.l.l.W.l.H y | (.&XXXB.oXXX6.X.U v b #.e.t.t.i.p.e._ _ ` _ a.R.=.b n @.).yXqXoXk.[ ] +.E E } T v g l h.^.P.+.v 7 9  .^.!.h.@.! f d R 3.%XlXCXyXl.F d I d d X.h.",
"`.Y.%.O.r.z.*X5X_.~.x.z.~.(.(.).P.h.3.h.%.l f &.L.] T C u 9 5 e e V B N r ; - 7 n &.].>XQ.%.U q g j f I &.L.W.OX).M.x.g.| F l h.eXQ.N.B.N.oX1.J F F Y #.#.t.J.I.^.Y.K.p.e.) i.a.( n ! y.).yXOXX.p 9 g S W ] } 6.$.F d o.W.).L.T 7 d P.=X!.$.#.( S p 7 9 u J X.O.]  .h.&. .g.).W.",
"~.r.R ^ O.j.3X5X%X~.M.~._.+X(.(.z.h.%.%. .d g  .,.C B r r - ; 6 9 9 = * * = - g ( J.*X=X%.f p 7 7 8 I h.^.W.W.%XOXM.N.m.g.X.| g.k.3.k.n.oXtX;X1.H G  .&.#.J.!.`.4X*X^.t.e.#.#.i.=.&.P.P.W.!.%.F 7 7 0 a W } 3.!.M.X.K 3.OXeX*X| 9 ] =X*X3.$.*.*.5.3.0 - * ; - 7 W &.L.h.P.4X5X>X",
"z.H y | @.r.~.).V.M.M.Q.oXoXV.M.W.g.%. .u - 5 9 e 9 9 9 e 9 5 6 - ; * * : u V +.t.L.].W.F p g V d f %.h.l.W.).%X%X(.N.N.Q.OX@XQ.<.X.' ,.+XVXVX-XK K %.J.p.U.`.eXsX4XY.r.a.e.i.e.U.].7X(.3.+.I a 0 j j W +.$.l.).yX%XM.m.oX%X%X<.d  .=X=X5. .] 4.4XtXz - 5 9 5 0 a #.+.+.!.6XwX%X",
"u.q 9 O.h.%.3.5.k.k.n.M.n.m.m.N.Q.b.3.G , = ; ; - - 9 9 9 7 5 7 5 - ; 9 ' g.W.!.L.l.3.| z U h.`.eX4X).l.g.M.+X%X8X$XN.M.%XrXvX9Xx.X.R  .z.tXxXoXX.R %.t.h.P.`.eXBXeXj.y.t.p.&.a.Y.4XqX!.%.Y a g Y / Y E E I  .W.yXCX%XB.S.9XyXv.K ,.Q.OX4.X.X.Q.tX>Xf ; 0 W j j j Y +.%.!.5XqX1X",
"o.9 , R h.3.<.,...,.k.k.<.k.m.m.N.n.3.G , ; ; - 9 9 9 5 - - 9 9 e e T 4.W.W.).).h.h.%. .~ r.*XBXFXBXiX(.(.%XrXrX8X+Xm.x.@X5XuXnXV.o.| ~ %.x.x.g. . .t.K.Y.Y.'.'.eXsXz.h.I.P.h.P.`.*X~.h.+.W W W } *.( W E E T n.oX%X$X$XjXzX8Xv.k.5.n.!.4.3.Q.qXCX&X9 * 0 Q W n j Y ( t.].4X%X2X",
"<., , F  .3.b.b.5.k.m.5.' ..k.M.m.m.g.G 9 - - 7 9 e 9 5 - 5 5 5 p R ^.].!.g.h.&.&.&.t.&.t.~.5XBXBXxX4X(.@X5XCXxXqX(.M.l.W.5XBXBX1Xu.O.e.@.O.@.h.@.@.J.].|.'.Y.R.^.^.W.~.@X(.3.x.OX).J.t.*.} E ( } Q Y W E q.).&X(.N.D.jXVXmX;XoX%X@X`.).h.P.eXBXsX,Xd ; 5 j m j n Q #.J.`.4X8XwX",
"<.i i F V ' 5.XXn.b.b.>.J ..k.N.(.N.k.G 9 9 7 9 e e 9 5 - - - 9 F L.6X*Xh.O.~ E ~ #.U.U.K.'.4XwXeX@Xz.%.%.3.x.(.(.M.M.k.M.rXDXDXwXg.O.@.@.e.e.t.#.t.P.3X6X`.P.j.@.E h.@X5X+Xm.M.l.l.J.p.&.*.*.#.} j j a I !.CXCXwX;X9XDXJXcX$X@XOXW.z.P.r.z.3XeX5XyX~.F ; 5 n m n ` a.Y.`.<X8XuX",
"L u V F y u J 1.1.1.2.>.,.5.k.m.(.oXn.[ s e 5 5 9 7 8 5 5 - - p 6.!.).).l.O.E ~ Y +.t.p.t.J.^.6X`.r. .|  .X...k.k.x.x.<.Q.xXDXbX(.| ^ ~ @.a.a.y.J.t.h.'.`.~.h.t.@.h.z.(.@X1X<X(.z.h.h.h.t.&.#.#.Q h w j W l.qXCXzXlXmXDXlXZ.<.o.+.%.&.%.@.j.'./.}.5XsX).V 7 w j Q ( U. X7X1X0XrX",
"H i V F r i [ 1.1.1.2.1.k.k.m.M.V.+Xk.L G V 7 5 7 5 7 5 9 5 - f 4.4.4.3.x.).W.3.E ~ #.a.p.U.K.K. .F  .X.o.g.k.k.k.k.k.<.k.+XwXV.o.H | @.t.j.j.h.J.t.t.K.P.P.t.h.h.P.~.(.C.M.C.(.~.~.5.%.@.` / Q n w h n +.3.(.CXkX9X8X%Xn.[ H d v ~ &.h.h.j.j.R.~./.6X6Xh.g 7 0 Q s.K.T.6XiXwXuX",
"<.K | R u L S.-X#X#XD.S.B.B.V.S.#X%Xb.L V u 9 e t 9 9 8 e 9 9 f I g d E W.>XyX%XP.%.@.e.#.p.#.E f E l.3.X.<.x.3.<.k.k.k.k.X.g.M.h.o.h.P.~.I.P.z.t.t.t.a.K.K.J.h.j.~.@X+XB.B.v.v.(.OXl.+.~ b M m c h c Q +.%.W.4X%Xb.>.[  .] T F E *.J.P.^./.Y.K.T.Y.~.*XT.T 7 8 M s.s.y./.6XiXeX",
"x.z.h. .K 1.8XVXVXmXvXkX2XD.-X-XD.$XoXN.K < e V C t t p f s p p 7 - , d g.@XtXBX*Xg.~ ( ` Y a 9 l P.l.' K | | K X.<.k.n.b.k.M.W.K.g.z.Y.^.~.~.j.h.t.e.@.t.Y.I.h.Y.(.oX8XkXFXvXD.m.%X*X&.! ! m m h c m ` +.*.P.).3.R u d  .h.h.+.&.J.J.P.^.^.Y.Y.K.K.j.'.T.+.8 0 M d.s.a.K.^.`.<X",
"Q.(.g.o.k.S.vXJXGXmXcXcXcXcXrX2XD.-XcXVX&XB u T S p 8 9 q p q p 9 7 9 F h.W.OXeX`. .U U ! ~ l q F !.k.P P >.<.P ' ..k.n.Q.n.M.M.P.z.j.z.P.Y.I.I.K.@.! Y *.$. .#.`.5X8XkXmXJXLXmX;X#X+Xh./ ` Q n w w n Q _ #.J.L.%.T T I U E ~ @.J.J.&.J.^.T.Y.Y.y.y.y.T.7X].! w b i.a.w.w.e.j.R.",
"@XW.3.x.@XtXVXVXkX9X9XkXmXJXDXNX0X9XDXLXlX9.[ 4.T q 5 7 9 8 7 q I +.$.%.h.%.h.^.K.~ Y Y ( #.@.U ' ~.M...>.N.(.2.H L 1.k.M.M.W.C.P.P.j.J.P.P.P.^.P.( z g f C s E ~.4XwXrXvXDXVXvXrX+Xk.E n b Q } n w c ` =.=.L.!.P.!.).P.E d g U @.#.t.K.R.Y.K.K.y.y.t.T.dX7X) w v e.s.d.w.! ^ r.",
"`.x.%.x.~.%XtXkXoXN.8XxXxXVXJXDXcXjXbXDX#XA { L.{ e 5 5 5 - 7 s ] L.P.g.%.R U @.e.( / ( @.&.J.&.g.+X%X>.P m.oXb.J ..k.m.(.(.~.C.P.K.P.Y.K.j.j.P.p.~ a v %. .C E P.~.(.(.+X1X2X%X~.x.R q 0 v J.7X&.0 w Q *.q.L.^.W.).3X`.4.E E ( ! ) a.K.K.K.K.K.K.y.e.a.^.j.l 8 w _ a.w.w.w.@.t.",
"x.X.X.o.3.m.oX+XM.(.(.(.%X8XxXbXrX$XS.V.[ r V ' I a g 8 8 0 z ~ &.t.h.g. .F T E ~ @.+.+.&.4.P.!.M.%XyXm...2.v.1.....k.m.~.(.(.C.c.j.j.K.K.y.y.y.#.! w ( ^.O.F  .P.~.x.W.P.z.z.h.&. .f 8 p I ).sX4.7 8 h Y *.t.K.L.W.^.^.^.!.J.e.@.@.K.Y.Y.Y.P.K./.Y.h.e.) b n b ~ t.a.y.y.y.y./.",
"..K | 3.3.3.k.x.(.l.d 9 H g.(.%Xx.<.K V u V ' ] T I v v v b ( t.j.g.~.~.g.X. . .E +.@.&.h.h.P.~.(.%X8X$XV.B.m.1...[ <.k.m.+X4X%X~.g.r.j.y.a.K.a.) b p I  .d d | (.qX%XN.X.H T +.+.F g 0 g ] ^.(.T 9 8 w j W ( @.&.&.%.J.].6X7XK.%.%.h.I././.^.Y.R.[.j.~ b / t.P.^.Y.K.K.Y.j.h.`.",
"<.,.3.k.k.3.o.o.X.u , , d X...H V V V G ' ' 6.5.] ] ]  .$.#.t.l.m.+XwX5X(.x.g.h.@.R @.j.j.g.x.c.%X1X1X8X2X2X2X$Xb.2.f.m.V.+XqX8X(.x.g.h.t.K.T.U.U d F R G V V ..(.tXqXn.X.H F @.o.T d p l E X.[ T g 0 0 w j Y / #.#.( @.^.dX4Xz.#.p.K.T.T.P.j.K.R.R.@.l z ) P.!.*X^.P.Y.Y.z.z.'.",
"OXQ.k.5.k.3.X.R G y 7 e R 3.' B u H ' ,.[ X.6.6.[ ' ] X.%.h.z.Q.8XvXuX1X_.x.x.z.%.T X.z.z.x.C.(.1X8X1X8X0X0XzXkX2XS.+X$X$X#X$X8X%X(.W.z.j.K.P.J.F , o.4XOX,.L 1.(.@X~.o. . .%.P.g.' d l +.$.X.5.g. .v h j n #.I.t.J.&.( p.[.Y.r.) i.a.R.K.t.j.Y.~.g.F f v U @.Y.5X@X~.Y.Y.j.z.P.",
"=XQ.5.3.3.X.' R T d a ( J.h.X.V r i G X.' T [ [ [ [ X.[ <.W.@X;XbXDX8XB.k.3.z.l.3.| X.l.W.V.%X$X$X$X$X0X9X9XkXkXrXjXrX0X0X0X8X1XrX8X<Xc.z.z.z.z.H ; H @XoXb.k.Q.N.k.| R E  .g.6.6.] F R %.P.(.(.(.P.t.! ! @.^.7X].!.4.+.#.i.e.w.) e.e.a.t.J.Y./.|.t.l U E T X.].eX@XY.Y.Y.T.^.h.",
"5.,.<.3.X. .] R F p f J.^.l.3.X.' G K ..L [ ..[ ,.,.,...1.S.kXzXvX9XS.x.f.g.P.P.h.| o.x.(.8XyXwX1X2X$XD.-X0X8X9XzXkX9X0X0X0X2XyXyXyXtXqX(.c.Y.K.^ , , H ..,.+XtX%X1.[ H H F R  .$.{ F U O.~.wXqX+XM.x.g.h.T.[.[.[.J.) / ` _ _ #.w.w.e.t.t.I.].=X*XP.E E E ] l.4X4X).).).(.<X].j.",
"' X.g.3. .] E I g 7 q $.).l.l.x.g.g.3.5.b.N.b.1.b.Z.Z.Z.#X-X9XjXqXoX(.z.z.~.~.`.).+X(.C._.+X$X2X8X$XS.V.D.0XrXrXcXcXjX0X0XjX9X;Xx.g.~.7X3X`.(.W.X.V u r V | ).tXtXQ.,.' K d U | R K H d F m.8XrX%XN.x.%.h.U.Y v c n n n c b e.E. X[.[.J.E *.&.+.( Y n n / @.K.6X6X].~.~.@XuXeXP.",
"3.W.z.o.X.X.] T p 7 9 ~ 4.3.X.<.5.M.n.5.b.N.m.B.D.-X;X9X;XD.A.B.M.M.x.x.c.(.<XwXeXtX1XC.(.+XoXS.V.Q.W.(.$XkXJXJXJXJXSXjXNXNX9Xm.H r F P.^.!.L.$.^  .X.g.~ l z A b.=XqX>X5.X.o.3.o...J i V 7.-XrXvX;XB.).^.+.q 7 8 0 w h h j ` {.*X7X7XI.*.~ j 8 8 0 w j Y K.3XBXxXwXqXrXvXBXuX(.",
"z.~.l.o.o.@.~ z p 7 w v E  .E T F ' ..[ K ' ..O.7.7.1.b.8.1.>.J ' %.%.%.P.@X1X1X5X<X@X_.c.(.oXM.x.x.z.~.m.:XJXIXIXIXJXNXNXNX-XP , ; e T R T T G R O.3.W.X.u * # = A Q.&X%XW.M.n.5.5.1.v.D.lXcXcXvXkX#X>Xn.T { T E E v j j j Q *.#.J.&.T Z r ; = = = 9 ,.Q.oXrXVXVXmXmXVXMXcX;XN.",
").).l.3.O.E I 0 w 8 0 a W &.&.Y E R R ' G G K H [ [ [ J Z J G C G ' ' ] !.eXeXqXx...m.<X}.<X%XC.C.V._.f.2 2 G.MXKXKXGXZXZXMXA.B ; , 9 7 7 e V ' @.t.3.6.J : % # # % : N ,.l.W.b.8.M.1XvXJXLXJXDXBXtX+Xn.X.L.*X*X!.3.{ ] 3.6.,.L u < * # $ o o O o o & 2 A :.7.7.0.7.A.G.:.A N < ",
"!.].[.L.q.E g 0 0 g q t s T ] +. .X.$.5.l.l.l.k.l.3.X.' [ [ X.3.6.3.] T l.OX).k.F u ,.3XeXrX9XcXjXcXMXG.3 @ & 2 2 A 0.hXNXF.A = > : : > : : N [ 6.6.X.{ A : * * % * # % > N n.&XB.k.1XJXKXMXF.7.:.P B N B :.:.A 2 > > 2 0.2 > & & O X   X X X X     X X o O O O O O O O o $ @ @ ",
"h.!.P.#.E a q p t s e ; ; * : ; < B Z X.6.6.<.5.5.b.n.%XkX9X-X#Xn.2.B r N B B < , < B L v.:XhXhXhXhXhX7.3 X       X O > 3 & X   X O O O @ @ % : : : : N : % # % % % $ X o > ,XcXZ.2 3 4 3 3 & O O O o @ @ O X         O & O X X X X       X               X X   X X X X o o o $ ",
"Z u u r , - - ; ; : : > $ $ $ @ # # @ # # # & % % > 2 0.hXhXH.0.3 & O O O O O O O O o o O & + O O O + + O X         .           X X X X X X X X X X o O O o X X o o X X   @ G.ZXD.& . . . . .       X O O X X X X O X           X o X   X O O X o O O O O o o o $ $ @ # * * * % ",
"% # % % # @ @ $ $ @ @ $ o o X o o @ @ X     X               . . . . . . . . . . .   . .   X             X X X X       X X   X X X X o X X X           X X X X o O X X X   X > H.A.3 O . . .   X X X o o O O & 3 4 2 > O O O O @ % % % @ > 2.7.2 < < < < ; * * : 6 r r N N s e , ",
"o o o X o X X o X X X X X X     O 4 0.4 +   .         . . . . . . . . . . . . . . .       X   X X X X X X X X X o @ O X X X X X O O O X X o o O o o o o o @ > > # o O @ O o o 2 S.7.A 3 3 > & % * * : : < A :.F.jXF.0.2 1 < r r N u r Z Q.].W.k.%. .E S g q 0 p p s g q 9 9 s G ",
"X X X X     X X X X X X X     X 3 hXZXZX7.+ X   X   X             + 4 3 + O O o X     X X X o o o $ o $ @ @ @ $ @ & 3 > & & & 3 4 2 & o o O @ & > % % % % : < N : : 0.D.:.% $ > 1.-X:XD.2.A B r 5 - 6 s G ' [ v.D.A.:.:.>.,.,.9.L Z K k.=XW.l.o.T S C s S S g t 0 8 8 9 - 7 | +X",
"o X X O 3 3 & X X X X X X X o O L lXNXjXG.> @ O o o X X o X O O 3 NXIXHXhX4 2 N 1 % : 2 1 * % * : 1 < < N N : * % < A B < A v.D.jX-X0.> % * : N B u u B u r 9 , r ,.cXZX:XB < A n.&X#X1.H d T D s - e S $.,...2.A.G.F.hXD.v.v.2.L H | %.6.'  .T q q g f W W f p w 7 5 - - d (.zX",
"% % > A H.F.0.& @ # > > % % : < Z W.Q.,.A < < : % > 0.0.:.:.A B 7.jXGXZXNXhXjX;XB.[ ,.k.3.G Z Z T { ,.6.q.q.X.C G G V V r < >.+XyX8X#X8.1.,.T s C d s s B e 7 - 9 N.VXlX,XN.3.3.Z.&Xb.H r u T } Z s Z 6.n.b.A.jXMXNXZXZXNXNXjXG.7.L [ 5.8.,.' e 9 q f R T C u V T $.G 9 9 X.eXVX",
"B B L 8.&X&X8.r ; G XX>X,X8.6.] J G F d u B r r :.NXZXMXNXjXD.v.5.M.yXBXzXcXmXVX>Xk.3.l.~.).).L.$.] 4.4.&.$.] $.4.] R F i , u l.(.N.oX>XqXQ.3.G 9 9 9 e e e - ; : 8.oX1.n.5.b.8.8.1.Z V u u C C e C ] L.(.A.jXLXIXHXZXZXKXKXHXZXNXF.7.;XvXoXB , , e T { T V e y b.=X&X,.G k.rXxX",
"4.q.$.T C C s e u 6.>XCXlX&Xl.X.T T T X.R C B A ;XJXGXGXNXF.G.>.K m.;XmXSXSXbXkX%Xk.k.M.).qXtX=X3.T ] ] R T T %.L.4.4.4.R d R h.W.W.OX=XOXL.X.u ; ; e e e e r * ; J ,.{ L ,.,.1.5.[ G G e , 9 ; - s E 3.N.-XGXIXKXMXhXjXGXKXIXHXKXjXG.jXlX#XL N 9 e T ,.X.Z r V N.tXBXyXB.v.9XcX",
"L.6.T 9 - 9 t s C %.=XCX>Xn.{ { ' X.4.4.X.k.5.l.;XVXNXNXMX9XB.>.2.7.-XmXbX0X#X&XQ.M.@X=X@XtXtXQ.{ T 4.4.T C E 4.M.M.M.n.5.,.3.k.z.W.(.Q.l.X.G r = = r e 9 u u ; - V B r B L 6.4.n.n.n.L u e e ; = e C 6.n.9XJXMXNXF.G.G.F.jXMXZXcXF.v.Z.Z.b.1.8.X.Z G 5.W.X.Z ,.XX&XD.;X9X9XbXMX",
"3.C e 9 e t C T } } $.] [ T T T W ] $.4.3.l.W.n.#X9XjXMXKXNXG.F.F.A.A.#XS.B.k.x.x.L.!.W.x.(.W.] S L.).$.E E ] !.%X>XN.B.(.+Xx.<.o.3.5.3.%.R C r ; ; r 9 9 e r , e $.Q.{ B ..n.x.n.).Q.5.5.b.6.,.Z r J (.Q.N.N.v.8.>...>.2.v.A.F.-XB.1.1.>.1.b.XX5.' L b.oXf.>.n.(.1...b.0XSXJXGX",
"+.p 9 t g s C T $.$.{ T 3.3.] C S f G X.x.<...<.B.Z.-XGXJXjXF.MXVXF.A.A.v.1.k.x.l.l.%. . .T C p C $.} T I I +.!.CXtX&XN.+X@Xx...K K G G T ' G u , e s e 9 - , r B ,.Q.n.1.1.n.5.5.k.W.Q.Q.k.l.*X>X1.J n.OX3.<.5.,.>.b.S.-X-XD.D.Z.,.J [ 5.Q.Q.n.k.,.1.B.S.S.oX+X%X5.G ..#XVXJXcX",
"f g t e p S T D } 6.{ ' 4.L.L.$.f p { n.%XN.5.X.2.n.N.zXjXA.0XMXMXjXjX0X#XN.N.n.o.%.R R +.T s p r u t p j Y @.g.&XQ.5.[ 3.k...V u u u Z { { { J J ' T s - - r r G b.n.B.Z.XX&Xk.5.k.n.3.' G R g.%XQ.[ T %.%.$.h.M.M.%XrXxXkX1XoXn.X...3.<.b.S.N.1.7.#XyX9X9XkXxXxX@X| | M.&X&XN.",
"s C p e f W E } } $.{  .P.*X].%.S { OXkXlXkXrXm.H ' M.oXZ.-XkXNXjXjXSXmXyX%Xn.2. .3.3.$.&.*.4.N.Z.J 9 t v ( %.g.X.G C s ' X.' Z Z G  .6.,.,.,.6.6.6.T e r Z { n.yXqXXXb.Q.OXN.Q.Q.6.$.G e , , i A L 9.{ V R  .$.%.l.).%X%X+XM.k.x.n.b.B.D.NXMXNXS.D.9XVXVX9X$X9XbX8Xf.R X.| ..3.",
"S S t e g S S W W ] T S &.*XOXX.] @XxXDXJXmXVXS.u B <.M.oX0XkXkX$X8XcXmXlXoX..K ] l.OXQ.4.6.XXBXVXQ.9 0 E 4.!.OX%.C e s E $.G s G G  .W.n.8.5.Q.8.{ V u V { 8.=XCXlX5.X.6.,.n.OXOX3.' G 3.%Xv.2 0.A.7.[ F d l l U %.l.l.3.%.O.$.g.k.N.yXvXKXIXKXjXF.:XrXuX$XB.S.kXS.| R  . .3.~.",
",.T s e t j f g g j p p ] L.4.G o.qXVXJXJXcXD.m.H J <.P.).$X8X%X(.S.8XVXlXn.G H ] 4.P.3.,.,.Q.CXlX8.9 9 S $.XX>X!.] f S E E C F T s F L.=XOXQ.W.$.e y  .] T { X.B.5.6.,.X.' X.).3.' ' K N.JXIXIXIXZX7.B ' R l w y | h.%.F d T ] @.3.W.%XkXJXPXGXjX-X-X$X(.~.(.%XBXS.G | %. .W.5X",
"XXX.s e 9 t 9 9 0 a j t p g p g d <.yXDXBXS.K K E ] 4.&.l.(.M.L.M.(.%XtX%Xk.K F ]  .X.' X.[ [ X.[ u 9 e p S { 6.$.T S I T I I E I s C $.L.OXQ.,.s , 9  .q.6.,.{ 9.8.W.] d s [ !.$.V ' [ J #XLXUXUXMX:.< n.yXn.' ..l.W.O.y q l E T 3.W.+X9X9XjXNX8X#X$X(.x.x.(.yXBXB.H ' E T W.tX",
"Q.,.V e 9 e e t p v *.W t 7 8 p p f X.(.W.' F E ~ +.+.&.l.g.%.l.M.(.(.OXM.3. .l T  .] ] X.$.$.T s e e 9 8 0 p j T W W E ] T T T I I E T G X.X.Z e 9 y T q.=XOX5.[ 5.n.T r ; s 4.f e G ] u u f.0XS.K y y +XBX8XS.oX%X@Xg.F U @. .U t.).&XS.D.9XcX9XoX(.W.z.j.x.oX+XB.K G ~ O.M.rX",
"T Z t t g g 9 t T L.L.T p a W Y E W Y I U U U @.*.&.@.&.r.| O.@.l.W.W.l.o.| F d y U O.' ' ,.' G q 5 8 8 8 8 0 w I $.&.4.4.$.T I I +.C 9 e e e t C ] 4.6.6.L.!.6.X.{ ] T e r e 6 ; e ' T s s l v g a a z x.CXDXNXMXvX;XN.(.@X`.Q.%.t.~.OXN.$XzXzX;XN.M.h.J.h.%.g.oX;XN.,.6.5.Q.1X",
", 9 s s g p t s q.[.q.f g Y +.&.p.J.+.E  .~ Y @.p.&.%.%.h.g.%.O.3.3.k.3. .' ' G d T X.X.X.Q.Q.X.e - , 8 0 8 w W +.*.*.&.&.] I S } ] C C C 9 9 s  .!.*Xl.R ] X.T ' { T 6.Q.8.Z ; ; s 6.$.C T %.&.&.~ I a G &XVXDXJXcX-X$XwXwXqX%Xx.%.g.k.M.wXVX0X+XM.X.E ~ @.t.J.4XaXyXQ.k.Q.XX(.",
"u C C s t t t C } L.*.Y v Y %.).Y.P.g. .U z w U @.&.z.x.g.g.%.X.+.O.%.%.%.%.4.6.,.3.3.3.,.OXyXn.9.L H ^ ~ Y j W *.W j v v I f S T { 6.).4.r u ' 5.).&Xk.H d ] l.l.X.u J N.n.J Z i V q.!.$.T O.J.=.*. .d p X.qXVXkX$XS.$X+X$XwX+Xx.o.<.k.m.%XrX1XM.h.E v Y ) t.J.!.).(.z.l.W.W.M.",
"{ 6.S e 9 e 9 p E } *.*.Y U P.6X<XM.3.^ z q 8 l @.~.qX(.g.%.O. .+.O.%.%.%.l.OX&XoXN.k.3.<.N.&XXXXX%XqXyXOX4.T E E j 0 0 w p 9 p } ).yX4X5.u B 2.Z.:X#X2.V u ] >X6Xn.u r N B Z { G Z } } T T ] %.&.+.$. .E 3.%X1X+XS.(.%XyXxXuXV.<.<.S.;X$XoX+X(.z.h.@.) _ #.#.t.#.@. .O.t.h.h.z.",
"} q.] e 9 9 9 8 q v =.=.E +.].3X+X(.l.%.Y w g  .~.wXxX$Xx.o. .O.6.X.3.g.k.oXtXlX%XQ.5.3.<.5.N.oX%X%X>XtX>X!.+.Y W S j a p 9 5 9 E !.OX5.B < 9.Z.jXAX:X2.Z C { 5.XX6.V - ; = r s Z s y e e e T #.%.E *.4.l.).%XQ.B.oXoX$XlXVXyXN.>.S.VXDXcX#XB.C.P.h.t.#.#.#.#.p.e.@.) t.K.K.R.'.",
"E +.W C C [ T e p I *.} ] %.P.4.h.P.).I.+.U @.~.<XBXnX1Xx.o.@.@.M.W.OX@X~.(.%X&XoXn.k.k.<.5.Q.%XQ.k.b.M.!.L.*.E W W Q } S p e t p s u r r Z B.AXGXNXD.2.{ ] { H J Z e - - - 9 e Z V 9 , u T +.#.O.%.&.L.M.(.W.x.n.+X1X-X9XyXN.<.>.1XDXmX0XS.N.M.x.r.@.~ ) t.R.T.y.e.t.I.^.^.}.`.",
"f j g T n.aX>X6.F I E Q } +.%.%.@.&.P.P.%.3.^.*X1X1XqX5X~.X.o.j.M.).7X`.o.R g.W.l.l.x.M.k.n.Q.(.3.G H ' 4.&.E I E E E +.W S S S S 7 7 e B [ &XVXlXA.:.L J J B < u u e 9 e e e e s T d d { 4.h.%.@.%.4.W.l.n.k.X.k.+XzXrXS.k.f.o.<.(.$XS.m.m.N.M.l.r.~ U #.K.[.R.t.) t.^.^.^./.~.",
"7 9 t S Q.CXyX8.T W W W E ]  .$. .O.%.%.g.!.*X`.M.W.*X3XM.x.z.P.`.4X@X%.y 9 E 4.4.l.g.k.M.N.(.M.[ r < V } } S f f W W I S W } } s 5 7 C Z [ B.,X7.7.:.A A N : < u V C s V C s 9 p ' { [ 5.W.L. .%.h.l.x.l.l.<.<.k.S.9X0Xv.[ <.g.k.g.<.<.f.x.(.(.l.@.U z @.U.U.) ~ ( e.Y./.Y.j.j.",
"5 8 8 e Z ,.{ C C T Y Y Y Y E ] +.+.%.3.x.`.@XW.5.h.Y.^.(.+X(.~.@XeX(.R q q v ) h.l.3.3.M.Q.oXoX,.i , s T C 9 8 z 6.%.T C C f Z t 7 7 f D { [ :.1.F.jXD.:.A A A P H B N Z T s 7 s +.q.4.L.L.+.+.$.3.l.M.M.Q.(.%X(.B.S.Z.L B <.m._.oXm.k.g.%.~.(.n.3. .E h.L.J.E l b e.K.Y.Y.'.}.",
"7 8 w 8 e s d f U R E ] } ] E R R ' k.`.@X`.W.g.h.h.z.z.(.+X+X_.+X).P.r.~ ~ O.r.I.P.l.x.W.(.%XqXW.H V { T V e 9 %.yX].$.T g t t 7 9 8 t C C Z [ &XVXJXZXMXZXMXF.7.L B r u V t 9 e T X.C T $. . . .3.W.@X(.(.oX%XN.S.#XZ.>.>.M.+X$X%X$Xm.g.k.(.+Xn.<.z.~.).).z.X.I v ~ %.Y.].<XeX",
"C S I T  .$.$.$.E E T R ] ] 6.l.X.H 3.@X4XW.l.h.j.W.Q.+X%X+X%X+X(.l.h.K.Y.^.Y.z.!.~.P.z.z.M.+XyXM.[ f.8XyXN...V Q.VXyXX.T I s 9 9 9 p s V s V G Q.lXLXLXIXUXIXAX0.0.2 r s V e 9 s G T B Z G ' X.3.3.W.1XoXV.m.1.7.D.-XZ.b.N.S.+X#XD.#XB.k.k.N.>X$Xb.oX@X@XqX%Xm.| o.g.x.(.<X1XnX",
"6.X.[ 5.Q.Q.5.$.$.] T R E X.n.>X).L H <.P.z.l.P.P.W.%XtX4X%X4X%XW.z.z.~.<X4X%XC.~.).P.h.g.l.W.+X&XoX;XBXVXCX&X,.b.>XXX' Z C C 9 9 g I ] { C e y  .N.:XJXIXUXIXhXA A < : e r r r u J b.Q.,.Z ,.).l.3.M.4X1X1XB.L :.7.7.G.A.v.2.B.N.$XyX%Xm.<.k.@XyX+XN.oX+XqXrX$XM.+X1X%X8X1X+X8X",
"!.n.n.OX>XoXk.3.] C V G ' ' b.aX).X.V R %.!.W.OX+XoX%XqX+X_./.j.P.'.`.1XzXbXxX+XM.(.z.r.%.%.x._.tXqXyXrXyXyXn.J J 9.L Z u e e 9 e F ] 5.OXQ.H i F G 2.A.jXMXJXG.A :.A N r r r r r Z OXyX8.Z X.OXQ.5.m.4XqX%XV.v.D.NXhXF.F.A.2.L v.$XrX;XN.>.X.<.x.x.,.b.oXoX$X$X%XwXBXDXVX8XM.(.",
"W.).>XyX>XoXn.x.' ' H u V ' 3.l.3.] ] +.%.h.(.eXyX%X(.M.M.x.%.~ J.`.<XrXbXmXmX-XB.b.g.r.r.@.r.'.%X).M.k.f.>.V u f ,.k.o.' C e 9 s G ,.Q.qX>X,.d l s C { 9.8.7.:.A ,.9.B r < r r r r 9.!.6.G { 6.l.3.x.5XwX+XB.oXJXLXJXMXcXD.m.>.v.2XkX8XS.b.m.M.3.3.6.b.(.(.V.B.V.2XmXJXbX+Xm._.",
"3.x.Q.>X&Xn.B.oXqX%Xk.H F T ' X. .T $.&.t.o.z.@X4X+XC.M.(.M.%.%.j.~.+X1XzXmXJXJXjXB.<.o.@.@.^ | R T F ' z...d p @.=XqXx.3.b.5.H G X.k.m.N.5.V y f I T $.,.>.1.8.[ { G r r r r r r r B { [ G F G T R 3.).<X+XoXwXVXVXcXkX0XS.S.S.-XzX9XD.S.$X%X+Xx.3.l.n.k.M.(.k.5.N.;XrX$XC.C.+X",
"g.....W.).5.8.oXlXBX%X.. . .T C F F h.^.h.g.g.z.(.(.C.(.+X+XW.l.j.P.(.C._.0XJXLXJX9Xb.X.E U l y i d O.I.3XX.H F h.tXyXS.oXyXlXQ.X.1.m.m.k.[ u 9 g f S $.k.OX>XXX[ Z Z Z e u Z Z Z B Z Z V u , , 7 d R g.M.C.V.1X$XS.V.V.+XS.9XlXlXkX0XS.+XS.XXQ.k.5.Q.n.<.o.g.x.n.n.B.m.f.C._.oX",
"Q.W.X...X.X.,.b.1X1Xm...k.Q.l.' C T g.7X`.M.3.3.o.g.M.%XlXqXQ.x.3.3.!.~.C.S.zXJXDX0Xx.O.' ] T 0 8 E l.].4.$.F U h.%X#XoX;XvXVX8Xf.N.$X;X&X,.u q p t a E 6.=X=X8.{ { D Z ] 4.4.6.6.,.J V u e = r 4.l.<.g.x.c.`.~.c.g...X.k.wXVXDXvX9X8X#XS.C.M.x.<.o.n.@X<.H o.Y.oX1X1X8XyXxXtXS.",
"OXOX3.J H ' <.k.m.(.k.L W.*X@Xx. . .z.eXeXoXM.l.^ | n.qXtX&Xx.O.^ r.z.~.c.V.0XvX0X+Xf.o.' R U p q  .*X). .d E a.I.M.m.V.8XkX9X$XS.1XrXyXOXX.p 9 s t g T { 4.$.R R C u C $.L.!.XX).L.6.n.l.G r X.aXVXyXV.V.S.%X+X1.' G V ..+XzXkX9XkXkX8XS.M.k.k.x.3.<.x.| H ^ P.4XeXxXxXBXFXxX$X",
"W.l.X.1.n.b.b.+XlXtXm.H o.g.!.^.g.O.~.qXtX;X%Xx.K ' <.k.g.| K ' | W.3X@X@X@X1X+X+X%XoXk.R U E F y x.aX@XV y | ^.3XP.k.oX8X+Xb.Z.S.%X5XW.G e 7 5 t W S C t 9 9 7 , - = 9 s E +.4.&.L.OXaX>X4.G ~.VXDX9XS.D.lXkXB.J i V u H >.B.oXV.0XmXlX#Xb.5.n.3.x.M.m.o.H F @.z.(.4X1X1X1XM.1.",
"X.' [ %XVX9XN.;XJXJXoXP R %.&.J.z.%.z.+X$X8X1Xo.K ' G e , 9 y R X.).eX1X+X@X_.M.S.8XqXM. .U ^ T F Q.VXqXH i | h.).&.%.&X8Xm.g.B.#XB.<.d - - - - 8 W f t 5 - - ; : * # * , g I T I ] !.=X).X.d h.oXQ.b.oXqXxX>X1.Z u H G K 2.b.m.>.D.mXvX#X1.<.k.b.$XkX9XoXV e F U ^ o.| o.x.r.O.",
"<.K >.;XvX-Xb.&XVXJX8X>.X.l.l.P.(.W.z.(.+X8X%Xk.| ' ' V 9 q a U  .h.`.(.V._.+X+XoXoXoXk.X.^ U I F n.VXvXB...3.4.L y F oX9X(.M.n.$XoX[ , - - 5 e f C e - - 9 e s e ; ; - 9 s T I I +.$.4.$.T f g y d O.W.W.z.X.J ' d H <.n.Z.Z.b.1.A.jXkXB.[ ,.b.;XvXDXVX%XK e q 0 g w q F %.J.y.",
"OXb.8.D.D.Z.b.B.+X8X%XM.W.Q.(.*X*Xz.l.(.1XwXyX%Xk...X.R w w v E ~  .r.x.(.1XnXvXrXV.k.X.] E I U i <.VXJXjXD.m.k.V , d (.qX%XOX&X@XOX[ e e u s C Z u r C T G G { T { 6.6.,.X.O. .+.$.] ] E U I l e 8 y R H 9 , ..3.F ' (.;XZ.B.Z.-X:X9XD.b...1.oXkXBXvXkXb.H y 9 7 a n ( %.3.g.%.",
";X>X+XA.-X;XN...X.<.l.l.W.~.@X*X^.g.z.@XwXuXCX%X3.' R T g f T %.g.%.%.%.l.1XVXVXxXN.3.%. .E I v y o.BXLXGXjXD.N.3.d | ).OXn.<.X.3.%.T C S { ] I C Z X.OXoX>.J L 6.OXyX>X>XQ.l.%.E +.$.$.+.] I I T f d e r , i x.Q.o.X.m.oXZ.A.D.NXvX:XZ.N.b.n.n.m.b.7.2.2 , < V ' ' E &.4.$.4.J.",
"n.OXoX-XvXCXn.J H | 3.W.l.%.r.@.n ~ l.+X@X4XOX1.F p p y p T %.).~.X.X.E U g.%XqX+X3.X.&.*.E l p 9 H xXPXIXMX-X$X).G G +.T d s g d s s C ] } T s 9 T %XVXlXb.J H  .).(.n.b.<.o.^ ( +.] L.4.E g I ~ I d e s X.z.`.%Xn.<...f.V.#X:XmXNXA.A.oXB.n.8...>.1.:.A P v.S.#X1.J ] $.*.t.t.",
"4.Q.b.B.%XoX..H  .g.(.4X~.R d 8 g E l.Q.Q.l. .f q 9 q f  .X.l.*X@Xo.H l 9 p U E R E  .h.J.@.l 8 - , z.LXLX:XN.#XQ.u = = = ; - 7 7 9 s C S T C 9 5 Z &XJXVXD.J V Z 6.5.6.] ] O.^ ^ %.l.!.L.X.I C Y  .X.>.2.m.oX+X+XoXg...<.B.-XjXNX-Xv.1.v.8.>.L K <.N.A.jXMXJXJXMXG.V I ( +.o.+X",
"X.6.3.3.3.o.' X.6.).eXeXOXX.C C E ] $.3.$.' C f f I I +.%.3.~.6X~.o.R z q 8 8 w l I T +.J.J.E q ; - F +XN.[ d ,.' r = * * * = - 7 9 t e e p 9 - ; ; ,.yXyXb.K u B ' $. . .$. .$.3.l.!.W.5.%. .T E l.N.&X-X8XyX#XS.S.N.f.2.S.cXMXjXB.2.2.v.B.2.H V K b.D.mXLXUXIXJXD.J G E 3.(.CX",
"E 4.L.4.+. .X.X.8.>XqXQ.1.[ { 3.$.] T F F F C S &.L.L.L.l.z.`.~.r.g.y.@.U g 8 8 g f I E &.J.$.f 7 , 9 y , = ; T 6.Z 9 , e B s N y y s e e 9 - 5 - - r Z { 6.5.H y C ] } } ] $.g.k.5.5.l.5.<.3.3.b.;XkXlXVXVXxX9XS.S.S.S.#XkXmXNX:XA.v.v.-XD.2.>.v.v.v.v.2XJXIXIXVXA.L ..3.~.CXJX",
"E &.J.&.+.o.3.8.Z.#X2.A N Z ,.$.X.T d f C C S T 3.L.h.4.3.g.z.g.O.h.~.I.O.T f d p f I T E *.&.E I s f f 7 = - 6.>XW.' ' W.!.6.{ C T T { { e = ; Z J : * r { ,.Z u s C T E ' X.6.6.T X.3.k.k.n.+X;XlXVXvX:X$XS.m.B.S.$X9XmXJXmXjXF.A.F.9XD.v.A.cXKXMXG.v.v.0XmXDX8X7.>.<.l.(.rXkX",
"E *.+.+.%.l.S.kXVXD.A 1 B [ 6.X.J B s T ] I C C ] $.$.+.&.*. .^ @.%.J.g.' X.X.X.] ' f f f E &.&.] R T T e - , 3.aX>XB.B.&XXX3.] [ { [ [ 9.B ; - 9.!.B * * : r 6 < N r r G R { 3.[ T 3.).M.1.oX>X;XzXyXZ.......<.N.Z.Z.D.cXmXcXjXD.D.:X;XA.7.F.IXUXHXhXD.v.2.1.B.S.B.,.X.%.z.N.A.",
"W Y I  .P.+XyXDXVXD.B B 2.n.8.[ B B Z { { ' C s f l U E ~ ~ ~ ! ~ ~ ^ F T X.<.k.W.l.C d F I %.T.b.X.l a 8 - e { 5.n.k.1.5.3.X.[ ,.5.b.XXB.B = - Z 6.J < * * = 6 XXQ.r ; u u R E { X.Q.=X5.[ OXoXm.k.>.B < u 3.Q.n.n.v.Z.0XcXlX:X0X9XjX:XA.G.NXIXUXHXNXjXF.v.v.N.0X%Xm.X.%.l.(.+X",
"( ( ( @.).qXxXVX9Xb.P 2.%X>XN.L u G T T T T G G u 9 i R O.O.%.g.h.o.R l R | ' ,.N.M.T F Y I +.Y.=X4.v q 7 9  .l.T ' X. .] { ' ' XXyXtX>X8.N ; ; e Z u r : = = B AX:Xr , 9 e G C [ 5.=X5.J [ k.5.K H V r 9 H (.%Xb.B.b.v.S.9XvXkXjXkXkX:XD.F.ZXUXUXGXjXjX9X8X$X#X9XD.N.<.o.<.(.@X",
"=.#.#.@.W.%XyX%X1.V H 3.Q.n.9.A V G G G T Z T 5.Q.k.H K m.Q.M.C.C.<.' F R ' K | N.Q.' f I I ~ @.^.I.v 7 7 T *XqXX.' X.X.$.$.$.3.n.n.2.9.J < ; - , r r < : : * B AX:XZ 9 9 9 e T 5.(.b.J B A <.k.,.L B V i | %X7.>.N.b.>.v.9XcXjXjXjX9XkXjXjXZXLXGXjX0X9X0X0X0XF.-X-X8X+Xk.2.M.(.",
"J.&.~ E  .%. .d 9 7 g E $.T Z Z C C V C G G <.>XFXVXoXm.9XrX+X8XcXS.H d R R ..[ 8.Q.T s I ^ ~  .&.#.v 7 p l.qX+Xl.<.<.o.$.4.l.X.{ T V u r 9 9 e 9 - r < ; * # N jX:X8.C e e V ' (.5...J J 2.-X0X5...L Z B <.>.A 9.%XN.[ 1.S.#XS.D.jXjX9X9XD.A.v.v.A.0X0X9X0X9XjXjXMXmXjX2Xm.V._.",
"P.4.U v ] +.9 - - 7 Y ( @.] C F G V d F R X.Q.eXFXVXoXoXVXvX$XxXnXm.H F R o.X...1.,.V V R O.R R F l p 8 ] Q.%X+XN.m.k.3.$.] ] T C Z u , ; 6 Z } u ; = ; = * * : &X>X6.V C G X.5.1.,.,.,.B.jXJXMXB.>.K V J 5.b.>.L 1.m.1.1.B.Z.7.A.-XF.D.v.2.2.v.S.-XjXjX9X:X9XlXJXmXjXcXlXS.oXqX",
"^.4.E v } J.I g d U ~ @.@.I I I R T T E O.l.(.=X+XXX1.oXDXcXS.;XM.K V H | k.3.,.,.X.J K 3.l.' V F F d F n.N.;X-XD.Z.oXW.6.Z u 9 e r r ; * : D 4.J r ; * * = ; r Z V r 9 ' M.@XQ.<.3.3.n.Z.:XmXNXA.>.H V ,.N.8XS.2.[ 1.m.N.#XB.2.A.cXjXD.A.B.m.B.$X0XNXMXMXjXA.D.cX0XF.cXkXB.B.#X",
"^.!.+.a &.I.J.h.l.%.@.~ E ~ E +.E ~  .@.h.^.).).x.5.,.+XbX2X2.L u 9 i F | X.X.X.3.5.,.3.x.k.,.,.<.g...1.-XjXMXMXjX7.1.5.3.C 9 - - - ; ; % * Z 6.n.B.2.B : ; , e 5 ; * - X.=XaX&Xk.k.3.g.x.N.:XF.B.>.H K 3.N.8XzX#X2.<.k.N.#XB.9.D.JXJXjXcXvX-XZ.2XzXNXGXJXF.A :.-X$XZ.-X-XN.B.b.",
"h.P. .q T $.P.^.l.4.+.Y Y Y E U E ~ &.L.P.^.^.z.P.z.l.~.(.>.H V d p f T  . .X.X.5.k...<.n.n.n.n.B.B.b.A.vXLXLXKXlX:.B G G u 7 5 - ; ; * # * J W.;XlXlXXXJ , , r r 6 - , d L.=X).k.3.3.X.g.(.oXN.m.1.<.3.X...oXlX%X5.2.k.n.m.1.>.A.mXmXNXcXvX-XS.-XNXZXKXKXG.2 P D.lX-Xv.7.N.N.<.",
"o.X.T e e T l.).h.+.E Y Y Y Y l v Y %.J.P.^.^.P.z.P.^.W.o.| R E U U v I ] +.X.| ,.k...>.5.b.N.$X&XS.B.b.8XMXJXmX#XB e s d e 9 9 e N e e ; r ,.Q.9XAXMXlXv.< ; , r s e 7 9 f ] 3.l.l.3.X.g.(.%XXXM.m.OXW. .' Q.>XoXb.<.<.<...[ 1.D.9X:X:X9X-XB.Z.jXMXKXUXKXG.2 :.:XMX:X:.L B.N.X.",
"M.k.' V Z ' $.l.+.I I Y Y ( &.#.Y Y ~ +.t.J.h.K.j.j.^.~.g.%.+.E E E T R +.$. .T X.3.X.g.m.b.Z.9X9X-XN.k.b.5.k.L Z , e s C C s g G ,.W.4.C B 9.Z.jXjXjXAX-XA < e 9 e s p 7 - 9 d J.!.3.o.l.W.*XOXn.5.(.).g.X.n.oXB.n.3...K V J b.kX9XA.A.D.B.v.m.jXGXLXIXNXG.:.v.:X:X7.A B 1.n.%.",
"XXN.l.4.X.R $.&.R F v v v #.^.!.+.I U Y ( #.t.J.j.j.^.~.h.%.+.&.+.I F E @. .R T T X.%.x.m.N.-XvXmXkXB...' G u , , , p f C S T *.L.).=XQ.V u ..:XMXNXNXAX-XL N 9 - e C S t - ; y $.L.P.g.g.g.l.l.,...X.3.3.X.3.n.k.5.5.X.H V K Q.vXkXD.A.B.v.v.D.0XcXNXjXF.F.G.B.8X8X7.N i K | ' ",
",.5.W.L.[ { k.l.%.E E v f +.J.P.#.v v ! ) ( @.t.h.~._.(.P.%.3.x.h.T d l E R T U U O.l.~.%X8XjXMXmXkXv.>.X. .T F u y g F I T E &.P.!.n.J , B $XGXMXjXcXmXD.A r N r u T T p 9 y F &.I.!.h.o. .R F ' X. . .R R 3.l.3.<.k.k.f.1.2.S.>X-XB.D.D.A.-X-XD.v.B.A.D.:X-XD.jXzXS.P V F F F ",
"3.4.$.' ' l.OX).n.3.%.] E *.&.t.( v v / ( +.*.*.h.`.5X6X).P.~.(.).o.d d F T U U T R %.l.W.%XrXmXcX-Xm.B.M.M.x.g. .R T T T F F I ] X.G < ; P VXLXMXF.9XjXA.A Z Q.XXX.T R R E  .%.h.!.l.%.r.@.R ' 5.l.X.R d d $.L.3.5.n.Z.-X9X#XZ.Z.v.B.$X9XkX-X#XC.N.V.%X8XrXkX:X:XkX-X>.H G C F ",
"@.^ F F g.4X4X+XoX%X@X!.4.%.+.+.Y Y b b / ( *.&.P.*X3X3X^.P.).<X3Xl.F d l I I v g g l ~ h.@XuXSXzX-X$X8X1XM.<.X.$.4.4.3.R d p 8 y ' ..V < A jXJXNXA.D.A.7.A Z W.=XQ.3. .O.%.%.g.l.l.3.O. .O.g.W.Q.k.' F e 9 T 3.k.N.XX-X:XkXlX:XXX1.1.D.kXkXZ.v.b.n.N.$X#X#X$X$X:X9X&Xb.,.' T R ",
"] d q d h.@X(.(.%XtX=X3.] R Y E E ( b a n / #.J.^.~.%. .R T %.7X6X~. .I I v v v a w g z  .(.zXVXcXjX9XyXN.K u d F 4.).L.' d q 9 9 V 1.m.L B 7.:XjXZ.B.b.5.J V X.W.Q.x.3.g.z.M.k.n.3.h.@.U R M.>XoXn...K V G X.3.n.B.D.hXhX:X:X-XQ.1.>.Z.yX;Xb.b.Q.8.b.m.N.V.oX$X8X;XoXn.3.] R ] ",
"5...H K X.%.3.g.@X=X3.C s a v Y *.#.Y w w v ( p.j.@.a 9 q q T !.].!.&.E Y v v v Y Y b z l x.nXVXvXzXrXM.F y y f F  .n.5.' d f R X.Z A 5.B.:.A 1.Z.Z.m.m.M.X.H  .3.3.x.W.z.(.+X(.k.x.g.r.o.<.oXtXqXV.n.,.,.W.OXQ.Z.Z.jXMXjXG.2.7.n.b.1.b.+X+X5.<.X.X.3.3.x.M.(.+X%X(.n.5.3.X.E R ",
"oX>XOXk. . .%.@.h.%.d 9 q a f I #.J.&.v z v U ( ~ U g p q 8 q I &.L.J.&.( Y v v &.J.@.l F k.rXtXqX%XW.H 9 q U E E R $.6.X.G G 5.OXoXJ B 9.1.A H ,.b.1.k.z.x.X.T O.h.P.z.(.tXtXN.g.g.h.z.M.(.1XxXrX%X>XQ.5.Q.oXOX#X;XmXmXF.>.L ..b.n.k.k.5.n.k...K ,.3.6.3.x.(.(.M.x.<.o.l.L.$.T ",
"$XCXxX+Xg.+.^ U T T s s E +.I l *.L.!.l.z.t.O.$.r.%.E f 9 - - q E &.&.E Y Y v v J.].].z.z.`.@XoXl.X.R p 8 a E +.( U ] l.l.' ' Q.zXyX1.H Z L L ' [ ,.<.M.C.x.X.E  .%.h.g.).eX4XM.g.g.l.l.z.M.oXS.oXoX&X5.J ' ,.n.n.oX%XB.2.>.[ X.k.M.X.G B Z ,.k.Z.XX5.X.,.l.z.l.%.%.%.3.z.P.$.R ",
"yXxX8Xm.3.%.%.h.h.+.f f +.h. .U E l.=XaX6X(.W.OX*X!. .d e , - 9 a E E v v Y Y v %.^.6XdXsX6X(.5.K G C p a j a b Q W E J.l.K ..1XvXkXoXx.' J [ X.J ,.N.4XC.<.V l %.%.h.g.M.OXM.<.o.%.3.3.k.n.f.>.L >.5.X.G s V X.5.k.X.H H ..,.,.o.3...V V G [ Q.tX>Xb.X.X.3.$.+.+.%.%.g.z.l.$.] ",
"CXwXC.o.^ X.W.=X7X!.F p +.P.P.+.' 3.qXtX%XQ.n.).).h.T s 9 - 7 8 T I.4.v a v v v I $.P.^.^./.3.,.E R I I I j j a n / @.@.| <.N.>XyXB.L X.l.X.{ F i K oXtX%X..y y H H 3.W.V.m.f...V V H L >.b.<.o.X...[ X.R z l H X.3.3.3.,.>.,.<.X.<.<.' ,.n.b.#XQ.k...' %.$.R I ]  .%.h.).L.X.[ ",
"BX4Xm.<. . .l.!.P.$.d e  .!.^.4. .g.).&XM.%.R E ~ v l d f e q q  .[.&.I q 9 q g p q g U l ^ R G T E I Y ( n n n n ~ &.o.k.(.m.Q.n.<.H R %.] V , r V k.tXBXf.V 2.m.m.N.$XrX8X+X2.B B P >.v.#XoXn.k.5.5.3.%.O. .H G ,.n.8.1.1.8.2.,.1.5.b.oXQ.m...H V G ' P.+.T R E +.+.h.*X=XQ.n.",
"uX+XM.m.<.' T C d s y e  .^.].W.h.h.l.~.l.^ a q w b @.$.R  .+.~  .+.T d V V H H H F d d ~ U F d C I E Y b n Y Y Q *.L.Q.oXOXx.X.T d s E $.+.R u r u <.&XtX%X+XkXcXbXcXkXjX9XkXN...2.#X8XkXVXzXN.b.B.S.B.M.l.g.| C 6.Q.8.,.B.B.9.[ n.n.oX;Xb.1.H H d V X.l.X.F T E +. .3.n.Q.n.W.",
"$XN.n.M.o.H s y s C F d  .P.^.^.^.P.P.*X^.h. .U Y ) h.qX*Xl.4.[.h.U l k.%XqX#X1X2Xf.L J 3.k.(.m.| ' %. .W Y Y W Y #.!.7XQ.X. .F s 9 8 f ] +.3.6.,.T 3.Q.%XrXvXVXzXbXmXmXNXcXbXS.P b.tXxXkXtX8Xb.b.S.Z.b.m.x.x.3.O.3.x.b.5.b.5.J Z 5.B.&X;Xn.>.[ X.R G X.X.' V s I  .X.3.6.5.....",
"V.n.k.<.K d s C T ' F F  .h.h.h.h.y.P.*X`.(.W.I.P.y.z.tXBX).$.I.P.v T eXJXDXNXJXJXmXF.7.>.#XlXVX+Xb.oXl.I v v v / #.t.J.&. .I g 9 7 0 p f $.).N.x.x.n.x.(.tXrXS.>.1.-XVXVXVXzXB.H ..(.OXb.2.>...#X0XA.v.b.k.g.x.x.k.k.1.K H J J B J ,.8.1.8.1.,.X.G J ,.k.[ Z u J ] 6.3.6.6.<.o.",
"$Xn.X.F d d C { ] T V R %.@. .@. .~ h.*X@X).@X4X`.h.z.OX*X4.] ( *.l R %XvXcXGXHXKXKXGXG.:.A.VXVXkXlXlX6.e w n n Q ` Y a a ~ E I g p g f R 3.).+X~.Q.N.x.g.N.5.H i r K %XxXxX%XV.' ' X.X.Z B P 2.9XvX2Xv.B.1.k.m.N.+X#Xv.L B A J < N L A B K n.Q.6.Z ' 5.n.1.2.9.,.6.5.X.3.M.(.(.",
"qX2.V e y C ' ,.[ G V R R f l ~  .~ @.Y.^.~.(.3X'.x.~.Y.@.~ ~ ! +.~ ^ Q.#XjXMXZXKXUXUXZXG.v.Z.S.;XVXqXV 9 0 w a Q ( a 8 9 E h. .E R E F T l.4X_.x.M.Q.x.o.X.' y y 9 V ..1.1.m.(.g.' T T <.+XyXkXjXmXzXS.v.1.b.N.+X$X9X9XZ.2.L B < B 8.2.L A [ l.5.{ 3.W.n.oXyX:X7.N.OX3.,.Q.=XeX",
"k.V < y d F G { G C Z C y 9 C  .4.t.e.h.P.~.(.`.~.z.~.[.K.&.@.e.t.a.&.Q.tXvXNXZXHXIXUXKXjXv.2.,.b.b.G 7 8 w j j ~ #.W 9 9 R h.P.$.]  .R  .n.4X@XM.(.`.(.x.o.O.E O.R  .| ' K <.3.$.E R X.(.VXLXKXGXmXcXD.2.1.m.B.V.S.9XkX;XB.>.B < B XX>XZ.L r N Z G 3.n.n.yXJXmXD.N.k.H G m.oX+X",
"F F d s f F s d u s u u e e F O.].].t.~ h.^.7X].R.j.'./.K.y.t.P.^.h.g.@XxXvXcXNXGXIXIXZXNXF.v...L F q w n Y W v +.&.$.] T 3.).).3.X.] T X.W.=X(.M._.@X~.x.h.P.Y.h.X.x.@XoX<.X. .G T X.k.#XcXvXcXcXmXcXB.>.v.D.D.D.Z.B.b.m.B.2.B : < Z.lX#XL < ; ; s G  .W.zXVXvX-X2.r ; y X.g.5.",
"l  .$.F d d d u y y u Z T C F %.^.I.%.O.h.`.6X`.j.j.j.@.@.t.P.3X*Xg.O.W.;XkXcXMXGXHXNXNXGXMXF.7.[ G U b b b n b E *.4.P.P.P.).W.3.l.l.]  .P.).M.M.(.(.x.g.g.~.^.k.N.qXCXkXB.>.H V ..N.%X$XZ.v.b.S.8XD.1.1.S.8X8XS.N.>.A :.S.#X2.< 1 2.XX9.r ; 9 7 , q U l.qXvX-X>.N , - 9 f $.].",
"l F  .X.K H i < 9 i ' 6.[ T ] 4.4.%.O.h.~.3X3X(.z.y.@.! ) h.(.eX=XP.%.o.n.8XmXJXKXHXZXZXHXZXAXA.X.] v n n n Y ! Y Y *.&.4.+.F C ' 3.L.$.O.h.P.z.M.k.x.M.l.X.X.%.' n.yXVXkX8.H d K k.&X>X%Xb.>...m.S.v.2.m.+X2X0X$XV.<...v.:XlXA.i < A L N = - V T f d T X.Q.;XN.H r e 9 9 y ] OX",
", r V ] W.k.< 1 H <.Q.n.X.$.4.h.&.%.r.Y.3X4X@X_.P.%.) ) %.+XuXyX(.g.~ O.k.oXlXJXIXHXHXGXNXAXkX#X6.E v c n M b Q v v v U l 9 - 9 e y C F R X.X.g.M.3.k.x...i r V F ' ,.n.8.[ V f &.).&XZ.B.V.V.V.$XcXcX$Xm.B.$X9XjX9X$XS.Z.Z.B.L < : < < : < V X.l.5.3.,.,.b.oXn.H u J T p q T Q.",
"B B H ,.+XoX..L m.1X>Xk.X.l.^.P.t.#.e.K./.`.~.Y.I.t.@.x.C.tXDXlXb.H F %.n.+X8XjXMXJXJX9Xv.D.kX-Xk.R l v n M Q Y Q n w a q 9 d y 9 9 e s C V V ' 3.k.k.,.H u V G G Z B Z Z Z Z X.x.N.B.1.1.m.$XyXMXGXJXvXD.Z.-X9XkXvXkXyXS.J : % = = r B r L k.8.8.B.N.m.5.5.N.8.V r y V C C T  .",
"lXZ...1.B.S.$X+X8XrX%Xk.X.%.P.j.t.@.~ ) t.t.h.t.t.t.j.`.qXtXBXyX2.K | x.Q.Q.B.b.Z.-XA.:.:.Z.yXkXm.| F b n n / Q Q Y a l I E 4.] ] T T ' G Z Z [ l.Q.b.,.K G [ [ [ G V V V L ..5.v.B.A.v.2.f.D.9XNXMXJXkXS.D.-XN.f.f.v.D.m.N % % * < G ..K X.k.n.oX9XrX$Xb.>.K J r ; - , u Z T l ",
"DX8XK ..k.+X8X0XwX+XM.l.%.%.j.y.J.@.~ ~ O.@.@.@.e.K.~.`.~.m.M.M.m.<.x.8XlXXXJ V G G B r K oXyX9X$X<.| E U Y U Y I Y +.t.h.l.W.W.W.l.6.X.X.,.3.X.5.Q.Q.k.' ' X.X.G ..' V u K >.1.F.kXvX:Xv.v.D.F.F.F.D.A.D.D.A.2.B P >.m.v.K r 1 < J 3.b.,...<.Q.rXVXVX8Xm.:.P J B B B N B s e 9 ",
"kX$Xm.C.+XwXwX2X$XN.l.%.+.@.t.K.Y.K.t.K.T.y.@.t.K.h.P.h.| F | W.%X(.1XVXVX8.r 9 9 e r V 3.b.b.S.$Xm.X. .@.^ l l I +.J.P.4.l.k.6.<.5.3.X.X.3.3.K X.OX%XQ.X.X.6.X.X.X.' G J >.[ >.jXJXJXcX:XF.jXF.F.D.D.D.-XA.7.2.f.V.#X#XD.#Xb.,.,.W.>X>XXXB.b.oX8XkXjXB.2.v.B.Z.G.:XNXA.:.B : = ",
"N.$XxXDXDXcXrXrXwXc.O.^ ! ) e.K.R.R.Y.|.].P.j.K.c.z.h.%.l g o.5XbXkX;XyX;XL i q j Y  .%.M.B.#X-X9Xv.<.3.%.3.o.+.'  .h.g.| ' X.' ' ' X.] ' ' T G R W.OXW.3.%.3.6.X.X.,.1.-XF.7.:.hXmXMXNXjXjXMXMXAXjX:X:X:XA.v.v.:XmXJXjX#X>X=XoXoX%XyXlX&XN.oXM.Z.Z.B.7.v.D.NXNXZXKXIXNX:.B ; = ",
"n.8XBXDXDXzX8X8X`.o.y q z ! t.a.K.y.j.T.Y.P.Y.Y.^.M.l.h.U H ~.sXVXZ.P K X.T F U E +.J.~.x.V.xXDXmXD.<.x.j.W.^.!.O.R X.%. .R G G G T R E ] ] X.] ' X.6.,.3.X. .'  .3.5.Z.VXVXG.7.F.jXF.:X9XjXvXDXMXjX-X-X#XS.B.D.cXJXJXjXv.b.n.n.5.b.;XtXB.f.N.B.B.Z.#XZ.Z.kXmXMXZXHXKXF.1 : < , ",
"x.oXyX8X+XV.(.m.o.F q w v ! e.t.Y.j.%.%.@.y.P.~.~.W.W.).%.X.W.tX;X1.V p F T E ( f E h.~.M.8XVXJXmX-X..X.Y.*X).L. .E R  . .R F C C s C T T +.&.} T T ' X.L.3.| K | <.v.A.lXAXG.G.hXjXD.F.:XjXjXjXD.v.v.-X#XZ.D.-XjXDXmXF.>...' ' L [ 2.5...H J 7.b.Z.>X;X$X;X9XjXNXKXZXG.% * ; ; ",
"m.N.m.>.>.<.k.<.' F U ( ( ~ y.Y.<X`.h. .~ ! u.z.~.).).).g.| H o.n.' F T I S I Y T %.g.x.(.8X8X9XkXS.H F @.l.%. .E U T T ] ] R R F C e y T E E ( U U U &.).OXoX(.+XoXA.A.D.F.D.D.F.-XA.A.:XjXA.2.P P 7.;X9X-XD.v.Z.0XD.7.L L G G G B r r < < N :.2.8.B.b.>.:.1.v.F.MXmXA.= # = ; ",
"B.1.K K ,.b.m.m.M.M.^.^.h.g.(.<XiX<Xx. .^ ^ u.M.oX4X4XoXx.X.y p y g f I T F R &.P.!.W.(.=X4X+X(._.x.l F l F v f I T T R ' X.X.3.] [ G V R E l Y #.b a +.W.%X>X%X9XkXjXF.D.F.F.F.F.A.7.Z.jXcXA.A r < 7.0XmXmXA.>.1.:.B < B V V G G G A B B H >.1.,.L J L P P >.b.Z.-XjX,X: # * ; ",
"oX..F | 3.n.(.@X+XM.*XaX3XC.<XuXpX}.z.r.r.C.1XrXyX8X8XV.b...u s p p f R R T %.).!.%.x.OX@X).).P.Y.%.v Y n a w a I T T ' X.X.3.6.3.k.>X*Xl.U g n K./ z ~ 3.n.N.B.F.F.:XjXNXNXNXNXjXA.7.B.:XkXF.7.L 9.D.9XMXAXD.f.,.A < < r r B L X.5.1.7.7.1.5.6.K H >.b.1.1.1.8.K Z L { ; * * - ",
"X.X.o.%.g.5.M.`.oXk.g.M._.<XwXiX1X'.~.~._.rXVXVXvX$XS.B.8.[ u V l  . .^ ~  .l.*Xl.3.P.!.%.%.h.h.r.@.v Y ! b a n Y E R ' X.X.X.,.3.M.aXBX`.F q ! ( Y Y  . .>.b.$X9XS.v.A.NXZXZXNXjXD.m.f.N.;X;X9X;X;X;XS.A.A.v.1.1.J B J [ J H A ' 1.oX9X$Xb.>.A J 7.#XD.Z.N.7.L 1 * = ; ; ; ; - ",
"V K Q.>XoXn.Q.&Xn.X.F | `.iXuXpX1X(.~.(.1XcXDXJXjXZ.S.$XyXN.J G +.%.$.%.%.@.h.4.3.P.I.O.l l F  .O.@.b Y b b v Y v E E $.3.X.[ [  .3.&X@Xl.| v Y ~ ( ( +.X.b.#XvXkXv.:.7.jXKXKXNXhXD.Z.B.Z.A.8.B.B.b.b.f...A Z ..k.<...<.).M.' B V K #XlX;XN.2.:.B.9XjX:X9X$Xv.>.< = * ; 5 6 - 5 ",
"V ..W.@X(.(.3X`.l.X.K f.+XwXrXrX0XyX`.c.V.$X8X:XV.b.S.vXDXlXv.L %.%.3.4.&.%. .I E h.h.+.R R &.h.+.E F I ! U U U z U $.L.n.,.[ | 3.X.3.X.~ ( E ! E E R h.4X8X:XMXkXv...2.jXJXLXKXjXG.B.&XZ.9.B N B B [ 8.9.B V X.6.,.<.b.oXoXW.' Z Z b.(.Q.N.$XyXjXkXD.G.:X0XZ.9.r = = 6 9 7 5 e ",
"2.>.P B H ..x.x.M.k.N.wXrX8X-X#XD.0XrXoX<.<.5.1.1.b.rXDXJXkXb.' %.%.3.h.t.^ R ' R o.h.P.%.3.@XOXg.U z I J.I.%.F f E h.!.L.k.k.k.3.l.3.X.%.&.+.^ R F R I.*XN.Z.vXyXv...2.-XMXGXGX:Xv.m.$X7.B B [ 9.9.2.b.5.K J 9...J [ <.5.n.>XyX%XQ.n.,.[ 1.S.%X8X1XD.S.D.S.7.A = * * : e t 9 p ",
"kXB.2 % * : < K oXS.:XcXkX-XS.V.m.V.kXkXk.| G F <.oXxXDXBXB.K X.h.h.%.%.%.O.x.&X+X+X+X`.(.(.rXrXk.F z E ).qXQ.K y F %.L.L.W.Q.Q.~.M.X.R X.g.z.%.] F F F V B 1.rX;X7.L 1.D.cXjXF.B.2.f.oX>.< 2.yX;X#XN.n.8.7.v.D.A.7.L J 6.8.oXCXDXvXB.H u J b.n.k.m.$X$XZ.2.N : % % * ; s g 9 e ",
"DXv.1 % % % = J <.f.Z.jX9X;XS.v.<.x.9XcXV.X.G H l.M.@XyXm.K R t.`.P.t.@.~ %.OXtXCXyXeX4X@X4XxX8XQ.| H | W.tXyXb.d F R %.h.4.6.l.z.3.]  .%.g.z.l.T F F y , < >.qX;XZ.b.B.$XrX#X7.K J ..(.B.:.Z.lX9XZ.B.b.v.D.jXcXmX9X2.Z G J k.>XVXkXn.Z r Z n.S.B.Z.jXjXG.L N 2 : : = ; C I t p ",
"DXA.2 1 = = < >.S.S.D.-X-XS.v.1.m.-XNXMX8X<.H | &.%.g.g.O.R %.P.`.j.t.@.! ~ 3.(.=X).^.h.h.).4X$X(.x.z.M.m.+X=XW.H F X.P.h.] ] %.O.T C  .l.l.O.X.U d F T X.k.N.qXtXyX+XC.oXoXk.,.Z B >.%XqX#X&X#Xb.2.B.D.-XkXzXkXlX;X,.u u u ' 5.B.5.[ F u J XX8XZ.D.cXcXF.A.Z.B.8.J r 9 T ] p e ",
"SXrX2XS.L < A B.cXMXjX0X$Xm.>.2.0XmXMXNX9Xm.H R +.t.@.@.y.~ %.^.`.j.r.@.) ! v ~ @.~ n w v r.~.+X@XxXVXDX9XS.m.k.| R P.^.$.] ]  .T d f $.).W.] d q p  .I.7XeX+XoXoXM.x.x.m.<.[ G Z Z >.+XtX;XB.:.L 7.;X9X-XD.v.2.[ Z u r u ' 6.J B G R T G X.n.8.b.B.0XjXjXjXkX$XXX1.{ T { T e , ",
"uXxXbXkXm.B i 1.cXJXmXjXD.f...2.NXLXGXjXjX$Xo.F E ~ @.t.%.t.Y.7X|.^.P.J.K.t.^ ~ ~ v a w a %.*XeX5XuXVXBX9XB.<.X.R R %. .d f R T C f ' 5.M.k.' g g l +.^.3X4X(.k.K K 3.l.<.G V u B Z L 2.N.2.A B B 1.;X&Xb.L < = = = ; e X.Q.6.J { $.T C G ,.,.,.1.m.V.S.:XjX-XA.b.5.,.>.1.N.J = ",
"<X5XxXyXb.i = V 9XJXJXmXD.f...m.MXJXMXjXjX0Xm.' U | $.X.&.h.h.P.P.P.~.).).).(.z.P.!.K.t.t.z.@X4X).x.M.n.<.X.$.$.] G d y , p T ] ] o.M.>X;Xb.' I Y ~ +.h.z.~.P.| F %.!.M.<.Z r i B B N 2 B B B r < A 1.8.8.5.J < ; = - B X.6.Z Z <.3.V u { [ { { 8.m.N.A.:X:XA.7.N.N.1.7.,XCXn.B ",
"c.<X<XC.f.i , J 9XJXDXcX2Xx.m.D.NXJXGXjX-XF.f.o.1.f.(.M.z.P.h. . .t.P.(.+XtXrXyX=X].|.*X3X).`.Y.) z a l F X.L.!.o.K H d F R ] %.l.%XvXJXkX1.F ^ ! ~ ( @.@.&.h. ...W.(.<.K u B <.W.b.J < < B B < < < B L b.XX8.A r < : Z { T u D 3.{ J [ 6.,.Z e X.k.Z.9XAXhXv.:.XX-XB.v.9XmX:X7.",
"z.C.f.m.M.P B b.kXzX9X8XV.M.$X9XMXKXMX-XA.B.v.n.+XqXtXqXk.'  .R U ^ O.z.4XBXeXqXW.%.r.^.].].~.~ p p w z  .!.*X4XoXm.m.x.3.%.%.%.Q.>XvXLXkX' d G R R  .%.&. . .T R %.o.H u < V W.qX%X>.B B J L B r r < N L n.8.N 2 : ; Z [ s r B { ,.8.OXqXQ.B , r 1.B.9XMXjXv.L Z.:XD.D.:XNXjXD.",
"x.(.+X0X8XV.m.#X1X$XS.V.m.m.S.zXJXJXjXZ.v.Z.#X$X=X%X#X+X..y y F U R | x.`.5X(...F g z %.^.^.h.! I v U ( t.!.=XCXvXxXtX+X5.<.3.3.W.Q.8XVX;XG u ,.b.n.3. . .R E T E O.' K H H [ Q.1X+Xv.1.b.N.n.A < < : = < B J N 1 N A L { r ; N Z D { 6.XX8.Z < J 7.v.D.9X-X7...7.D.D.D.hXNXcX9X",
"<XrXbXmXcXvXrX8X2X0X0XS.m.f.V.tXVXjXS.f.m.%X$XQ.(.m.B.m.K i 9 T l.W.~.~.(.(.k.H V q y  .4.P.&.y.#.#.&.t.%.o.k.+XjXBXlXoX1.6.5.b.k.3.n.+Xb.L 2.#XyXtX&XL d d E %.l.3.b.rXvX-X7.B.#XS.b.N.oX%XXXL 1 = = * : N A B 7.Z.8.[ Z < : r N 6 : N J { J L B.Z.A.7.7.9.A G K 1.7.Z.lXmXNXF.",
"wXxXmXvX9X0X0X8XrXbXFXrXm.[ m.wX%XM.g.3.W.).k.| K k.qX$X1.K H  .l.).4X%X1X1X(.M. .y f T +.&.h.t.t.r.h.!.~.<.K K 2.Q.oXk.1.b.Q.Q.l.X.' <.1.v.-XvXrXyXoXV r u ' g.n.N.;XvXDXmXS.7.b.N.m.1.2.B.Z.7.A 1 1 < B 2 N 9.8.9.B B N r r r A A < < N N L ,.b.Z.7.L L B r B F ..2.S.VXDX0XS.",
"V.8XxXcX$XV.$X2XuXuXwX(.k.o.r.o.o.o.o.g.%.O.R F F ..%XvXvX-Xk.| ' g.(.1XrXxXBX8XX.d F f Y ( %.t.j.o.o.Q.qXoX..B B V X.3.3.l.W.x.k.[ X.X.b.cXVX0Xv.>.H i u V ' 3.3.Q.;XyXyX8XB.1.v.N.B.>.2.S.8X#X>.1 2 A A : B 9.L N : r N N N J 8.9.N N N N :.2.L >.7.b.B.A < B <.Z.#X;XVXSX0XS.",
"k.oX8XwX1X+X1X$X2Xx.x.~.z.g.P.K.z.x.x.l.%.| ..' | ' b.lXJXlXN.K F j.}.uXxXuXuX#X2.H y g a ( +.h.l.g.<.1.oX9X#X>.K B u  .3.4.l.%.<.{ 6.n.N.kXVXv.J B u C F C ' 6.6.n.Q.#XoXN.b.b.b.m.b.b.S.rXvX9X9.B B A B < N N r : r r N Z Z 8.8.N : : : : 2.;XD.v.Z.;X&X>.V [ &XlXlXyXvXbX0X#X",
"M.W.N.+XiX1X+X8X+Xm.x.x.M.(.(.~.(.x.x.g.x.oX+XOXm.X.<.1XDXvXS.H ' /.6XqX$XV.C.yX;X>.y 7 8 v ] ' ..x.x.>.7.D.:X-X#XL N ' n.n.3.X.K X.3.5.k.1.2.B Z ' ] ] T T $.,.X.k.b.#X;XZ.b.1.,.1.b.oX#X#X-XA.2.2.L B N : : * : r r N N A J [ 2 * % * * * :.kXvX8X$X9X;X2.L 8.@XqX9XyXxXcX0X8X",
"n.3.3.M.rXvXyXrX5X<Xu.O.z.@X%X(.(.C.f.o.M.8XwX8XXX1.<.$XmXDX8XL Z 3.`.4XC.o.f.zXVXM.V q l U f C X.Q.oXv.v.G.G.9XA.L J k.*XQ.5.<.X.[ 6. .H i d V {  .R R R G R [ ' ,.5.XXXX1...K H ..8.:XA.>.,.8.n.oX5.J r : : : : r r r N Z r = * # # # # # 2 XXlXyXoXn.<.' X.1.1.n.Q.OX%X9X0XD.",
"k.1.<.k.V.wXvXxXBX+XK H r.(.5XtX%XV.g.o.x.(.(.M.n.,.n.tXVXDX%XH F F k.1X+Xf.m.kX9XV.,.O.J. .s R &XlXVXZXZXZXNXF.v.:.1.OXOXx.<.m.x.k.>.Z r u ' 5.Q.X.u F R G T 3.3.,.,.[ J B r , V b.-XjXb.J H [ ,.,.,.J r < B 6.9.N : : N N : * * * * # $ # = u b.n.3.' G [ k.b.1.1.>...1.8XzX$X",
"l.XXB.g.u.k.$XxXnXV.O.o.h.x.%XBXxX1Xm.k.k.k.3.3.X.3.@XCXCX;X<.d ^ h.(.8X1XC.+XcXwXC.k.z.P. .F h.4XnXVXZXGXIXKXNXF.A.;X%Xm.H H k.wX9XA.9.B B <.yXlX>.i H G V V { 5.X.' Z B < = = >.lXJXVXb.A < r r u Z J Z u r [ 6.J r : : : ; ; ; * * * # * ; - e T F e f $.L.).OXM.L B { %XBXrX",
"' n.B.k.3...m.uXwX%X`.|./.h.x.eXDXvXD.B.V.C.5.X.| %.W.(.N.K i z r.].*XqXqX`.%XvXtX~.x.j.%.U U %.(.Z.A.:XcXMXMXmXcXcXkXZ.K < i 2.rXVXvX-X7.K <.uXVXv.A H H B d X.5.L ' ,.b.2.B 2 m.VXJXjX>.Z B H J V G [ G Z Z N Z J B r < : r r < ; ; * * = ; 5 e e e 8 g I X.!.OXx...[ [ n.%X%X",
"G o.b.Q.Q.3.g.@XqX6X6X[.y.^ R l.yXuX8X(.(.(.k.] F d y u r y p ~ I.^.J.z.h.g.!._.@X(.M.j.r.U v ~ %.X.' ' ..2.b.qXzXVXlXb.H H ,.b.F.MXNXjX;XB.M.xXVX8X7.L H i u n.8.B B 1.;XlX8XB.oXlXjXB.J G 3.Q.W.5.6.6.5.X.{ J Z r < L 7.9.:.:.N : ; ; ; ; 6 e 9 5 7 7 8 s G X.6.3.3.5.L.W.x.m.",
"' | %.n.Q.$.R <.).*X*XK.! v v E %.^.).l.%.o. .] C u 9 , 9 d W &.L.U.e.e.~ &.Y.Y.z.Y.W.h.h.~ U ! O.O.O.' u r u ..C.+X(...K N.8XA.A.D.D.S.Z.B.S.-X9X8XZ.2.[ B r >.9.B A 7.kXVXvX-XB.N.8.L Z T l.&XOX5.{ { X.[ { { V ; N Z.;XD.Z.b.B * = : : r r 6 ; ; ; - p T T ] T 3.l.4.l.h.o.l.",
"$. .R { { V y H ' ' R f w a a g a U R T R T T $.l.n.n.b.5.[ ] $.L.P.t.@.~ %.T. X'.Y.P.j.h.@.( b b ~ %.$.T F H H V u i , B oXlXjXD.7.1.2.2.A.D.:.L ..L L J B < i J ,.1.v.:X:X:XD.8.5.>.{ G ' 3.N.Q.,.Z u J ' G C e ; J >XlXjX&Xb.r = = ; 6 s Z e ; ; ; e T 4.$.G C T L.!. . .%.r.",
"%.%.T s C d d H H V r 7 q a a a I E E E  .| ' $.(.+X;XkXD.9.Z ' 4.L.h.g.%.h.^./.`.Y.z.y.j.t.e.E l U R 4.P.P.g.[ N 1 = = B 7.:XNXF.:.< B Z.mX-XB 1 1 < i G G V G B.&XZ.8.b.B.N.1.9.>.X.$.{ [ <.XXQ.>.B u V ' ' V e r J &XlX#XB.>.A < = ; 9 e r r ; ; - s ] ] T Z e B X.L.O.| %.t.",
"h.^.k.H U  .k.;XyXN.,...^ z w a v Y E ~ +.E F R ,.7.D.NXhX7.L <.(.oXN.B.W.I.P.~.P.j.j.h.K.K.t.( U x n &.L.k.' V B A B B J 7.F.jXA.N * < XXlXZ.A N B V u G ,.n.#X;X;X#X7.[ 2.[ B B L [ [ [ <.N.qXoX2.L ' J { { T T V V [ >.>.,.,.' r ; r r : ; = * = r Z { { Z V u u V O.%. .+.O.",
"3.OX(.<.X.3.OXBXVXtX%X(.3.O.T d a I Y R E R T [ ,.K 2.jXAXH.2.Q.eXeXyXyXeX*XY.j.Y.J.j.j.T.K.#.( b v b Y E T ' >.B.A.2.L 1.b.B.v.L < = < [ ..1.2.2.5.,.H V ,.oX&X&XoXN.>.A A B r < B K R H <.oXqX%Xb.,.,.[ ' { ] G u r B H K [ 3.X.G Z Z Z : * = ; r r B Z T ' ] R F G ] O.@.o.R ",
"X.(.+Xx.3.%.l.`._.(.Q.m.V.+X(.,.F T T F R  .$.5.8.J L A.lXjX8.,.x.l.).*X*X^.P.j.Y.Y.j.P.Y.t.e.~ z n b z v ^ l.>XDXVXD.>.1.8.L N u Z r < r H 3.n.n.n.5.' H [ n.b.,.8.8.B < [ N.B.[ Z H d i B L B.%XoXb.>.K ,.5.3.G u B >.N.oX1.J d [ 6.[ J r = r { B r u u C X.6.3.X.X.X.%.h.h.g.",
"3.+XwX8X+XM.3.<.o.O.| <.$XnXtXN.X. .T l U $.5.!.XX8.7.2.8.#X8.Z u e j ~ #.J.J.J.K.T.^.^.y.~ t.+.( ~ U v b ! %.>XVXVX-X>.7.,.r < V ' C e e ' 3.k.[ ,.,.,.[ ,.,.L Z A A N r ,.>X&X[ Z G G B 2 2 L 7.&X#X7.>.5.k.X.J K [ Q.yXyXn.N , G { { { B < r r : = = : B ,.Q.n.5.1.' R  .R X.",
"~.4XiXxXuXqXM.o. . .X.x.+XzXwXN.3.X.E F l T $.4.l.Q.oXN.1.[ V e 7 8 0 w n ) t.&.r.Y.7XY.~ ~ @.t.h.%.~ I v g d ' ;XCXN.L 1.,.G G R ' T u V o.k.1.X.,...,.>.5.Q.2.B B Z B r X.&XXXL Z A A L A A A :.B.D.B.7.8.,.A G X.5.oX;XqXN.< = < u u u r ; = * * : : 2 L 8.XXZ.B.7.H u u u G ",
"P.'.@X4XwXeX@Xh.R G 3.+X8X0X-Xb.3.o. .U a g T R X.,.1.6.' d 9 q 0 0 0 8 w n ! U | P.|.j.^ F U @.3.h.J.] s d F G 6.W.' G X.3.k.X.R G u u X.oX%XB.5.>.[ ..L 1.qXN.A B G G Z [ b.1.>.A B :.7.G.A.7.:.7.A.A.b.2.>.[ ,.n.oX&X%X;XB.< = ; < ; ; ; = : N A 7.:X-Xv.7.A.9X#Xv.>...K H | ",
"h.z.~.(.oX%X(.3.V u ' #XVXmX9Xb.3.%. .Y v a f T $.6.J e s a w w w w 8 5 0 v U E x.(.(.x.o.F F T 3.I.!.X.s ' h.l.,.' V T ] 3.4X=X5.X.d G n.lXlX$XB.>.,.,.J J n.,.N r d Z B H 1.XXA.v.:.7.G.jXMXhXG.7.v.v.b.b.b.n.&X%XtXlXyX&X5.B r , - ; ; ; : N XXlXMXJXJXF.7.7.:X:X#XN.k.<.<.3.",
"%.%.%.o.k.(.x.G r u G N.mXJX-Xf.o.o. .~ Y l f R 4.&.T s s C v c c a p q a ! %.@XaX4X%X(.M.%.F T X.h.g.X.G %.W.=XoX3.G T I $.).XXX.G V Z b.kXbXcXN.J ,.,.,.5.1.J < ; , r Z H 2.:XjX:XG.G.hXZXHXZXhXG.G.v.2.1.n.OX4X(.V.%X>XN.g.X.V , ; - ; ; r N 2.:XMXJXNXF.F.G.7.D.-XZ.f.k.m.5.",
"' E F f ' X.{ F V u A b.8XrXB.>.| O.%.@.E p 9 g Y l l I f F T R E U I I Y O.(.zXnX$XV.+X1X~.3.%.h.h. .R %.3.5.OX!.6.] E f g f s 9 e V V o.oXvXvXN.B ..b.XX;XZ.,.u , ; , r H 1.lXMXAXhXhXZXHXHXHXZXhXF.7.L X.3.M.~.l.<.3.l.g.4.$.F 9 y y , B L A B b.:XjXS.Z.vXjXv.1.B.8.2.N.+XV.",
"E E f d d G 6.3...' H ,.S.N.1...' ' +.h. .p 9 g U F f T T R  . .&.~ +.h.%.%.`.BXwXm.f.C._.x.%.P.3X3Xh.R ' 3.x.k.3.X.h.+.p 9 9 8 e d ] X.o.m.jXcXb.B H 5.&XlX>XQ.3.T - = , V v.MXZXAXNXNXZXHXHXHXKXZXF.7.L J H ..g.g.3.%.%.@.+.~ T f F R X.Q.oX1.Z ,.#X+XB.S.BXVX$Xv.>.>.,.b.oX-X",
"+.^ F F f ] ).oX+Xb.1.v.#X$XC.| G T +.P.%.F T ~ h.h.%. .F I E ( +.~ h.`.~.g.Y.7X<Xx.g.M.z.o. .h.].).L.X.R X.l.X.| ' &.T s y f f T  .4.5...>.D.:X>.r H B.:X:XoXl.X.J , , r Z N.jXNXjXjXF.jXMXGXKXGXNXG.7.2.2.2.f.g.x.P.4.%.E E U E E R ' b.&XoX1.>.1.;X9X:X9XvXbX$XB.v.1.>.2.Z.#X",
"%.O.X.R T E 5.+XrXkX9XF.NXlXS.o.T T  .P.&.+.%.&.&.P.].h.F F T *.*.E O.W.~.g.%.W.z.x.g.g.g.%.' F ' ]  . .] ] X.T l l g T T F T I ( +.4.n.,.9.Z.$X[ N 2.yX&X1.L J G B < < r Z J 9.:.:.2.7.A.-XjXjXjXF.G.v.G.:XrX8XN.M.W.3.] I I E ~ %.%.,.b.n.6.[ G P b.$X-XA.#X+X-X#X#XS.>.L b.Z.",
"M.M.x.X.E I V <.1XvXJXMXNX0Xb.[ R T ] h.h.&.%.E R @.^.Y.| R 4.].l.F F h.h.%.O.<.x.h.g.g.g.z.z.g.%.o. . .h.W.Q.b.| F ] 4.l.X.O.+.+.E &.8.6.1.Z.#X9.B Z.rXB.A < N J L B A 8.8.Z N B B B L >.2.Z.F.F.F.-XjXjXNXlX-X1.K T T ] ] R R %.l.x.n.Q.b.J r u C ' %.3.k.n.n.&X:X:X-XB.2.v.B.",
"OX@X(.3.$.T u i <.tXJXJX9X2.L G U E  .h.t.@.^ F I E %.r.R ..OXyXM.K l  .%.O.X.<.x.l.h.3.h.P.^.^.I.h.r. .h.@XyX%X5.X.6.n.Q.OX!.4.f g T 6.6.6.8.1.N r b.#X7.B 1 r Z [ L 9.Z.lX#XL >.2.,.,...K b.Z.D.:X0XjXNXjXF.7.H < i G 4.!.P.%.%.3.n.+X%Xb.J r < B { l.3...K >.b.#X:X:X-Xv.7.Z.",
"Q.M.k.3.X.X...H V $XLXLX:XL u d U E  .%.@.~ F I I I I I F o.1XrXS.<.| | %.O.| o.l.x.g.%.%.@.@.( @.@.&.&.%.x.&XXXk.b.B.N.XX>X*X] e 7 s S T { [ Z r r 1.Z.9.N ; ; : N N Z v.9X;XXXQ.&XB.9.Z B 1.Z.A.F.F.jXjXF.v.:.B < V ' l.).@X(.g.<.oXtX8XB.1.5.K K ,.6.{ V B H 2.Z.D.F.F.7.7.&X",
"k.l.%.' <.&X*XM.>.S.DXDX-X:.H ^ ! ( ~  .~ U d f E I l d F k.yXbXyXS.m.5.o.o.X.o.3.k.%. .U a w w I ~ ) @.g.3.N.S.#X:XvXjX:.9.5.G e 9 9 9 9 Z [ X.Z B 5.Q.[ ; * * % * = r 1.;Xb.r N A N * * : >.#X:XjXjXhX:XD.G.7.1.L ,.k.n.oX%X%XW.k.S.yX-XD.;XqXQ...' ' G Z J [ b.$X-XD.A.2.2.N.",
"g.%.*. .(.nXbXrX-X:XkX-X1.| O.@.@.+.%. .E F d f T E  .| o.(.bXDXmXkXS.2.<.3.<.3.,.,.<.X.G F l l H X.O.%.x.N.;X:XkXJXLXAXB < V e e e t s e C 6.4.Z B X.5.G ; * # # # * N 8.Z.A ; % # # @ # * { (.AXZXMXhXF.F.G.D.B.8.n.=XqX+X+X+Xb.b.S.8X+X%X9X:X1.L J u u ' X.>.7.9XlXF.v.>...2.",
" . .+.l.eXBXmXcXjXcX0Xv.K  .%.o.%.%.X.%.] F R ' ..X.3.z.(.rXvXkX0X+Xf...g.k.n.oX&Xn.k.n.n.x.k.k.k.k.b.Z.-X;X:XD.#XBXVXoXN , e e t s s s s f ] $.C s T E C - * * : : 2 :.8.:.: % @ % % % * : N ,.kXLXJXZXNXhX:X&Xn.1.5.W.N.(.(.x.5.n.oX+XoX%XoX1.J J B B J k.<.A [ oX$XS.N.2.H K ",
"T T T X.(.%XzXJXZXmX0X1.| O.$.%.g.3.3.g.X...5.b.v.b.n.W.%XxXrX+Xk.<.<.<.<...k.=XyXOXn.b.&XyX9X-X#X-X:XjXNXMXkXB.9.....V 9 - 7 7 t t p p g f S S C j W C s e r { XX:XhX:XG.A & @ @ % * : , - = < 7.jXMXJXGX:XA.1.X.[ ,.X.' L ' X.5.m.N.Q.Q.oX5.Z V H A 9.B.XX5.Z V X.<.N.Q.X.V H ",
" .G u u G ..$XmXJXmX-X1.X.O. .X.k.k.k.l.5.k.oXyX8XoXm.N.2XcX$Xk.| | 3.l.3...<.l.N.n.,.J 1.;XkXjXjXNXZXGXGXJXjX2.B i q p g e 7 8 8 5 7 t j S C t g f j s C 6.XXyXVXJXGXZXZXhX0.2 > % * : r 9 - , < B 7.-X;X2.J V V ] 4.6.[ A B L X.k.M.N.N.5.G u B Z >.#X>XZ.1.J s V ' m.(.n.| K ",
"W.' u y y d k.tXvX8XS.5.3. .F F n.Q.n.l.z.m.qXCXxX%XN.-XNXcXD.k.|  .o.g.g.3.X.| ' X.G s G 8.#X9XMXJXKXKXMXjX7.J G T R &.*.j q q 8 7 7 t E } C t q p s t T OXCXvXAXNXZXZXZXHXIXIXhX2 : < e s C r = ; B G H u 9 7 y %.!.n.b.7.1.2.k.m.n.b.1.J r r Z [ Z.-XA.7.9.Z V s ] n.+X8XC.<.",
"+XX.C C d d ] L.M.,.,.5.<.G y z 5.W.!.l.l.g.m.+X4X+X#XvXJXmX$XN.g.X.R o.3.<.X.| '  .E f d ' 5.n.#X$XS.7.L J J J f T $.L.&.R F i S T T S ] ] g g j I s t ] W.&X,XB.2.v.A.hXHXIXIXZX7.2 N Z Z T s e s V f p y 9 9 E L.l.5.b.8XzX9XoXB.b.<.L B r Z 1.B.&XZ.7.7.[ B i V ] l.%XrX%XM.",
"N.,.R T R R I f l T 3.W.W.g.T F X.3.4. . .X.X.k.M.V.%XVXDXcX$XS.(.o.H <.f.k.k.3.O.o.+.T f T R G H u 9 r B [ %.C 9 S +.4.3.3.X.| $.4.} C C C g I E I p t W $.6.9.G V J 9.8.:XZXGXKXH.1 N Z u C V C ] G T T T F +.).).k...1.xXJXDX8Xv.[ Z u r Z 5.8.B.B.A.-XZ.>.V Z ' O.h.M._.~.~.",
"b.,. .R E  .E f a E P.(.).).o.G  . .T d f | l.(.M.(.V.1XwX8X+XS.m.<.' <.m.N.M.x.o.X.%. .I I I l p 7 7 e G 6.l.s , d ^ %.l.OX=X).$.$.] S V s C T S f a t f W { T D J ..1.N.A.hXKXJX:.= , e 9 7 y C ] T C R ' ] ^.*X*XW.<.<.8XbXmX8X2.Z V V V J ,.5.b.7.A.:XZ.>.X.5.P.h.@.^ | X.o.",
"x.o.E T R +.+.E ] &.4.W.@X1XM.K R ^ T f F 3.1XxX1X(.(.M.z.~.(.1XyXV...>.b.N.N.k.O. .$.$.E I E U U f z q a $.L.g p F %.%.l.OX>XQ.] T I I C T I S f f g p a v f S { T $.6.6.8.jXLXjX2 * , 9 , , e F X.$.E  .G T h.Q.*X(...3.M.%XyX$X2.V H J J { ,.8.N.2.9.9.>.1.W.`.^.%.%.o.O.| ^ ",
"h.O.R Y E  .$.g.$.$.%.W.1XBXuX(. .F R $.5.&XzXlXzX8XN.3.X.u.+XBXDXxXV.f.m.m.5.| R $.%.%.+.E  . .E E v 8 w +.^.&.{ 3.W.W.l.g.4.] C C I W ] } T f g I S S I I a S C I  .3.1.b.8XjXP 1 = 9 g y 9 s E 4.!.M.<.T T  .,.3.,.L k.(.$X8XS.>.i G ' ..,.1.>.[ J r r B 5.@XOXx.%.x.(.%XC.M.",
"@. .E Y E @.l.oXC.%.r.`.1XvXBXtXO.R 3.M.&X>X;X:XrX%XM. .z %.wXVXJXVX2Xm.x.<.X.X.$.&.L.L.$.R E I E } I w w E q.J.6.L.*X*Xz.O.R I f p g I E T S f W W T ] W E g f s C R 3.6.<.<.,.H r y f I T ] S R $.6.qX8X5.{ K J J G H 5.%X0XjX-X1.N Z K ..<.,.J < , - - u X.+X+Xk.o.x.@XeXqXwX",
"@.~ E ~ ( t.@XlXkXV.<.j.x.`.).l.T o.W.(.oXB.k.m.v.<.%.E F 3.+X%X9X-XS.m.x.3.%.O.$.4.J.h.%.I a a j W S f w d F R  .4.!.).h.$. . .I 9 e f S f f j p t p } $.$.T { { J Z ,.b.X.' { <.X.' d R %.] T f s X.qXxX&X[ B Z Z r < K +XkXcXkXB.J J ,.X.X.J r ; ; , 9 T 3.8X+Xm.g.z.~.`.<X4X",
"#.+.( ( ( P.eXBXVX%X<.O.~ @.( v U %.P.oXN.b.k.g.[ K K K V G X.' K 2.M.M.3.$.+.E +.%.%. .E I a a a j S I I l l l v E  .$.%.%.h.h.E 9 q f j S j p 7 9 7 W $.3.#XjX:X7.J ,.1.,.,.8.1.,.G V { l.%.T y e ' Q.=X5.r r Z J < ; B b.;XkXjXZ.>.K <.X.G B B J >.J ' k.N.0XrXS.<.z.c.~._.(.",
"+.#.@.+.#.^.eXtX4X).4.+.~ ^ ~ ~ / #.h.oX#X#X$XS.Z.+Xx.K K H ^ u.X.G X.!.4. .E ]  .%.%.T d C f a w 0 j } +.] E E I U I E %.%.h.&.] p s S C S g 8 7 8 j E ] n.vXLXDXD.>.1.B.Z.jXMX9X2.B J X.l.l.$.C u G $.{ r < r Z J N < Z 5.XX#XZ.B.2.J H V r B S.xXkX1.,.k.S.cXVX-X1.k.c.(.`.(.",
"+.t.#.@.&.P.^.`.W.!.h.%.y.t.) @.` e.P.*X9XlXvXcXmXmXrX1.| ^ %.~.x.o.3.4.+.E R $.L.).l.X.' G s e 8 0 I +.&.$.$.*.+. . .+.h.&.O.K T G T C t e 8 8 p I L.L.X.m.BXJXVXD.2.1.N.kXZXIXJXA.B A [ l.P.4.] F d e 9 , , r s B < < N ,.n.N.b.Q.3.V r , ; Z kXLXVX7.P :.Z.lXVX:X7.f.z.(.+XoX",
"E t.t.@.@.%.@. .%.r.t.Y.7X^.J.a.i.) t.~.qXVXDXmXZXJXkX[ l y.*XyX@XW.x.%.~ l f %.=X4X(.).Q.n.X.V t F +.O.X.%.%.O. .E +.*.h.h.K B Z X.6.T e - 7 p W q.4.W.x.<.+XqXZ.1.<.,.n.yXJXIXKXAX:.B G 3.3.$.T d - = = = , , 9 , = = = Z k.).Q.!.] 9 - - ; ' vXJXlX7.:.L B.kXDX9X1.o.g.(.`.(.",
"I &.K.t.&.@.~ ) ) b E L.*X!.&.~ n b ^ f.S.rXzXjXjXkXoXV 9 E ].6X4X).g. .U q q R L.*X(.1XrXyX;XB.<.X.| X.o.3.z.r.F f ( @.g.M.1.J B >.Q.6.T f y I $.%. .3.l.5.5.[ ' [ 3.6.3.N.jXMXJXF.7.L G X.o.o.1.K i = * ; , e u 9 ; * * 9 $.!.L.{ e - ; , , T yXkX:XG.v.v.G.NXmX9Xm.<.o.x.C.(.",
"v +.I.[.K.p.a.y._ ! z F %.%.U y g  .x.1X0X2X8X8X#Xb...r , f &.&.%.%.%.+.U f g T { $.3.M.%XtXzX8X+Xg.| | o.).3Xg.q q l @.W.;X9X;XB.7.B.b.6.T C $.h. .R ] 6.5.,.G K X.3.3.1.8.A.D.F.G.B.v.2.k.m.C.&X#XN.9.B r , r B e 9 ; * = s { { e ; 9 C F 9 u m.8XjXjXNXMXMXGXZXNX0XV.1.f.+XzX",
"v E P.].I.J.K.h.U.a.~ l F O.o.H K %XVXDXzX$XoX%X_.o.i , e F C q q f ~ $.$.$.$.T C y d G ,.m.(.<X+Xg.K ' r.`.%Xk.H F d X.N.yXvXlXlXlXkX:X#X1.[ 3.g.X.' ] 6.6.[ X...x.M.b.8.A.D.:X:XF.jXcX9XA.A.S.#X#X;X&X7.L B N B Z s ; * = r D G V u ] ).l.y r | ;XVXKXKXKXJXKXJXNXjX0XA.A.:XcX",
"f I +.J.h.&.&.%.P.*X@Xo.H g.+XM.k.+XxXyXV.m.m.C.m.| w 8 g 4.&.q 7 g R $.4.L.$.C , ; , u { ,.l.x.3. .G R t.W.&X>XqXk.H X.b.Z.#XD.:XmXJXmXkX$XZ.XX%XN.<.,.] G ' X.,.B.;X&XB.B.#XD.A.NXLXIXGXjXjX:XB.L L 1.Q.&XXX>.A J T r = r 6.OXX.V R W.>Xn.V r q M.VXJXJXmXMXmXcXjXcXSXcX:XjXNX",
"I I T E +.+.~ ~ %.qXtXM.3.oXlXqXW.3.(.(.k.M.+XqXQ.o.U l I &.%.g q  .6.6.5.6.X.' y ; - V 6.W.z.' F l T +.t.~.tXVXBXN.K <.n.B.b.5.7.#XjXcX9XN.Z.qXlXyXn.X.G H X.k.N.Z.#X#XZ.S.S.V.S.cXLXIXKXNXvXvX1.< < 9 R =XCX;X8.Z u 9 r { =XeXb.H H M.&Xn.' i 9 ' C.S.B.b.f.k.V.2XrXDXJXvXcXjX",
"E I l l U ~ ~ v ^ (.>XW.x.#XtX@X3.X.W.@X(.qXBXVX4Xg. .%.$.] f 8 l ).>Xn.3.3.l.n.T , e G 6.Q.l.V y d U  .t.`.rXxXtXb.G X.k.M.M.N.4.,.L 9.K G [ b.&XXX,.G ' X.1.N.kX0XS.v.v.v.b.m.B.kXJXJXNXjXxX#XB = - - q l.CXlX8.; - u V { !.(.W.3.%.z.%XoX3.K G G H N r u i G g.V.$X9XjXkXkXv.",
"E U F l U @.+.I l %.x.3.o.l.*XW.O.%.P.).(.6XBXtX).3.%.L.4.+.v 8 %.6XqXn.g.z.).M.F 9 u ..k.Q.5.T V U E E  .g.x.C.M.| H X.h.4.5.n.4.X.Z u e 9 y u V s Z G ,.n.b.Z.9XkXD.A.D.Z.1.<.m.$X9XD.7.1.>.i ; , e e 9 C =XtXT - e ' T S T ] 6.l.^.W.Q.(.(.k.o.g.g.H i , y F f.x.m.v.S.D.v.< ",
"~ @.@.~ #.K.t.^ %.W.x.X.O.%.I.P.O.r.W.W.l.M.W.M.3.%.h.I.I.4.E v g.*X).g.%.l.W.k.T V K f.M.(.k.,.X.+.~ E E T T ^ 6.X.R R R ] 3.5.X.[ H u 9 9 9 , - 9 V ' M.oXk.1.$XBXjXjXkXyXb.>.z.m.f...' d , - - g ] X.d d { { 9 y ] &.+.E C p F 3.W.k.k.z._.N.g.f.k.k.P u V F <.oX8X9X9Xm.H r ",
"%.h.g.h.P.P.%.$.].).L.h.O.@.h.4.@.h.h.h.t. .E | ] ] @.a.i.#.@.) J.T.t.+.h.P.P.o.R | x.1XzX;XS.M.W.!.P.+.j g g U L.I.R p g f I ] X.X.T e , 9 q 7 9 e G 6.n.n.,...N.#X9XkXmXvXS.1.x.x.3.' K H F F F o.(.@Xm.| ' ] R T O.h.%.E F f R X.g.%.o.x.z.3.' K ' <.| H H K C.BXDXJXbXS.i T ",
"h.z.~.~.L. .R %.P.L.h.h.%.@.%.+.( @. .E E U E O.4. .~ ( ( ) #.) *.@.~  .h.h.P.r.O.h.@XtXVXvXrX%X`.~.l.$.I g p U ].].R 9 9 q s T X.5.6.C , 9 f T F ] 3.6.[ A B Z L 1.S.:XzXzXN.2.<.<...' X.h.P.P.^.h.x.`.(.3.X.$.%. . .O. .+.&.h.l.g.%.o.%.x.g.K u V ' X.' H H ' %XFXJXDXjXV.V E "
};
