/* XPM */
static char *_326ef7492094a99d862f4f495b3b3c46ESrQypYYAVjvAio[] = {
/* columns rows colors chars-per-pixel */
"27 80 224 2 ",
"   c #000504",
".  c #010C01",
"X  c #031301",
"o  c #0A1602",
"O  c #051B01",
"+  c #0A1C01",
"@  c #0C2301",
"#  c #0D2B01",
"$  c #122301",
"%  c #132C01",
"&  c #192E03",
"*  c #172E09",
"=  c #153301",
"-  c #1B3503",
";  c #163900",
":  c #1C3B01",
">  c #233E02",
",  c #1E4202",
"<  c #234402",
"1  c #284604",
"2  c #254B02",
"3  c #2A4C03",
"4  c #2E4D0B",
"5  c #314E05",
"6  c #275101",
"7  c #2D5303",
"8  c #2F5903",
"9  c #2C510A",
"0  c #325404",
"q  c #345C03",
"w  c #395D04",
"e  c #335309",
"r  c #355A09",
"t  c #3B5D09",
"y  c #366202",
"u  c #3B6404",
"i  c #3E6A03",
"p  c #3C6509",
"a  c #3F7002",
"s  c #416606",
"d  c #436D05",
"f  c #466A09",
"g  c #436C0A",
"h  c #496D0B",
"j  c #457403",
"k  c #4A7305",
"l  c #477D04",
"z  c #4C7B05",
"x  c #47720A",
"c  c #4B750A",
"v  c #4E7A09",
"b  c #527D05",
"n  c #507709",
"m  c #537C0A",
"M  c #527B11",
"N  c #587F10",
"B  c #4F8007",
"V  c #548306",
"C  c #598505",
"Z  c #578901",
"A  c #5B8B05",
"S  c #55830A",
"D  c #5A840B",
"F  c #5C8B0A",
"G  c #5D9105",
"H  c #5E9309",
"J  c #5C8412",
"K  c #5D8C12",
"L  c #5B8519",
"P  c #618E06",
"I  c #65890B",
"U  c #628D0A",
"Y  c #639306",
"T  c #699407",
"R  c #6C9B07",
"E  c #64930A",
"W  c #6A960C",
"Q  c #65990B",
"!  c #6B9B0C",
"~  c #70970F",
"^  c #719D0D",
"/  c #648D16",
"(  c #649312",
")  c #6A9513",
"_  c #6C9B13",
"`  c #6B9719",
"'  c #6F9E1B",
"]  c #729C12",
"[  c #739F1A",
"{  c #6CA207",
"}  c #6DA10A",
"|  c #6CAC0B",
" . c #74A604",
".. c #73A40C",
"X. c #79A40D",
"o. c #76AB0C",
"O. c #7BAC0C",
"+. c #75B20F",
"@. c #7DB20C",
"#. c #6DA215",
"$. c #6EA018",
"%. c #75A412",
"&. c #79A513",
"*. c #76AA12",
"=. c #7BAB13",
"-. c #76A319",
";. c #7AA41B",
":. c #7DAB1A",
">. c #7DB311",
",. c #7FB615",
"<. c #80AF0D",
"1. c #83B30E",
"2. c #84BA0E",
"3. c #8ABD0E",
"4. c #82AF12",
"5. c #81AB1D",
"6. c #83B313",
"7. c #89B615",
"8. c #86B912",
"9. c #8BBC13",
"0. c #85B41A",
"q. c #8BB61B",
"w. c #86BB1B",
"e. c #8DBC1A",
"r. c #91BE17",
"t. c #91BD1B",
"y. c #83AA24",
"u. c #87B821",
"i. c #8CB922",
"p. c #93BF23",
"a. c #8CC20D",
"s. c #89C60C",
"d. c #95CC0F",
"f. c #98C90E",
"g. c #9DD40F",
"h. c #8DC114",
"j. c #8DC21C",
"k. c #8DCB18",
"l. c #93C414",
"z. c #99C514",
"x. c #96CA13",
"c. c #9ACC15",
"v. c #94C41B",
"b. c #9AC61B",
"n. c #96CA1B",
"m. c #9BCC1A",
"M. c #96D213",
"N. c #9CD115",
"B. c #9ED11B",
"V. c #9FDC18",
"C. c #A2CF13",
"Z. c #A0CE1B",
"A. c #A2D314",
"S. c #A8D813",
"D. c #AADB15",
"F. c #A2D31C",
"G. c #A9D61C",
"H. c #A5DA1C",
"J. c #ABDB1C",
"K. c #B0DE13",
"L. c #B4DE1D",
"P. c #A4E90F",
"I. c #AFE317",
"U. c #ADE11C",
"Y. c #B7E516",
"T. c #B3E31C",
"R. c #B4E91B",
"E. c #BCEC1D",
"W. c #BDF01A",
"Q. c #93C323",
"!. c #9CCB21",
"~. c #9AC628",
"^. c #9ED227",
"/. c #98C030",
"(. c #A2CD23",
"). c #A0CE2B",
"_. c #A3D423",
"`. c #ABD624",
"'. c #ABDA23",
"]. c #A4D228",
"[. c #A9D62B",
"{. c #A6D928",
"}. c #ACDB2A",
"|. c #B3DE23",
" X c #B1DD2A",
".X c #A4CE30",
"XX c #A9D731",
"oX c #B3DD33",
"OX c #B3DE3D",
"+X c #A7E220",
"@X c #AEE026",
"#X c #B3E323",
"$X c #B9E525",
"%X c #BBEA23",
"&X c #B4E32A",
"*X c #BBE52C",
"=X c #BDEA2A",
"-X c #BDF124",
";X c #B9E538",
":X c #CBF419",
">X c #CBF71E",
",X c #C3ED23",
"<X c #C1ED2C",
"1X c #C5F123",
"2X c #CAF623",
"3X c #CCFC26",
"4X c #C6F12B",
"5X c #CBF42B",
"6X c #D7FD2C",
"7X c #C5ED33",
"8X c #C4EB3C",
"9X c #C5F333",
"0X c #CCF733",
"qX c #CCF539",
"wX c #D2FA35",
"eX c #B6DC4B",
"rX c #BAE543",
"tX c #C5EB47",
"yX c #C9F14A",
"uX c #DBFC43",
"iX c #D9FE4D",
"pX c #D0F452",
"aX c #E2FF4B",
"sX c #DFFD66",
/* pixels */
":.W 6.v.#X9.c.m 9.%X$Xb.D E 1 9.F.u x 0.6.H.@.w 6X5XA.",
"> = i q F C ..D &.^ k b q 7 #XF.s 6.x N.! j < k _.l.2.",
"% A x.9.4.6.l.1.l.W k _ r.&Xn.w ` -X4 #XO.5XU v.W Q q ",
" .W # *.b.8.6.D c.A...7.e.F.U 3 F *.& = ] =.9.e.O.R.+ ",
"j.U 6 q C A T.,X9.d q.].[.U T c.1.C T.K.@ k 0.!.( 1X6.",
"=.J._.6X,XC ..a.^ [ oX0.q.0 z.~ J.N.c 0 d X.J.G.O.2Xq ",
"< k *.o.q m r =.U.&.p.' ) h G.+ < r + @ l.L.%X9.2.2.< ",
"a % j F Y V < ; '...% e W A c.#XE.U 8.c A c.6.c.9.@.z ",
"2Xo.Y = @ X.b.; ^ j i  Xv.u W h.l.O.O.; p d 3 W ^ V 8 ",
"9.q A Y d =.0X4.e...o.9.F m.a.W Y O.N.+ } 4X$X7.h.W D ",
"V j ..6...Y T.!.o.h., S =.m.k W 6.X.D.@ o.!.(.F.F.[ t ",
"M.I.%.6.l.9.6...o.T.m D ! 7 w s S 3.2.X 9.`.q.: ; 7 * ",
"..@.8 < $X*XiX8X; / q.&.k b = S 0.F.=Xk b #X0.0.q > 2 ",
"J.J.3 = uX(.'.yXrXOX&.yXsX1Xr.S :.D &.D u :.C x.B.p c ",
"o.U p m.,Xb.[.m.q.S pXtX;.U $X4.e.D m c X m 9.&.:.( m ",
"a.E 0.8XX.1.OXOXi.q Q.;X9.:.!.v.&XQ.*.m @ ; w.m [ #.g ",
"4XL !.iXM Y XX}.oX$XO.y ].7.&.( :.-./ v O O g _.[.p % ",
"j.@ [ rX: ..Q.`.v...n.S @ Y Q d k s 5 A ! : - ].s + . ",
"; d 9 ~.v...7.0.7 v ! h., t U p % X . o.>X@ X - . < X ",
"d q = K 7Xx.f.l.C =.C ! $Xh D J 6.v.% - 1 X +   + S.w ",
"d i q H.D.d Y.C 2.E...P T h.C Q , s.2XF o.h.x.y { s.j ",
"Y o.o.< + , q 6 8 d.x.@.R 6 q ( + X q = 5 >XF.=.H.H @ ",
"@.C a.@.X d } >.< O @ = 0 O . . X k % . + + . X $ . . ",
"u u p q @.O.R @.R j P 2.<.1 J 9XwX=XuX<X|.. + K %   % ",
"3.E.3X=XE.D.o.O.I.Y.E.c.T.u c.6.q.t. Xi.}.c.n.!.=.k.R.",
">.9.h.1.u c.x.A.3.O.3.Y 6./ }...&.6.6.] p.8.I.3 - N.M.",
"w.T.n.h.b O.I.x.{ 2.#X! O.t wX7._ 7X7.C '.U '.=X*Xp 0 ",
"2.A Q m.<.l.@.R Z Z Y 3.$Xm  X! 6 Q.9.e.aXb.I  X<XA.o.",
"z I.Y 7...J.l.9.b.l.L.n.V 7 I C ] D S ].(.8.x.l.A R d ",
"z  Xh.m...5X1.o.l.9.&.o.l.V `.[.4XT.7 6._...Y ! A.T k ",
"6.b.v.@.! T.6.T.H.S 3.o.o.h.J.[.n.9.W l.r.k S d } w u ",
"b.7XY A $X! ; b 2.2 O.1.2.9.7.X.O.O.d ^ F.a.d @.! k Y ",
"z.|.`.=Xz.x.l.i b 6 O.Y.x.9.w = S <X=.c r.g.1 t = 9.J.",
"b l 0...= q S.D.: 7 :Xf.3 ..8.6.N.,X..:.c.b R.Y.Y F.( ",
"k 1.S S F.< O u Y.W.q # { 9.O.=.6.9.p B ! O A.2.h.J.r ",
"# i 2 Q L.x.3.u y 3 # 2 *.^ d ..8.2.&.=.] 7 k $ % & X ",
"j >Xi j G u A y D 9.l.h.Z.8 < ; k #X%X..! >.; q W q : ",
"2 F.m.C a.m.#Xo.>.%.b < F 2 ,X6.% } S U v.u l.n E c t ",
"/ C Y.T 3.m.O.! l.! , ; ..u 3.W ^ c.8 } a.! f.W v u 1 ",
"o.@ 9.Y q U ^ N.F.f.1.0 Q 9.^ e.%X..*.v.H.i d ..P 2 1 ",
",X8.i : S O.Z R q ..9.z S B.r.9.=.=.8.S ] V %.%.F t 3 ",
": A 7 l l.h.m.^ 3 b ..o.O.=.&XZ.F 9.m.'.v.*.z 0 S - @ ",
". ; E j o.9.A 3.3X1.3.! O.|.7.! h.6.c l d D @ : g X @ ",
"@ +.R.! 9.3., o.q % k W ! %Xk h.|.< A C Y k 3 q ! = + ",
"V m.'.#X$X6.C 0.~.i.q.:.k R q *.A *.} T.3XU.@.T.,.| : ",
"C O.v.b.^ U >X`.:.v.@XqX6.V o...8.T.o.=.=.c.1 % s.w.+ ",
"6...F.7.c.W q ; : m _ x F n...U 8.8.! k 2 F.2 0 P.0 % ",
"..^ 6.o.b 6.R Y u O O % @ d , s p ; , g.A 6.z W @.c 0 ",
"Y o.3.9.4.O.Y J.J.1X,Xc.! 1X3.W ..6.q y 9.H.A *.N.Q - ",
"9.O.U ; % J.A v.! i O.W T 9.@.J.n.@.A.A.o.a.Q g 7 u @ ",
"G.U c.*.&.Z.F y ..Z.b.6.b G.9.b ; A 1...D T.W o.>.< & ",
":.p l.x.J.m.l.F.U.J.E.! 6.l.m o.l.A.o.G 2 o.k ..o.% 0 ",
"Y.Y.m.x.h.9.y o.%X*X X*.q T *.J.B.u W v.m #.O.< B.H X ",
"M.a.@.x.o.V 8 5Xl.o.C 9.z A Y x.<X2 e.4.i @ =XD W d + ",
"! S.O.6. .j 3 ..7 2 : e.V W l.F.G._ F.=...B.6.h V.F . ",
"h + @ < O ..m # i j.7.&.W l.9.E ! F.m.^ O.T -X-XM.< & ",
"_.d.m.wXl.6.9.*.*X@.8.v < l.F ! v X + C.M # l.u.k.d X.",
"@...< - ;.@ 2 q 2 V `.( m J.9.Z.N _ 1XE.X : q 4 e + $ ",
"h.! m._.W F n.=.2.B.6.E Y 6.1.u ; 9.< X 3 6.:.h b X . ",
"} ..F.4Xl.G.,X&.6X#Xq 2 @ p =.n.q : f - : m.>.k.M.+ + ",
"$XJ.`.F.=XH.=X# X ,XW @ % b 2 7 O.W =.].}.o.9.H.c + X ",
"e.9.n.v.J.N.x.u.< @ O 1 @XwXt.u B._.^.n.e.J.}.S c r + ",
"&. X|.6.D P a.&X9X;Xe._ |.r.^ W B.e.].Y A 0 v %X+Xc o ",
"n._.m.&.3 |.#X`.;XXX<Xv.@ P V =.=.n.}.S A >.n.N.i o o ",
"qX4.-.=.W c.'.9X;Xq.L.=.+ %X9.P O.=X8XQ.J } Y o.c $ o ",
"0 3 ! 6.] ..v.e.!.v.o.; c v.6.V V b d r 3 o.x.9.#.t X ",
"@ N D.u : v.e.a U W &.O =.(...q.t.D ` rXy.d j ] @ X o ",
"v.,X9.*.&.v.v...R uX,XO q v.(._.v.;.:.;X;.! @.U.m + X ",
"i.}.%.k h.$Xk q e.O.n.J.6.~.~.yX/.rX:.: O v.#XJ.0.. u ",
"E e.%Xx.S A.9.5X*X}.x.0 P eXeXq.) OXu.e.E 0.&Xq.c O 1 ",
"1.#XY o.d Z x.h.W ] Y O A.tXq.D ].e.W 7X6..X{.9._ % q ",
"v.8.u C 9.R Y : 2 9.'.@ *.~.&.C j.=.9XwXD U &X#Xo.< - ",
"^ ..r.S J.2 A 6.&.} x.; ; 5.`.) w.G.9.0.8 g h m 3 . > ",
"C <.H.l.6.@ J.o.! A A.&.3 oX).d 9Xv.@ v = 6.% . X % - ",
"S !.n.A , 3 %X1.q Q k x.9.r Q.6X:.O @ F K p n $.-.% X ",
"! `.0.H Y V h.c.! #X6.d U 2 n.j.O @ ! ( q : 3 ..n.< . ",
":.m.F 0 u.3 u o.Q =.U.h.u X ,.%.. ^.y + , 7 B % u @ % ",
"t < W i u S 3 3 u 2 i u x 2 i l c v : % 2 j Q % l z : ",
":.c :.x q j , A >.l u X : 2 < F h.: d % 7 u z l P.o.o ",
"v 8 7 , 2 u ; q 3.+...j + 1 @ : @ 1 ; < : 2 d V G % . "
};
