/* XPM */
static char *bed016aae2b6436ca4c88c6838dc4221FsqsJQVcK7MGYaNI[] = {
/* columns rows colors chars-per-pixel */
"28 103 139 2 ",
"   c None",
".  c #030303",
"X  c #090605",
"o  c #070806",
"O  c #0A0907",
"+  c #060708",
"@  c #070808",
"#  c #0C0B0A",
"$  c #100E0D",
"%  c #0F100E",
"&  c #12110E",
"*  c #0F0F11",
"=  c #0E1010",
"-  c #151413",
";  c #191615",
":  c #161916",
">  c #191916",
",  c #171A19",
"<  c #1D1C1A",
"1  c #201E1C",
"2  c #1F211D",
"3  c #23221E",
"4  c #252422",
"5  c #292624",
"6  c #272824",
"7  c #2B2A26",
"8  c #2D2C29",
"9  c #312E2B",
"0  c #2F312D",
"q  c #33322D",
"w  c #3A362E",
"e  c #353431",
"r  c #393632",
"t  c #363832",
"y  c #3C3B35",
"u  c #3E3D39",
"i  c #413D36",
"p  c #413E39",
"a  c #3F403C",
"s  c #444137",
"d  c #45433C",
"f  c #49453E",
"g  c #4B483F",
"h  c #474540",
"j  c #4A4641",
"k  c #474942",
"l  c #4D4A43",
"z  c #4F4D48",
"x  c #524D45",
"c  c #534E48",
"v  c #545146",
"b  c #585147",
"n  c #555249",
"m  c #5A554C",
"M  c #5D594E",
"N  c #5B5651",
"B  c #5E5A51",
"V  c #615B4F",
"C  c #625D53",
"Z  c #6A5F57",
"A  c #635F58",
"S  c #656155",
"D  c #696356",
"F  c #666259",
"G  c #6E655D",
"H  c #6D665D",
"J  c #6B655A",
"K  c #6E695D",
"L  c #6D695E",
"P  c #6D695C",
"I  c #706A5C",
"U  c #716B5F",
"Y  c #726B5F",
"T  c #716A5C",
"R  c #6B6760",
"E  c #6C6760",
"W  c #6F6B62",
"Q  c #706B60",
"!  c #726A60",
"~  c #756B62",
"^  c #726D61",
"/  c #716C62",
"(  c #726D62",
")  c #756D60",
"_  c #746E61",
"`  c #746D62",
"'  c #756D62",
"]  c #746D63",
"[  c #756E64",
"{  c #746F64",
"}  c #776F65",
"|  c #736E62",
" . c #757164",
".. c #757166",
"X. c #777264",
"o. c #797165",
"O. c #797265",
"+. c #7B7364",
"@. c #7B7166",
"#. c #7D7667",
"$. c #7F7667",
"%. c #7A7364",
"&. c #777369",
"*. c #7A7369",
"=. c #7B7668",
"-. c #7B746A",
";. c #7B776A",
":. c #7E746A",
">. c #7C736D",
",. c #7B766A",
"<. c #7F7868",
"1. c #7C796B",
"2. c #80786A",
"3. c #817A6B",
"4. c #82786D",
"5. c #817A6C",
"6. c #817B6E",
"7. c #827A6E",
"8. c #837C6F",
"9. c #847C6D",
"0. c #857F6F",
"q. c #837B6C",
"w. c #8A7F6E",
"e. c #837E70",
"r. c #817D72",
"t. c #857E72",
"y. c #8A7E71",
"u. c #8A7F74",
"i. c #86806F",
"p. c #838074",
"a. c #878071",
"s. c #888074",
"d. c #8B8277",
"f. c #898172",
"g. c #8F8778",
"h. c #908877",
"j. c #958C7B",
"k. c #968C7F",
"l. c #A29B8A",
/* pixels */
"  i d d g l g x b n b c g x b b n x c x x i i i w r y w ",
"8 C ..S n S D N n n R >.J C D C F S S G ` 7.@.<.y.w.$.k.",
"S J ..8.7.G ` m d c n N F :.@.J J } I ` @.~ J J $.3.} d.",
"0.&.p.e.8.7.j.u.s.l.e.J F K } ( Q =.=.*.} J Q I I J J 3.",
"` F B F E 7.h.( S A u u y n B n c N C F A ( @.=.J M K 0.",
"F B N B B n n u u e 0 e e y y q e u p h l j d g d l S A ",
"m f j l l f u d d d h d u f l : r m n z l k f k l l n z ",
"j y u y r d p p d k z z d u u < d m n n z k f j l l z j ",
"k y t r q r r y y u a d u y d e x c x z l k h h k z z k ",
"f d d d d q q e e y y u y d l y n n z x l h h h l l x l ",
"y d d d d e q q e t y y e u f 8 n m l l k h f d f j j l ",
"u d p d d 8 q w e r e w e y y 4 x b z l z f d d f j k l ",
"q u y y u 8 7 8 q q q q 8 q r 5 d j f j j d d d d d f j ",
"< 6 q 8 8 2 1 4 4 4 6 6 4 6 8 6 q e q q q r w e r u i d ",
"> - > < > > - % & > 3 7 6 4 1 4 8 8 q 9 7 r w w y f f l ",
"> > 8 7 5 y r y r r r q e d y u e u b m f f p p d d d g ",
"; 4 6 4 > - % - > < < 3 4 9 q 7 < > 3 7 > > < 1 3 7 8 7 ",
"# . . . . 3 4 4 > $ # # @ @ # % . . . . . . . . . . . . ",
"i g x x x Z J J J J C n i V x n x d 9 9 i b B S C m d 4 ",
"C @.( ` ;.C C B m B K J b X.D J =.f.a.i.f.K J I I *.t.;.",
"J J M C C m m m n n N m f J n u f m C M m m v v c m C f ",
"C { J J J M m b M M m l f m n 8 y l c n m S C D G K K x ",
"J C C V B v v n m C S S B d y 6 e x m m m K S S D S P x ",
"S S M m m n n n b m C B B f i 8 r j x l l C C C S V P b ",
"S S B m m m m m m M B B M f p 8 u c n f d M B C C C G n ",
"C C B M M b m n m B B M m l j q 9 x m l j m m M V C J b ",
"C C B M M b n b c n m n b d l q 9 z n x x m m m M M J M ",
"C C B M M b x x x n b x x f f e w j z l c n b n M m C M ",
"B B M M m l l x x b b v c j l y d l l j x n c n m b C C ",
"M B M m m l f l x x x x c l x w j l j d f b b b m n C C ",
"n l l k z l x x b v x z n C l . x n d f f n b b m n m C ",
"n l l k z g l l l l x l b C d . n m l l k v v n m n b C ",
"n l k l v f l l g l z x v S g . v x f l f k z c n v n V ",
"n l f l x f f g f l l l x S b . n b f l f f j l b x b V ",
"n k f k l d d f f d d f j C m O n M k x k f d g x l x M ",
"m j d d f d d d d f d d d M b + l m d g f d d f l l x M ",
"N d d d d i d d d d d s p M g . l x y j f f d f x g f b ",
"j y p u y r y u u y i y r M d . f k 8 u i i d d f d d x ",
"l d p r q u u i y p d y 8 f q . q w 4 q q w y s d l x q ",
"p d y r w u r w q q q q 5 6 < . r f 9 r y d d d f x d 3 ",
"# q d u q < ; & - ; & - $ # & . 6 u > < 3 > 1 3 3 3 1 & ",
". . . . O + # o # # . O # . . . @ - . . . . . . . . . . ",
"m f j d f C J C F } <.=.} I B u J 0.:.7.3.:.0.1.f.g...p ",
"M K ` F C x l j f f f d y M x 6 M J c n M J K C C C S M ",
"l z k f f d f f k i d f g n f < N C x b b x b b n x f l ",
"m M m m n m B B C B m n n C c < B C n M M M C C C C b l ",
"B C B B n x l l l l l f j J l , G J M F S C J J G K J B ",
"B m m B n z l j j k l d f J f - P F m C M M C S D P C n ",
"m n m C m l k j l l l f f S n * J J m M M C B M C J M l ",
"n c n m n l k f j j k f f B m - J J m M M M M m M S M z ",
"n v l x z f d d f f j d f c M 4 S S m m M m M m m S B l ",
"l z l z k f u p f d f f d f n 8 v C n m m n n v b M m l ",
"l l j l j d d p f d d d d i n 7 f n x n n v n x x m n f ",
"l l f f f p y p d p p d p u m 7 u x g l l x x l k x x d ",
"n l f d p d y w f d u y p d m 1 q l y d d l x l x l x b ",
"v g f d y p t q d p y r y d n < 8 j y y d g l l z x x n ",
"x j f d i y q e d p y r r d x 6 8 h y y y s f d d d f k ",
"f d p y u r 8 q i i u r w d k q 8 d u u r y i y u y u d ",
"d d y r r 9 6 q y r r w q d f q 9 d u y r r y r y y y p ",
"r u r r r 8 6 7 8 9 8 8 q p i 9 8 y q w w q 9 8 0 q e r ",
"p u e r r 8 6 6 6 8 7 8 q r w 9 6 e q q 9 7 8 6 6 8 q w ",
"q u w q q 6 5 3 3 4 6 5 6 q 9 9 5 6 7 8 7 4 4 4 4 4 8 q ",
"# - < > < - & - - - - : > - & - - - - $ # ; - - # . # - ",
". 7 f 5 1 : > - - - - $ # . . . # - 7 3 3 d l c x u 6 - ",
"@ . > 2 4 . . . @ # & < 2 @ o . 4 8 f j y w 9 q r y i 4 ",
"=.& . % - f n b x l x n b X.n 7 *.M D X.P J C V n y w q ",
"K ( K n y x l g f g x b m I u : P l M I I C C D P D b 7 ",
"8 w K ( J M m n x z v b b I 9 - X.f m J D m n m m C ( M ",
"J n B B B m m m n c n m M 3.d = $.g m J J C V M n x S J ",
"t.M F S M z x x x x v m V 3.c # Y c n D C F S C B m C J ",
"C m m n b x b x x n n m n X.C . C C M J D P J J J P J C ",
"C n n n v l l d h x x n n ` M . C D M I J P P I I I I C ",
"M n n n b v n l k n n n x X.m . S D m J D J J J J I J V ",
"M n v v x n m n x n n m z P n . S D C Y J S D D D J I C ",
"M n x z x l l f l x x n z C x . J C M K D C C J J J Q C ",
"m n x l l j j d d k l l k V x . S m b S M m b m M C J m ",
"b n k f d d j h j l z z d v l . C b m C M C M M M D J m ",
"x l f p u q q 8 e y y d u k x @ J x x m n m m m M D I m ",
"n j l l k k d y u f f l h f x # Y x l n c M M n n S J b ",
"x f k l j k k d d f f k d d g $ K l f n n M B n m J J x ",
"l f f f j f d u y d d f i d f > S f y x l m B b M F J z ",
"l f d d d f p e r p p d u d d - M d r x l m M m M S S j ",
"j f f d d j i q y i u p y f d # n d e c z n m n m C M p ",
"k f d d d f y 9 u f d y r f p - n l p m n x c x n M n p ",
"u d y u p p r 8 q f u r e i r - c m f n x l l l z m b d ",
"y u u u u y y e r f u r e q q : k n d l f j l k j x l p ",
"q q 8 q e 8 q r y u e q w d l o w r u f f l l l c k n n ",
". @ @ @ # . . . . . @ # # . @ . @ o @ . @ & - ; < - > 3 ",
"< < < > > < % # @ @ @ o . . # . - > $ ; > - @ # - % & > ",
"=.m c d p d j n B B C F B z k 7 F W B A B M m B S C C G ",
"l q q 9 q 8 q e e e y y y r w 5 x d d d d l n n b v c n ",
"l r w q e 8 9 q w y u r r d d r j y d f f f k l k l v b ",
"k r q q e 8 q e y u y u y r e q d u y d p d f j j l x x ",
"p t e q e q e r u u u y u q e q p u u p i d j j j k l l ",
"r r w r q q q w e r u y u e 8 y u q u i y y y y d i p i ",
"e e w q 9 8 8 9 9 q q e r 8 5 e q 8 r y r y u u d y u y ",
"9 e q q 8 8 8 8 9 q q w q 8 7 e q 9 e y r u u u i u r u ",
"8 q q 9 8 6 6 8 9 9 9 9 8 8 6 e q 9 e r e r e w u e q e ",
"3 8 8 8 7 4 4 4 4 6 7 6 6 5 4 q 9 6 9 q q 9 q q q q 8 9 ",
"> 4 6 6 8 < < < < 3 3 3 3 1 < 6 6 6 6 6 6 6 6 6 5 6 4 4 ",
"& 4 6 4 4 > > < < < < < < < < 4 4 4 4 4 4 > < > > ; - - ",
"7 > > - - - - - - ; > ; > - > < 1 < < < 1 - ; - - - ; - ",
"  & O & + - $ O # # & & & & # # O O + O @ + . + + X . + "
};
