/* XPM */
static char *b72f329991e744bc9296429747de5e78tYsJRG71s45W4CqC[] = {
/* columns rows colors chars-per-pixel */
"537 165 256 2 ",
"   c #1A0202",
".  c #280302",
"X  c #370703",
"o  c #381208",
"O  c #481804",
"+  c #4E1406",
"@  c #582606",
"#  c #52260E",
"$  c #672903",
"%  c #693506",
"&  c #783903",
"*  c #6D3614",
"=  c #643228",
"-  c #7C4406",
";  c #794718",
":  c #724819",
">  c #794C27",
",  c #77514A",
"<  c #833C03",
"1  c #893F22",
"2  c #874805",
"3  c #934C05",
"4  c #8B5208",
"5  c #975707",
"6  c #874B16",
"7  c #8B5518",
"8  c #9B5C1C",
"9  c #965916",
"0  c #934D15",
"q  c #A25D17",
"w  c #A25C09",
"e  c #9C631C",
"r  c #9A6317",
"t  c #9C620C",
"y  c #A5640A",
"u  c #A3641C",
"i  c #AB6B1C",
"p  c #A66717",
"a  c #B26C1B",
"s  c #B4741C",
"d  c #AC721A",
"f  c #895727",
"g  c #985B25",
"h  c #8A532E",
"j  c #A35D27",
"k  c #9C6324",
"l  c #9B6629",
"z  c #9A6936",
"x  c #946936",
"c  c #A36424",
"v  c #A46B24",
"b  c #AB6C24",
"n  c #A3652A",
"m  c #A46B2C",
"M  c #AB6C2B",
"N  c #AA6526",
"B  c #B26D27",
"V  c #AC7224",
"C  c #AC732B",
"Z  c #A8742B",
"A  c #B37424",
"S  c #B3742C",
"D  c #B47A2C",
"F  c #BB7C2C",
"G  c #B87827",
"H  c #A46C33",
"J  c #AB6D33",
"K  c #A66B38",
"L  c #A57333",
"P  c #AC7433",
"I  c #AD7A34",
"U  c #A4733B",
"Y  c #AC743B",
"T  c #AD7B3C",
"R  c #A57A3A",
"E  c #B37533",
"W  c #B47B34",
"Q  c #BA7C34",
"!  c #B3753B",
"~  c #B47C3C",
"^  c #BA7D3B",
"/  c #BA7536",
"(  c #B26D35",
")  c #C17D38",
"_  c #C17D2B",
"`  c #99714A",
"'  c #AC7B43",
"]  c #AC7C4B",
"[  c #A67646",
"{  c #B37C43",
"}  c #BA7D43",
"|  c #B37D4B",
" . c #B77947",
".. c #A97C54",
"X. c #AF764D",
"o. c #917360",
"O. c #C27E44",
"+. c #BB822C",
"@. c #BC8234",
"#. c #B5823C",
"$. c #BC833C",
"%. c #BD8A3D",
"&. c #B68335",
"*. c #AE823B",
"=. c #BB821C",
"-. c #C28434",
";. c #C2843C",
":. c #C38A3C",
">. c #C78A39",
",. c #C58B34",
"<. c #AD8249",
"1. c #B58344",
"2. c #BB8443",
"3. c #BD8A44",
"4. c #B4834B",
"5. c #BB854B",
"6. c #BC8B4B",
"7. c #B58A4A",
"8. c #BD914B",
"9. c #AC8457",
"0. c #B48453",
"q. c #BB8553",
"w. c #B58A54",
"e. c #BC8C53",
"r. c #B58B5B",
"t. c #BC8C5B",
"y. c #B6855A",
"u. c #BD9254",
"i. c #BD925C",
"p. c #B9955B",
"a. c #AE905E",
"s. c #AA8867",
"d. c #B78C64",
"f. c #BC9363",
"g. c #BB9669",
"h. c #BB9975",
"j. c #AC8F75",
"k. c #A79074",
"l. c #C28543",
"z. c #C38B44",
"x. c #C38C4B",
"c. c #CA8D4B",
"v. c #C68848",
"b. c #C49245",
"n. c #CA9344",
"m. c #C4924C",
"M. c #CB944C",
"N. c #CA9A4C",
"B. c #D2984B",
"V. c #C38D53",
"C. c #C38D5B",
"Z. c #C78B55",
"A. c #C49354",
"S. c #CA9454",
"D. c #C59A54",
"F. c #CB9A54",
"G. c #C4945B",
"H. c #CA955B",
"J. c #C59A5C",
"K. c #CB9B5C",
"L. c #D29C5C",
"P. c #D39956",
"I. c #D18D52",
"U. c #CDA25D",
"Y. c #CBA156",
"T. c #D3A25D",
"R. c #D6A459",
"E. c #D3A34F",
"W. c #C39463",
"Q. c #CA9563",
"!. c #C59B64",
"~. c #CB9C63",
"^. c #C3956B",
"/. c #C49B6B",
"(. c #CB9C6B",
"). c #CA966A",
"_. c #D29D63",
"`. c #D39C69",
"'. c #C49C73",
"]. c #CB9D73",
"[. c #C59B78",
"{. c #CA946A",
"}. c #CCA264",
"|. c #CCA36C",
" X c #C8A46B",
".X c #D3A364",
"XX c #D3A46B",
"oX c #D4AA6C",
"OX c #DBAB6C",
"+X c #D8A767",
"@X c #C5A274",
"#X c #CCA473",
"$X c #CDAA74",
"%X c #C5A37B",
"&X c #CCA47B",
"*X c #CDAA7C",
"=X c #C5AA7C",
"-X c #D3A473",
";X c #D4AB74",
":X c #DBAC73",
">X c #D3A57B",
",X c #D4AB7B",
"<X c #DBAD7B",
"1X c #DAA575",
"2X c #DBB37C",
"3X c #D8B278",
"4X c #D9B26C",
"5X c #E2AD77",
"6X c #E3B579",
"7X c #E2AE6B",
"8X c #E1A25C",
"9X c #EBC17A",
"0X c #AD9B8C",
"qX c #B8A593",
"wX c #B7AEA9",
"eX c #9C8F86",
"rX c #CCAB83",
"tX c #C9A887",
"yX c #D3AD83",
"uX c #D7AC87",
"iX c #CDB28A",
"pX c #D4B284",
"aX c #DBB384",
"sX c #D4B38B",
"dX c #DBB48B",
"fX c #DCBA8C",
"gX c #DBBA85",
"hX c #CCB396",
"jX c #DCBB94",
"kX c #D7B897",
"lX c #CCAC93",
"zX c #E3BB8C",
"xX c #E4B886",
"cX c #E3BC93",
"vX c #E4BC98",
"bX c #E4B185",
"nX c #D8BCA3",
"mX c #C7B9AC",
"MX c #D6AF94",
"NX c #DCC19A",
"BX c #DDC28C",
"VX c #E7C28B",
"CX c #E4C39C",
"ZX c #E8C497",
"AX c #F2C797",
"SX c #DCC4A7",
"DX c #DAC7B5",
"FX c #E7C8A7",
"GX c #E7CCB4",
"HX c #EBD3B8",
"JX c #F4D6B7",
"KX c #F1D0AA",
"LX c #F9E0BD",
"PX c #EED8C6",
"IX c #F8E5D1",
"UX c #DFD8D3",
/* pixels */
"0XeXqXlXtXrXrX=X$X$X$X@X$X;X,X3X*X$X$X*XpXpXgXBXgX$X3XgXgX3XgXBXCXCX=Xw.*.I I &.m.T.OXoXU.Y.Y.F.S.F.D.oX2XgX$X XW.b.m.:XxX2XJ.#.%.@.@.%.z.Q i y d +.;.;.Q :.K.XX~.J.H.v.D @.L.6X:XL.n.>.-.+.-.n.E.B.:.>.,.>.B.B.>.>.,.G -.>.P.7X6XR.%.:.>.n.N.T.oX.XL.L.K.6.T H U 4.4.{ J M W 2.l.n.:.z.m.F.F.F.3.A.xXKXcXyX@X@X X(.~.G.i.J.}.}.}.J.J.D.K.~.}.|.$XpXcXdXrXrX>X-Xe.T L P ~ ~ 1.5.G.XX-X!.W.,XxX Xe.1.8.D.8.D.K.2X;Xw.z 7 5 i F z.M.:.D b u u q 5 5 3 5 y a a q 3 $ 0 S.1X-X1XbX,X~.e.#.D F F F b 5 5 w w A G ^ ~.cXAXjXkXjXkXrX=XsXcXyX^.W.XX<XxXxX,XdXfXpX@X!.!.J.e.C.(.W./.2XaX,X#X~.m.2.~ P Z ' (.uXW.5.v.l.l.^ W C x.+XT.3.#.S..X+X:X:X3XVXZXfX2X2X2XoXA.#.W D @.,.,.+.>.n.n.D.R..XT.R.R.D.z.;.-.F Q >.>.B.8XR.n.:.n.n.n.:.m.XXaXdXpX,X2X X#XxX-Xl - 0 c m 1.J.<XzXgXpX*X$X2X;X~.~.H.A.K.~.XX:X:X;X|.w.6.A.V.4.t.pXFXCXrX#X#X#X,XaX(.A.c.S.m.e.~.XXG.e.G.-XaXcX*X|.XXK.6.3.S.K.K.F.m.N.N.R.F.F.m.A.XX:XXXJ.6.%.x.S.m.N.n.D.~..XK.F..X}..X.XW V $.;.z.K.xXxX-X!.r.%XFXIXIXIXDX[.!.G.A.6.D.D.G.H.}.4XK.A.1.I ~ t.~.|.;X;XoX:X3XoX2X2X:XXXXX_.K.W r Z N.}.3X2X!.3.m.b.%.%.x.K.F.&.W +.G A &.m.5XOX6.P E x.oX;X:X|.",
"0Xk.k.h.h.@X=XrX$X@X X XoXoXoX XU.7.R Z *.1.6.8.w.p.3XVXgX X$XfXFXKXjX XJ.A.8.b.D.U.oXoX.XU.T.Y.N.b.8.U.2XVXZXZX;Xu.D.:XxX<X!.6.3.%.z.b.n.:.A p d G F F Q z.5XVXxXXXS.z.A Q L.6X.Xx.:.,.d d ,.8X7X7XR.B.>.>.n.n.>.>.,.,.-.,.n.7XzX2XK.b.:.:.F..X}.K.K.S.A.e.7.| } ' n j 9 8 M ~ ~ W Q :.z.M.F.F.m.A.-XxX,X/.!.~.oXoX}.J.J.}.}..X}.J.D.U.}.XXoXoX X2XfX,X/./.'.|.~.' P 2.6.7.1.5.G.;X<X-X!. X;X!.u.6.A.S.A.A.~.6XxX~.Y k v $.S.K.OX+XS.^ ! ! / v q 5 u F ) / i 3 & 9 _.bX(.A.J.G.A.A.x.3.%.;.;.Q u 5 y i B Q $.c.-XpXjXGXHXFXtXh.'.^.0.U L 6.XXxXxXaX<XpX#X!.u.7.3.6.C.G.G.(.xXgX#X/.A.2.Z r k P q.<XbXW.C.x.J k b S E m.OX+XF.A.F..X:X:XXX}.3XaXyX*X,X,X XJ.u.6.3.%.:.@.Q $.z.M.M.b.m.F.P.N.z.Q -.-.G A -.-.-.M.P.n.B.R.R.n.b.P.OX3X,X$X$XoX|.;XxXoXI 7 9 c m L 7.#XzXZXCXjXfXzX;X!.V.1.1.6.F.K.|.;XgXcXuX!.G.u.e.G.aXzX'.f.^.!.(.<X<X1XQ.XX1X-X#XaX#X<.w./.*XCXFXjX,X/.A.1.6.K.OX6X5XS.F.+X+X+XF.x.x.A.J.J.A.&.6._.XXJ.D.N.K..XOX.XU.+XOXK.b.d y A S &.8.K.J.A.u.0.d.'.lXGXFXfXp.w.G.J.7.w.p.i.~.~.XX}.K.A.6.S.J.J.}.:X;X+X4XoXoX4X.XU.K.K.R.D.Q W F.6XzXZXzXXX6.F.D.3.b.z.&.C V D >.:.b.D.K.OXT.2.I #.e./. X X|.",
"wXeXj.h.%X=XpXpX X!.}. XoX}.oX4X X7.v r v I &.W I #.}.2X3X}. XgXZXKXjX*X;X:X}.U.}.}.}.}.U.U.U.F.b.n.:.m.}.2XFXKXpXp.u.~.}.~.|.|.J.b.m.N.P.n.+.G F @.F +.F :.+XzXzX<XS.Q A F B.P.x.&.@.F y y s >.P.R.P.M.n.,.+.+.,.,.-.-._ ,.n..XzXzX;Xm.z.N.4X4XoX~.F.A.H.~.1X5X_.{ E E N S c.H.2.W Q -.z.z.M.M.F.J.W.|. X~.J..X,X2X;X}.U.Y.U.T.R.F.D.}.oXoXoX}. X<XaX,X/.g./.|.!.6.1.6.A.A.6.1.V.).~.J.u.J.}.}.~..XT.K.A.m.H.;X6X1XV.1.2.S.+X:X5X5XK.x._._.Z.{ S / ^ v.I.O.B 5 2 u `.5X_.m.z.V.b.m.A.S.M.z.;.F S i B S / / ^ ^ 4.w.sXJXPXPXkXh.!.V.! m Z 1.+X:X-X-X;X;X}.u.8.7.1.1.{ T 6.|.xXpX].G.x.&.C r b ^ H.bX5XW.G.x.m 9 C Q $.c.L.T.T..X:X+XoX|.oX}.oX;X*XpXpX$X$X#X|.J.D.A.m.3.$.&.z.M.c.3.3.:.:.@.+.F -.-.G A +.+.@.M.c.n.P.F.F.n.b.S.XX2X;XoXoXoX}.XX2X|.T P ~ P l 9 P e.|.aXfXyX$X#X#XW.G.6.2.b.z.z.3.m.-XaXuX^.f.W.i.i.W.f.f.t.y.i.G.|.Q.!.!.-XyXuXiXrX*X@X@XrXsXkXkXjXdX,X}.F.T.}.5X6X+Xx.m.5XxX2X~.K..X.X}..XF.3..X6XbX].!.K.}.oX2XXXK..XOXS.%.t y i Q b.3.3.6.6.A.x.5.w.f.h.i.<.I 1.A.~.|.rXsX*X-X!.G.~._.~.A.J.XXK.J.}.A.%.&.&.D.T.m.m.m.m.L.K.z.m.+X6XxXaX;X}.A.D.m.A.T.n.D V A -.>.b..X4XoXK.M.~ #.!.$X@Xg.h.@X",
"mXwX0Xh.%X*XpX*X$X X X XoX X;X3X X8.v r D 3.m.$.I &.b.F.U.J. X,XgX,X@X/. X;X3X2X3X:XoXU.D.U.F.N.N.N.b.b.Y.2XFXKX3Xp.u.H.K.K.3XxXoXD.m.M.m.b.:.z.n.:.@.@.@.%.b.H.-X:XS.C i _ >.>.>.,.-.F p w 3 5 N G D G F V p y 5 y y s -.,.P..XaXVX2XY.m.Y.6XVX:XJ.6.1.A.~.XX_.4.{ ^ Q Q ;.P.P.$.;.F G Q @.:.B..XoX$X,X2X,X|.|.;X;XXX.XU.F.N.N.F.Y.Y.OX:X:X}.}./.,XaXaX*X$X X X!.7.' 4.H.G.5.~ 1.6.6.6.3.G.XX3X|.}.U.K.A.D.D.K.oX2X2X_.F.M.F.R.4XF.m.m.H._.G.5.x.2.2.H.H.c./ u 9 N v.C.6.$.{ q.6.A.G.V.x.c.l.$.E Q l.2.2.2.^ E c Y f.FXIXGXsXg.G.5.^ %.z.m.+XXX}.~.~.J.!.J././.!.G.' T 1.A..XXXH.V.x.l.E b Q v.V.XX-XQ.G.A.^ M $.;.@.:.M.N.F..X+X4XOX.X}.oX|.$XsXFXjX*X<XgX<X X|.XXXXJ.A.A.S.F.S.m.z.Q A i A A s s -.-.-.,.n.S.P.M.M.b.A.b.z.c.|.xXVX X}.U.}.~.;X}.1.x.S.Y k 7 k I 1.A.A.e.e.H./.;XXX~.u.6.1.I P ~ V.Q.(.i.W.-X,X/.!.f.#X@XW./.>X;Xw.R 6.~.,XfXsXsXNXFXFXFXFXkXkXfXfXZX$X.XK.G.~.K.A.2.m.XXxX~.1.A.6X6XXX~.A.A.XXbXaX>X#X/.~.3XzX;X}.~.~.x.%.p p Q P.OXK.A.A.x.x.x.v.m.A.4.T k u C &.G.dXGXFXjXdX@X/.XXOX3X|.!.~.J.K.J.3.v p D n.F.S.J.XXoXXX~.F.D.F.F.A.6.6.3.z.b.z.x.T.m.W D -.:.:.3.U.4XOXF.z.~ A.gXKXFXkXsXiX",
"UXwX0X0X%X@X=X&X$X$X$X X!.p.}.U.8.%.V D Y.4X4Xm.%.%.&.&.&.u.!.$XoX X X}.}.}.-X,X;XoXU.K.K.U.K.N.F.N.%.3.U.VXKXNX*XJ.G.A.A.U.gXZX3XJ.m.M.x.z.m.M.n.z.z.c.z.z.$.7.G.L.z.b p A -.,.>.>.@.F a w 5 9 N ^ ~ P P C p t 5 2 3 5 F M.7X6X2X2XoXU.F.U.:X2X:XJ.7.L ~ e.V.{ P I ^ / / / Q S A F -.G A G @.n.OX6XVXzXVX2X|.|.oX}.J.K.K.K.K.K.D.m.U.4X2X4XoX}.J.;XaXgXgXgX,X/.G.6.Y H 4.5.! P D ^ $.%.3.~.2XxX Xu.D.K.S.S.A.A.G.~.:X+XS.^ D %.:.%.W 2.1.1.Z.V.C.Q.Z.5.} ^ M q 0 8 | f.y.y.d.d.d.t.d.t.V.V.v.z.v.P.L.L.F.L.S.~ u m 4.#XcX*Xt.4.2.~ l.c.S.F..X+XF.m.7.7.}.xXcXjXsXyX!.1.#.T W P C W v.M.^ E l.x.x.V.H.~.Q.H.x.} l.$.^ ;.z.z.m.D.F.F.F.+X}..XoXpXCXKXCX&X*XdXpX;X-X1X-X-XXXXX~.J._.D.z.:.@.V A s d s _ -.-.B.7X7XH.x.2.x.S.S.6.1.-XxXaX XY.F.U.J.+XF.&.V v 9 9 Z 3.J.e.A.1.T ~ ~ 6..X:XJ.J.u.{ Y K T 4.e.w.<.t.uXcX&Xt.0./.-X/./.pX<X4.z Y e.(.>XpXjXFXFXFXFXFXFXjX*X,X@X#XF.F.H.A.m.S.z.b.F.:XA.T 1.OX<XXX~.A.A.u./.^.(.|.t.t.,XVXaX-X(.G.$.D d a ;.L.1X_.S.c.v.$.l.v.z.m.2.W u q y I G.CXHXGXFXvX*X X~..X3X;X|.}.}.}.}.6.P v ~ n.K..XXX,X,X#X!.G.6.3.&.I C W W F @.%.%.m.3.6.K.F.b.@.%.M..X+XF.3.6./.CXIXIXPXHXkX",
"UXwXeXk.h.h.=XrX=X$XgXgXg.<.7.&.+.A d W .X6X4XF.z.b.&.&.%..X|. X XoX XJ.u.D.J. XoX}.A.D.K.U.T.R.Y.E.b.3.}.VXZXjX$X}.G.5.6.}.zXKXgXJ.6.c.x.b.n.n.n.%.x.P.L.H.5.5.v.v.:.A p i F ,.>.>.@.Q G q 9 ! <XVX3Xe.5.H..XXXH.1.l 9 m H.6XxXzXaX;X|.K.K.~.~.~.H.&.k I x.2.I P } c.} n 8 8 u i A A A A F +.:.M.A.|.|..XA.7.u..X~.~.~.H.H.XX,X!.7.K.OX:X+X+XJ.D.oX3X3XgXzXgX-XG.{ k 8 Y J k c V C W @.z.XXbXbXJ.7.b.F.H.Z.x.5.4.} 5.l.~ ^ ^ ^ ^ ~ v.5.4.| 4.).].W.e.1.! P m 8 - g '.GXnXnXSXnXMX[.h.g.0.T I W v.I.P.P.P.L.S.$.S S ~ 1.4.' H n C W c.S.L.+XF.D.c.6.T 1.!.ZXFXjXjXvXyX!.e.1.e 2 4 e } P.v.5.V.A.6.5.5.V.J.J.S.S.x.l.$.$.%.z.m.m.m.D.m.A.K..XXX>XZXcX*Xg.g.&X,X/.G.G.G.|.XXXXXXoX.XD.b.b.:.@.>.@.i d s -.;.M.T.OXH.2.W c.`._.V.5.|.zX|.J.D.R.F.T.T.m.W 9 4 2 7 2.2XAXdX#Xt.e.7.I ~ x.5.G.!./.w.4.4.1.4.4.] ' r.&XdX].0.4.G.#X^.^.-XG.T k m ~ H.~.#XZXFXlXtXtXrXjXyX$X>X@X^.J.S.H.6.m.K.D.m.K.J.3.T #..X:X~.A.8.F.G.!.i.i.i.' [ (.aXaX#X-X(.#.v y s @.x.H.H.m.z.z.$.$.;.;.z.z.D t 5 5 &.;XFXKXFXGXCX=Xp.6.G.;XgX3X,X#X;X,XJ.6.7.6.A.~.~.(.(.#X;X(.!.6.#.W S b i i A D %.z.m.A.XX6XoXb.&.>.n.F.K.F.e.7.g.NXIXIXIXIXDX",
"UXwXeXk.h.h.pXfX*X*XCXKXsXa.R V d d s @.K.OX.Xm.b.b.%.:.E.4X2X;X!. XoX Xp.7.7.w.G.K.}..X}.U..XT.T.N.b.D.U.}. X,XXX3.^ ~ 2.K.xXZXgX}.3.3.z.b.n.M.:.Q $.S.+XT.l.~ l.z.z.@.D Q ;.;.$.:.@.B p 9 I 1XKXJXsXd.t.].ZXKXKXjX@X7.T 5.Q.`.<X2X<XXXH.H.D.F.+XL.E e 2.L.x.E E L._. .{ { E Q @.Q D W $.@.Q +.@.$.7.6.x.3.&.$.6.A.K.A.6.u.;XzXsXg.W..X+X.X.XD.D.}.oXoX;X;X;X~.e.P r 9 P P c c b S Q @.z.H.-X-XG.7.6.G.Q.Q.G.q.5.4.! J J } V.v. .5.Q.-XW.f.pXdX%X'.W.4.! m 8 0 2 z uXPXGXDXPXHXDXkXkXsXd.l 7 9 8 c c N G ) ^ Q S Q 2.W M k 8 M ^ 2.m.F.T.K.#.#.2.7.T T w.,XdXuXrXjXfXdX,X-Xl & 2 8 ^ L.H.V.H.K.~.G.V.V.H.H.A.H.H.V.x.3.m.F.L.m.7.3.2.{ x.x.A.1XdX#Xf.d.r.i.!.t.<.4.e.J.}.}.;X3X;X XK.b.%.b.+XT.2.v D ;.z.z.S..XF.&.W x.S.6.5.6.}.xX|.A.S.D.T.6X.X2.m 4 & & 7 x.xXJXJXsX!.A.m.1.^ 1.G.&XFXCXiX[.^.W.r.d.f.t.^.].rXd.r.W.(.].(.r.w.4.5.{ { { A.J.!.fXKXNXtXg.g.f./.&XdX,XW.H._.H.K.K.~.J.J.-X(.A.T &.Y.+XK.m.D..X2XaX#Xi.4.T T e.Q.(.#XgXgXG.R v E Q 2.V.x.3.:.$.Q S D W ;.z.G y y p z.2XZXZXjXfXyXf.1.1.G.gXVXxXpX>X,XfX,X,X,X@X=XpXdX@Xf./.;X:X;XG.{ ^ / A p p D :.M.K.OX6XVXxX~.6.%.n.n.m.F.K.u.8.p.sXFXPXIXIXIX",
"UXwXeXk.h.g.=XpXrXiXFXJXHXrX' v V d +.&.3.D.F.%.%.b.b.N.E.oX2X;X X X$XpX;X}.i.w.}.2X6X2X}.J.+X4X.XF.D.D.F.D.6.A.1.A D D @.3.J.}.|.+XM.z.b.m.N.n.%.@.%.:.:.:.@.Q ;.z.l.l.v.c.B.n.2.$.@.i 5 u A.cXGXFXtXd.| f.sXKXJXHXSXpX7.L Y T ' 4.e.e.G.S.A.D.K.M.V V M..Xv.P E v.V.q.(.<XJ.6.;.M.M.P.L.n.-.@.>.:.z.x.c.M.z.$.&.3.m.u.G. XdXFXFXtXr.H.K.}.K.T.XX-X,X;X(.i.e.1.H 9 4 4 e k c C S S W W z.V.G.G./.(.|.#X|./.~.u.i.Q.W.t.t.q.q.} 5.q.`.uXyXFXKXFXiX*X].H.! 9 2 2 9 V.kXPXDXnXDXDXDXmXDXFXh.x 2 2 2 < < 3 5 i S G / Q Q / E W ^ m z.P.n.m.m.&.I W 2.2.1.{ 4.0.f.f.f.'.yXjXCXvX[ % & g 2.`.`.S.K.XX;XXX_.K.K.J.F.A.A.K._.L._..X.Xe.5.5.2.} ~ ~ 7.~.,X#X@X&X/.i.!.W.t.W.|.;X2XgXZXZXZXgX;XA.1.D.VXVXK.Z %.z.z.3.x.A.x.%.:.3.1.P 7.A.OX:X(.Q.A.A..XoXK.~ 9 2 & & g x.:XFXFX Xw.8.m.A.e.(.uXSXHXJXkXh.'.h.h.sXjXjXjXnXkXiXpX#X&X^.@X#X'.'.@X^.(.(.Q.e.t.#XZXCX*Xf.y.t.d.@X/.t.5.u.}.J.H.}.XX|.|.,X>X(.~ &.m.+X.XF.H.).aXxX>Xd.4.5.1.1.x.V.Q.pXcXaX(.e.5.5.2.5.5.$.W E W ^ 2.2.M.c.Q y y A ;.L.XX#XW.t.y.' R { G.pXpX#X/.XX,XfXsXjXHXPXGXFXFX/.0.f.|.:XxX~.{ ^ Q F b A @.n.F..X:XVXcX>Xi.6.z.n.N.F.D.D.D.N.A./.%XkXGXPXIX",
"UXwXeXj.=X#X@X@X*XsXNXHXJXfXw.R &.3.3.b.D.U.F.3.%.%.:.b.b.F.}.;X$X$XpXgXfXdX Xu.J.2XVXxX XJ.oX4XoXoX.XK.D.m.%.D D D @.&.%.&.@.%.m.P.R.b.m.m.n.n.-.@.-.@.@.@.F +.%.:.:.;.v.M.M.z.@.Q F A u P XXzXuXg.0.] { { G.aXHXJXHXcXW.H m ! ! P P I x.S.S.m.x.W S $.L.L.^ u N v T !.,X2XA.~ 2.S.T.T.B.Q Q @.z.z.S.L._.L.H.S.n.m.A.J.-XcXGXPXPXNX'.t.J.Y.}.6X6X2XaXyX/.w.4.*.Y k 4 2 4 4 c ^ ^ W ~ ~ 1.e.G.!.yXFXKXCX=X&X$Xf.W.-XbXzXuXC.{ { 5.H.`.yXyXFXKXGXnXdXuX>XW.e.H m ~ W.kXHXnXhXlXtXtXlXnXlXd.l 0 2 < & 2 3 w y A S Q Q Q C $.L.2.P 2.T.L.m.&.&.%.c.m.6.e.e.w.G.G.5.I T y.>XvXZX] % & 9 E x.H.H.(.>XaX2X X X|.~.~.H.H.~.oXXX~.~.J.e.5.5.3.} 2.P m 5.<XcXcXjX<X#X X#X#X#XaXfXZXAXZXFXKXKXdX!.A.~.VXAX#XT 3.x.x.m.m.A.x.#.b.e.7.7.u.~.-XJ.Q.2X|.7.x.K.S.I 7 & & & m 2.G.xXcX!.6.6.6.H. XpXFXGXHXHXkXqX%XiXkXFXFXnXFXGXFXFXjX^.f.f.'.dXdXsXyXuXaX`.4.T 1.t.].'.f.y.d.^.d.y.4.U [ t.|.i.H.;XgXZXcXjXfX-X<.I %.T..XK.8.G.2XcX#Xy.4.6.x.~ ~ 0.C.(.aXjXjX>X'.W.G.5.} } 2.~ z.b.b.m.L.B.-.G A F @.2.G.W.4.U L Y { q.W.|.G.' 1.H.-X<XrXkXIXIXIXPXFX/.] e.H.}.XXK.S.3.@.D D %.:.M.T.}.|.;X$X!.e.A.S.D.F.U.K.J.D.U.D.7.w.g.tXFXHX",
"UXwXeXh.@X@X@X@X$X*XpXjXjX,XJ.7.D..X+XU.D.J.}.D.3.&.&.b.b.N.U.oX2XdXfXfXfXfX*Xp.p.;X3X}.J.J.U..XXXOX4X.Xm.%.+.D :.n.b.:.:.z.z.z.z.b.B.N.N.N.n.>.-.-.-.+.@.@.@.@.-.;.;.;.$.$.@.D V i A A b W H.-XW.4.{ ~ ^ W I J.cXFXvX].e.K { Z._.2.^ W z.P.L.D.z.W E n.L.L.$.u u M x.xXzX;X7.I z.z.M.n.S u i Q v.c.J.:X6X:X~.}..XXX-X,XaXZXGXHXHXKX>X0.H.m.D.:X-X(.(.(.f.y.q.C.S.2.9 - - 4 c ~ ^ } x.H._._.G.G.kXJXIXHXlXuXuX>X^.(.-X>X).q.{ q.G.-X-X>X@X*X*XyX,X!.e.C.xXZXcX%X/.'.rXsXsX&X[.h.h.tXiX'.] H g 0 < & < 2 3 q A G B Q / E 2.v.^ P 2.F.K.b.3.A.~.~.K.H.!.(.(.~.A.7.Y l z 4.|.#X[ & 2 9 M ! V.XXxXvXjXfXjXCXgX!.}.!.K.K..X.X~.H.J.G.5.x.2.! M v 8 P XXzXzXpX,X-X(.].>X2XzXgX,X3XdXCXZXZX,X!.H.~.3XaX~.A.A.x.A.~.K.K.V.T F.;XaXaX;X,X!.6.G.2X;X6.1.6.A.~ 7 & & 6 Y c.G.).XXG.6.V.G.W.@X@XiXFXGXHXSXtXtXkXkXlX[.h.[.jXvXiX^.y.] ' W.xXjXuXrX>X(.6.I #.e.~.W.t.r.'.FXCX[.y.] U ' ).(.w.G.,XuXjXjXjXFX,X1.Z @.L.+X.XA.G.<XxX#X4.4.A.c.2.^ q.t.q./.kXkX%X[.(.~.A.5.7.x.K.7X.XM.x.M.z.:.z.z.@.V P e.-X^.0.q.5.{ 4.e.G.1.L Z 3.D.~.#XrXnXHXIXJXsXw.6.V.x.V.u.K.+XS.2.Q ;.P.R.T..X|. X X!.w.6.A.F.D.F.K.U.}.K.K.A.7.4.w.r.'.h.",
"UX0Xk.0X%X@X@X X X X X Xg.g. X!.|.;X:XoX X X X;XoX3.&.b.N.N.D.U.;XxXcXsXsXsXyX$X X XoXJ.u.8.6.b.D.F.T.R.m.%.+.D :.n.n.:.b.n.b.b.:.@.:.n.n.B.n.@._ F F +.+.-.-.-.-.>.n.%.D D A i p y p A G Q x.H.G.6.6.1.^ E m { 6.e.T k e S / x.c.2.W E @.P.7X+Xz.:.;.c.S.S.z.C C m..XxXBX;Xu.6.z.:.@.G p u b Q x.H.OX5X:XG.4.A..XOX:X<X2XfXfXfXjXfX#XG.A.m.6.1.T l l L T {  .Z.S.5.k 2 4 4 8 M Y 2._.:XOX`.t.t.<XFXKXjX%X X;XXX!.e.1.' H P ~ H.XX<X<X,X(.!.W.G.7.[ T l C.vXJXsXsX*XyXuXyXyX'.[.g.&XyXW.Y H n g 0 0 0 3 5 c B b b b S ^ l.^ ^ 2.2.S..XF.A.(.aX|.H.G.!.W.W.G.6.~ ~ P m m ' T g 6 0 q j H | (.zXFXvXyXjXFXzXG.K.Q.~.~.|.-X:XQ.~.(.6.I c j c q 8 v 6.XX X~.}.XXQ.(.&XaXzX,Xf.p.!.#X@X/.W.t.e.e.G./.|.|.H.H.~.XX~.}.G.7.}.ZXKXFXcXgX X7.i.;X|.G.4.6.K.6.7 & 2 6 ! c.Z.5.1.5.e.V.(.].].].=XlXGXHXHXkXtXtX[.s.....y.f.f.y.[ Y H K e.<XdX'.f.w.5.1.6.D.<X1XW.r.h.GXIXHXh.9.e.6.e.(.(.q.4.p. X/.$X=X@X|.x.I @.c._..XK.G.).(.G.e.6.A.c.5.x.H.C.4.f.jXlXh.d.W.G.H.e.e.H.OXXXS.%.W D W x._.H.%.C P { `.1X].].C.' 1.H.~.7.W E $.l.2.{ [ ' t.@X&Xf.7.m.S.m.A.D.S._.+X_.S.M.R.7X+X.X|.3XpX$X!.G.A.F.6.8.D..XoX;X Xi.6.7.6.7.w.e.",
"UXwXk.j.%X@Xg.f. XJ.7.7.u. X,X,X,X$X;X;X,X,XpXVXVXp.1.8.m.Y.F.K.~.3XgX,XpXpXpXpXfX2X$X}.J.3.&.&.&.&.&.3.n.b.%.@.z.n.n.b.n.N.n.n.b.:.@.+.@.:.>.@.F G F +.-.-.-.-.@.@.M.M.%.D i a i i A F Q Q $.l.l.2.$.2.^ Q D v 8 5 2 3 5 G +.Q @.Q A V D m.+X}.D.F.S.S.A.F.D.3.6..X4XgXgX$X}.J.v.;.Q G A V S ;.M.S.K.J.x.^ W ;.z.S..XXXoXoX|.|.(. X}.D.F.M.$.m c e v m W ~ } { } { l g k 7 2 9 J 5.K._.~.G.e.e.e.i.i.t.w.G.~.~.}._.x.I v 9 S P.:X5X-X).G.e.V.H.q.Y K 6 g C.bXcXuXuXfXvXkXjXjXiXrX&X).{ k Y q.5.V.Q.H.{ m E ~ W I P ^ 2.$.^ 2.2.x.S.+X~.!.<XxX(.e.7.G.J.G.e.{ H ~ v.l.2.} P 9 6 8 j g K | q.C.).G.4.G.-XXXXXXXXX~.~.XXXX.X6.V..X~.~ v c N u i b W A.~.}.}.}.~.~.,XaX<X/.i.t.!./././.f.W.e.e.e.i./.~. X;X:XoXoX~.Z.1.D.VXJXFXjX>XJ.e.W.-X-X).t.w.Q.x.7 - 2 7 ( v.Z.2.^ v.V.e.!.^./.,XyXsXSXHXHXSXlX[.%X[.d...y.y.] ] U m H ' t.(.%X^.i.e.{ V.XX<X-X^.t.r.sXPXIXnXs.d.!.G.t.^.W.[ Y 4.t.i./.f.0.q.5.W V C 2.M.S.A.V.4.5.V.m.m.A.V.H.+X~.4.W.AXCX/.| q.e.G.G.A.G.V.x.$.D i r C m.:X).~ P Y ' C.(.^.d.q.' q.-X-Xq.v.z.W C u 9 9 9 e m 1.6.A.K.T.R.F.F.S.P.L..XB.z.b.L..X.XoXgXZXgX;XXX~.F.u.7.A.~.#XgXaX Xu.8.8.7.7.w.",
"UXwXeXj.%X*X@X!.p.p.7.7.}.gXVXBXfX,X$X*XfXCXjXNXZX*Xi.J.A.F.U.U.U.oX;X,XfXjXfXpXfXVXgX;X|.u.*.I +.D D &.%.z.3.%.3.z.b.b.N.m.N.N.N.n.:.@.@.:.,.-.-._ F F F -.-.@.F @.P.+XP.%.V i A G Q ;.z.$.^ Q $.;.%.$.$.Q _ b 5 3 3 p F F @.C A G s s A z.+XXX}.U..X.X.X+XT..X}.3XVXZXCXgX2XK.v.$.Q $.;.Q z.M.x.c.A.6.&.W Q ;.%.b.F.R.T.F.A.S.6.8.D.N.N.P.z.E V W $.^ } ~ ~ E ! ~ Y K l 2 & 2 J c.M.x.A.H.H.G.T l k Z #.A.A.~.~.OX7X.X%.5 p M.`.`.H.5.} ~ { ~ Z.H.^ g 0 l 4.W.W.W.>X*XiXiXvXsX].Q.q.g 4 4.>X,X3XzXvX>XC.q.W.-X<X1XG.5.^ $.l.v.A.K.OX~.e.K.:XQ.e.e.J.J.G.{ l l P v.x.Z.V.{ 8 2 0 n J V.} n 6 0 6 2 9 I ~.xXxXxX;XXX+XF.3.Z I S.5XS.P E W @.;.;.z._.6X2X-XW.!.|.2XdX&X/./. X;X,X<X,X@X].^.e.e.H.!. X;X,X~.D..X_.Z.I #.XXzXfX;Xi.4.4.).;X1X(.t.w.Q.x.7 & & 6 ( x.4.$.@.z.C.W.#X;X@X&XfXjXsXkXSXGXkXd.h.cXjXtXiXrXr.0.0.<.e.~.#X(.!.G.H.A.V.G.`.`.6.0.q.0.].KXvXh.d.f.W.G.W.W.4.L T V.G.!.|.~.e.{ 6.3.r 4 9 C W ^ } x.c.x.6.m.K.H.H.H.5.L 1.~.-Xt.Y 1.A.~.~.G.A.1.v v V b b ^ K.2X].4.T K K { e.W.).0.[ y.>X>Xq.4.x.2.D p 5 w u b b v.+X:X6XOXR.m.%.$.$.$.$.G b D z.F.K.oXfXZXdX X}.}..XJ.J.D.G.>XZXZX2X!.u.6.6.u.G.",
"UXwXeXk.tXjXfX@Xp.J.u.6.|.VXzXfXpX*X X#XfXCXkXrXpXyX#X!.i.}..XoX}.}. XfXZXjXyXrX*X2XgX2X3XoX6.~ @.%.z.z.%.3.m.m.A.A.D.D.F.F.R.U.K.F.F.z.@.%.>.-.-.-.-.F F -.-.G i S n.L.L.v.S b A F Q ;.v.z.$.@.F F Q Q Q A F ) G i A ;.B.P.c.z.;.F F G s :.T.OXoX}.oX1XXX+XOX6XgXgXVXKXCX,X}.A.v.^ ^ l.v.S.T.M.2.c.S.A.M.M.z.N.F.D.D.F.K.D.b.m.D.m.b.N.N.+XM.&.C E 2.Z.V.4.{ P ! ~ } T 7 & % & m v.z.z.A.K.XX_.3.v r V $.M.m.A.V.V.+X7Xc.5 5 b ^ / S v 9 u E 2._.L.2.} ! c n H K ' 4.' ] ] f.t.0.{ K 2 7 XXvXdXpXvXCXcX(.(.>XzXKXFX(.5.^ Q ;.M.~.XX:X~.1.%.D.A.u.G.W.Q.G.U 9 m ~ 2.Z.Z.Z. .M 9 0 J } L.^ 7 < & < < & 9 Q.vXAXpXXXXX_.2.P P ! v.L.S.x.S.S.z.n.c.M.L.6XxX;X~.}.|.$XgXyX#X|.,XaXaXpXdXyX@X/.W.G.H.!.|.2X<XG.#.m..XZ.P C 2.H.J.3.T I W e.~.(.~.t.1.H.5.6 & & & M I.x.2.3.A.W.-XaXxX>X*XdXsXsXiXhXGXjXd.9.fXHXHXHXFX[.d.&X,X,X,X|.u.6.J.T.L.F.3.7.x.3.6.e.e.e.0.0.4.0.W.).G.H.K.#.Z 4.).(.<X*X!.e.e._.m.e - 2 4 9 e ~ _.+XA.6.6.F.K.H.A.5.P P #.6.T I ' 6.~..X).Q.5.#.~ E J E l.`.cXvX>Xt.z l H Y e.(.q.X.t.(.W.1.7.Z.v.W i p G A V M 2.5XxXOXM.@.D C S E b r 3 5 V :.m.D.}.VXAXpX!.u.A..X}.}.A.i.uXFXZX*Xp.u.u.J.J.J.",
"UXqXk.k.tXjXjX@Xg.p.7.7.}.3X,X=X=X$X X/.#X*XyX*XpXfXyX/./.|.|.|.;X|.#XzXZXaX$X*X@X X X X;XXX1.C Q z.P.F.b.D..XXX}.~.}.}.K.J.~.K.~.K.K.m.3.%.@.F F F F F F _ F i y y b $.l.^ S G G G Q ;.;.;.Q F A a a A F G A -.;.@.$.l.S.7XL.T.P.;.$.-.F :.F.5X}.A.~._.Z.x.~.xXZXZXgXxX2X}.A.3.$.^ l.S.V.H.L.z.$.S.L.F.M.z.m.+XOX+XK.D.F.S.D.Y.+X.Xm.3.R.+XK.3.I Y e.<X>XW.| ' ! ~ } K 6 & % & m $.@.:.S.H.K.~.A.P V W M._.H.V.x.2.c.OXZ.c 3 3 5 5 3 3 2 2 u c.H.V.5.5.} ^ P J P ~ P m 7 l Y K n H n 2 8 _.bX<XW.].uX-XG.(.uXzXAXvXG.I S Q z.F.OX:X(.H.6.#.3.e.A.u.i.`.`.' k m { { Z.C.V.{ J J J K { } E n 0 2 < 2 & < K ).-Xt.' ~ I r 9 D z.v.2.2.m.F.+XL.F.A.F.F..X+X+X.X}.}.,XzXfX$X$XyXyX>XdXfXpX*X@X(.G.e.i.-X2X|.4.L 1..XH.W V V W @.C v u C 6.G.Q.G.q.^ 5.} 6 & $ & q Z.XX-X,X$X;X-X>X>XrXyXyXsXsXsXtXMXuX0.z f.FXPXPXFXtXrXdXfXdX2X X4.~ D.F.D.m.#.I &.l.Z.H.~.A.A.e.A.G.Q.W.t.`.K.{ 7.W.).>XjXfX/.w./.Q.3.v 2 4 9 v I u.:X1XH.6.3.S.H.F.x.3.z.v.z.x.V.e.] [ 7.~.XX-X~.e.6.~ E ^ 2.W.CXJXKXyX' n g l 4.q.| ' 5.q.4.' { 2.$.C u v M S C V W F.+X$.b i i A ;.P.B.A 5 5 p @.;.x.|.VXAX2XG.1.3.K..XK.b.A.2XZXpXg.w.i.!.|.|.!.",
"wXeXk.j.tXkXNX=Xg.p.7.m.D.J. X X@X X}.J.}.!. X XaX,X@X/.#X#X/.|. X;X#X#X|. X X X&X2X$X#X|.J.#.V D :.M.S.A.~.,X-X X!. XoX}.J.!.J.!.~.J.F.F.z.Q F G s A G F F A p y y u b M C G F F F F F @.Q F G a i a G G Q ^ 2.v.c.z.x.6.A.F.P.L.L.M.z.;.2.H.1XA.3.5.V.5.P w.zXjX].p.w.4.1.3.3.$.$.c.L.`.J.x.%.z.S.L.S.n.z.S.OX5XOXT.D.S.S.K..XoX+XS.M.A.XX:XH.! L t.xXxX].q.| T T Y g 6 < & 2 ^ $.D :.F.H.G.~.G.^ V &.K.1X+Xv.Q ;.z.L.S.E p y 5 5 3 3 3 3 5 q B ^ v.H.Z. .' x.S.x.! H n | C.[ g H l 9 8 J { { 1.5.5.1.~ 6.G.G.w.' C V G +.:.S.XX-XQ.H.A.6.e..XXXe.4.Q.-XC.{ '  . .V.Q.H. .H } Z.|  .H M M 8 3 3 3 < & & 2 6 9 7 7 4 - 4 $.S.v.2.z.$.2.S..X+XoX_.A.m.m.x.c.A.~.2XzXfX,XpXpXrX=XrXyXsXuX>X#Xw.1.i.<XzX|.1.T 5..X.X$.u p F -.F b i W Q.XX).C.| $.x.x.0 $ $ & u x.<XFXFXkX2X/./.*XrX*X,X,XpXyX>X#XW.H 6 U g.lXkXrXrXsXsXrXsXdX|.7.Z 3.x.6.6.6.6.^ l.Z._..XA.A.K.T.;X|.@X#XG.e.W.#X-XQ.(.pXsX/.G.G.C.1.C u b 2.H.:X2X,X-XW.e.x.c.c.S.2.$.M.M.x.6.XXgX&X0.] 7.t.^./.W.u.1.~ ^ 2.W.CXIXHX=X] Y Y ' | | { ' ! Y { 0.q.4.! n c M M V d t p F G p t s G G Q I.L.;.i p d B S x.XXVXZX#XA.1.3.D.~.D.m.3.|.3X|.!.J./. XpXdX@X",
"wXk.k.h.*XsXSXrXg.<.e.A.8.A.!.|.(.V.6.A.J.!.f.(.aX,X/.!.;X;X/.|.(.|.i.<.*.1.8.e./.aXaX*X#Xu.W A G D %.m.J./.,X,X#X!. X}./.!.J.J.W.|.-XXXK.%.F F G A G G F G F A B G S u v b S Q ) Q Q ;.Q $.@.Q G F Q ;.^ $.2.2.Z._.XX_.A.$.C i G ;.c.m.m.G.(.1Xu.I ( M b v ! Q.t.[ K U H U 5.1.~ 2.c.L.`.H.S.S.c.M.z.3.m.b.$.z.S.T.T.H.H.L..X;XoX|.~.D.Y.,XaX}.| H 5.~.XX).q. .{ M c 0 2 < & g l.v.E $.L.H.V.U.S.W C ^ v.T.+Xc.Q ;.z.z.z.$.Q G B B u q w 5 5 3 9 B v.L.H.{ | Z.G.l.! K K Z.H.| n l n M 8 0 6 8 M E E M c n M N 0 2 5 B F ;.;.m.K.J.J..XA.1.V.6XzX-X..X.Q.Q.C.q.q.| Q.Q.q.K l Z.1XZ.K n n c q 0 3 < < < < < 0 J | ] U l g 1.K.L.L.M.D S ;.v.L.5XOX_.6.$.W 2.G.-XdXaX#X|.aXzXpX&X'./.%X>X,X!.5.6.|.CXKXjXg.T 5.`.XX3.p i Q >.z.E C 2.`.5XXXe.5.2.S.V.7 @ + & B v._.zXvXuX Xp. XaXaX*X$X;X;X#X,X(.! 7 4 c { C.W.}.<XaX#X'.#XaX|.[ L e.|.,X;XQ.H.c.V.Z.c.m.m.D.}.XX:X2X<X;XW.G.aXuX/.q.t.(.yX#X(.J.~.J.2.W ^ x..XxXzX,X(.G.V.v.$.$.$.$.z.z.3.3.V.#XCXJXkX'.g.g.'.g.C.C.e.5.5.V.W.ZXJXsX9.] 0.q.t.t.C.C.[ K ! G.-X'.t.G.W.t.{ C G 5 3 y i b A D -.;.:.Q @.:.G i a y w w $.:XVX;XG.3.%.z.b.N.N.z.3.K.}.K.}. X$XpXpXsXpX",
"qX0XqX%XiXkXFXrXs.9.u.8.N.F.}.~.t.' Y 1.H.~.W.G.(.|.-X#X;X;XXX~.V.5.I P L T 1.7.i.(.#XaX,Xw.I E W D W 6.K./.#XfXsX&X@Xg./.^.(.W.^.<XxX:X6.C F F G G A s -.-.;.;._ G G S C b Q z.l.;.$.;.n.;.@.-.@.-.;.l.$.l.v.l.1.H.1X:XS.I 9 2 3 b l.H.}.2XaX(.#.u 5 3 3 5 u ! [ U [ y.i.W.t.{ T 1.5.S._.+XL.S.z.$.3..X6XoX3.W $.D.K.~.K.L.oXgXBXpX#X}.$XVXzXXX1.P P P 1.4.l.P J J j 2 < 2 2 7 l.S.l.%.S.H.G._.S.W b S l.D.P.n.-.;.;.$.Q ^ ;.Q ) ;.) ) G b v u q N ^ Z.5.5.C.q.5.} { J J ' { ( g 8 q u q 0 0 9 v B E M c M E B 9 5 u a F ) ;.z.A.F.K.+XS.Y L ~.bX-X| [ | | q.q.q.C.).{.X.z K Z.).5.K n J n c q 3 3 < 2 3 2 8 5.`.bXaXW.] G.K.V.L.z.W Q E V C 3.F.F.b.:.@.$.J.2XzX3X!.!.,XaX;Xf.0.0.W.#X/.e.1.x.2XAXJXKXzXG.6._.~.6.z.z.$.x.c.#.I 2.K.XXA.1.3.K.XXZ.- + + * ^ Z.x.(.#X!.u.u./.uXgXyX@X$X<X>X-Xe.Z 9 u / l.1.4.!.1X1X|./.#X-X~.' U (.dXKXKX].e.x.v.c.c.m.D.U.oX:X-X#X|.|.J.}.xX>Xy.[ q.(.fXdX/.G.|.XXA.V.A.A.A.W.!.|.|.!.V.} W E S / c.M.$.l.V.W.pXKXHXSXnXkXsXg.w.' 4.G.H.C.t.].tXd.[ t.t.W./.f.^.W.y.0.w.|.gX>XW.@XFXKX|.T M i 9 p i S z.S.x.M.z.@.G A G d y y 5 w W +XxXXXA.6.3.3.x.D.Y.m.#.3.A.U.|. XyXpXpXiXrX",
"qX0XtXkXjXSXFXfXg.p.J.u.U.U.~.A.&.v C 3.S.K.V.5.6.H.XX.XF.m.6.5.~ P I P 7.G.|./.i.w.i.XX).1.I ^ $.%.x.K.oX$X@XpXjXsX=X#X>X&X].).W.XX:XK.W V F D F _ F A A F :.c.l./ Q Q S S %.M.S.c.l.:.n.;.@.Q ;.z.n.:.%.l.v.v.7.A.~.~.K.2.9 2 5 C 6.`.aXzXaX/.1.8 2 < < 3 q E ~ { W.-XaXaX^.<.5.C.V.V.c.P.S.v.W V m.xXAXzXA.Z W M..XXXH.6.!.ZXJXFXpX,XBXCXfXf.~ I P M C M S u N E n 2 & 2 & & E c.v.;.x.Z.G..XY.W r A n.P.M.;.D S G S S S S G Q ;.c.c.} E ^ ^ / E E } 2.C.G.q.| | { K H J j 8 0 0 0 2 2 0 8 c b / ) ^ ^ ;.l.-.B b a a G -.;.v.x.D.F..XF.m 2 7 l [ [ X.[ H K Y K | >XuX^...X.q.| [ K n J J ( n q 3 2 2 3 2 0 J q.>XcXdX^.!.e.x.x.3.%.$.V 5 4 5 C Q ;.:.@.$.H.;X<X|.W.!.|.|./.p.{ ' e.W.G.1.' 6.|.gXFXKXZXXXA.F.A.6.L.+XK.~.~.b.2.&.m.M.3.3.3.XXaXZ.& + + > O.c.%.6.8.A.G.u.J.uXcXjXpXpXpXyX,XJ.I e D ;.S v m 4.G.G.~.~.|.|.|.G.G.W.^.dXvX).' 1.~ ~ x.K.XX-X;XXXW.i.w.7.8.K.~.f.U | ).<XZXfX|.!.~.!.u.XX:X~.u.f.'.sXdX>Xe.P M W G ) L..X6.x.Z.e.t.*XnXSXGXHXnXrXg.f.f.).].r.] q.g.y.t.(.!.t.].yXrX*X&X*X@X#XpX,Xt.^.JXJX@X<.! E ^ S b 2.1X1XQ.A.x.$.:.>.F p y y y p F N.+XR.L.x.&.3.z.3.b.b.%.3.8.U. X@XjXjXiXrXiX",
"wXqXhXjXkXNXNX*Xp.J. X XoX}.~.A.~ m ^ c.S.x.z.@.W ~ ~ ~ ~ W P E I I 1.W.yXcXCXfXi.<.4.5.{ ~ E E Q %.S.+X3XxXpXrXrX*X#X,X,X<X].^.W.G.6.~ S V V G >.>.-.s 5 i -.P.c.2.} l.^ E 2.S._.S.c.:.;.-.-.@.l.c.M.z.%.%.v.M.m.A.e.H.:X.XZ e @.m.H.-X,X>X^.f.C.n 2 < 2 5 p ^ } } V.q.y.t.t.7.G.-X`.4.P M P ! c e m.6XVXzX}.#.#.S..X:XK.1.7.gXKXCXsXdXCXNX*Xu.P I 2.$.W C u u B Q M < $ $ $ & b v.n.;.;.z.c.L.N.V 5 B >.B.n.;.A i B F Q S B B S / ) l.} } v.v.^ E b E 2.V.C.(.(.t.| { J M M u 0 6 0 g K  .V.} ~ ^ ;.) ) l.l.) G A p y p _ ;.c.D.S.V.H.S.m & & 6 K [ | ' K Y K l [ {.>X>X[.W.[ K n n M J ( ! ( J 9 3 0 0 2 2 6 g K W.>X(.7.T V._.e.1.^ Q i p p i b A S D ^ 6.G.(.W.W.(.@X/.^.i.5.4.q.e.q.4.{ 7.6.i.#X#XW.A.x.z.%.3.S.OX6XzXxX}.2.D @.z.c.m.m.OXcXG.& + + * b ) %.2.m.K.~.7.8.;XcXFXZXZXzXdXpX<Xt.Y E S b S ^ 1.4.e.!.;X;X#X-X(.V.5.' ' y.t.4.T J n E H.bXbX1XH.H.e.7.6.1.T R [ ' t.1XcXBX=X/.W.!.G.H.XXXX-X$XpXjXFXFXsXf.I r C $.v.c.x.6.S.H.e.4.w./.%XrXiXlXtXkXnXtXg.g.9.' x.].>X#X#Xi.t.yXvXFXFXdXuX@X]./.].V.W.cXsXf.C.v.! } ~ E A.5XbX2X.XV.5.z.>.F i p s s _ ,.,.,.B.R.c.#.3.m.8.m.m.8.D.U.oX/.g.yXjXNXSXNX",
"wXqXhXiXiXiXiX@Xp.}.3X2X;XoX}.A.&.V &.z.c.x.z.W c 5 4 5 r v C E Y { i.pXFXFXFXtXr.<.T m k C W D Q $.z.F.~.3XzXpX/././././.|. X(.(.G.~ E S i i F n.n.-.a w 5 p v._.H.x.l.z.l.x.F.1XXXS.z.Q F -.>.v.M.M.z.3.3.z.b.M.m.5.G.1XOXA.S.T..XXX|.(.W.e.G.(.5.8 2 2 w i / E E ~ P g g l J V.`._.{ c 9 g J J m I 6.;XaX|.A.x.D.F.L.F.3.7.}.;X#X#XyXsX*X/.7.T ~ v.z.$.$.P P ^ / c & $ + + < S I.M.;.@.z.z.x.%.V p F z.c.z.;.A i A F F S B B B v / O.O.l.v.c.v.^ E 2.} [ t.aXjX].0.{ J E ^ E j n { C.1XzXcX].5.{ ^ / ) l.v.O._ F i p p F z.S.K.H.H.G.5.k 6 7 Y C.q.Y Y K ! ! n H | | W.].W.K g g n j g n ( ( J 8 9 n K c 8 9 4 6 g K P l K V.-X).0.Y S G _ ;.F -.;.W W 2.x.e.G.G.G.(.>X/.W.t.5.5.5.| { } 2.2.3.5.7.#.~ $.$.;.n.c.b.D.4XVXZX:X1.D D z.P.F.K.;XcXC.2 @ + * S c.3.A.J.oX(.7.3.}.gXcXjXpX;X2XdXcX).| I c m Z.(.e.4.e.!.|.@X!.t.4.H k m m { ).W.z 9 8 m x.).1X).m.A.A.~.XXA.T z R t.].yXpXpX/.r.Q.~.G.7.Y T i.,XkXnXjXkXlXrXf.l H $.M.^ P 2._.~.t.1.1.1.4.0.d.%XiXFXFXlX@X/.f.w.H.].[.).^.y.i.sXFXGXFXdX&Xf.(.>Xg.q.~.(.f.G.`.H.5.1.~ ~ x.~.XX:X~.t.V.x.%.V D @.;.%.>.>.G s +.M.D.J.;X2X$X@X$X$X$X;X;X#X/.=XsXkXSXkX",
"mXlXlX%X@XsXsXg.w. X;X;XoXoX}.D.%.&.&.%.$.%.;.Q y 2 2 8 W ^ ! } } 5.-XpXkXlX[.d.] ] ' P m M M S S Q @.D I A.<XxX#X/.]./.f.f.W.(.(.H.2.^ Q G F >.M.n.-.a a 5 5 P _.+XF.x.z.M.D._.aX:XA.$.-.-.@.;.v.M.M.m.D.D.x.3.l.3.V.XX<XQ.e.x.H.F.J.e.V.A.6.G.<X5XV.k 4 5 N / l.2.2.I l k k c J ~ ~ ~ P J J ' } J k U !.2X-X~.K.F.N.m.S.S.D.J.G.e.q.t.W.f.t.7.4.5.V.c.S.A.G.C.H.E 6 & $ @ + 6 Q P.P.z.z.x.A.m.%.D S $.x.v.l.Q A b A Q Q E S / v q M ) ) l.v.v.2.~ 1.G.5.z ] dXFXjX'.X.n n ! 2. .G._.`.bXFXvXuXW.q.{ ~ / l.) ^ Q Q Q S S D 2.m.G.Q.-X~.{ 9 7 g } Q.C.[ Y K J J 8 g K Y 0.Q.C.z 6 g J j 0 0 j j j j K q.(.W.5.~ 8 0 0 0 8 M Y 5.-XdX&Xw.P S Q Q A -.M.M.M.S.F.J.G.i.i.@X,X^.y.0.{ { ' ! ! ~ $.l.c.c.;.-.@.-.;.z.I.z.:.3.D.oX2X:X7.&.&.n..X.X|.;XaXi.g $ + 1 _.1XQ.].#XgX#X7.1.J.-XyXuX#X!.|.yXuXG.' P k K ].>Xy.K ' t.(.|.u.#.m 9 4 u E x.5X1X[ k k c P 1.V.6.#.~ 6.!.(.(.t.<.7.@XfXiXh.g.d.a.t.e.5.P 9 n q.aXnXFXkXkXkXjX].z m ^ l.N b ^ OX-X(.G.6.6.e.t.f.@XsXkXsX@X/.!.i.f.@XtXtX'.f.W.f.*XjXNXjXdX@Xr./.cX*XW.Q.!.(.XX`.(.A.7.I 1.6.5.7.e.A.).OXS.W #.F.+X+XA.m.z.+.D W 1.e.p.2XAXCXpX*X*X*X|.@X#X X@XiXNXhXkX",
"wX0Xk.a.g.NXjXh.w.i.G.A.K.}.|.oXJ.u.3.z.2.^ S v w 3 5 V l.2.{ 5.V.V.W./.d.d.9.0.] | 5.5.Y m b b b Q @.W v Z 5.~.-XaXfXuX%X@X/.^.|.J.6.x.z.z.n.B.P.n.$.B p y p v.XX:X~.6.x.S.J.|.aX:X6.^ :.>.-.;.n.M.M.F.+X.XA.2.$.2.A.:X2XG.1.#.x.D.8.6.A.S.V.W.;X6X1X6.C v S ^ v.A.V.V.V.5.P c c c N E ^ 5.5.} { Y Y e.XXaX;X~.}.F.D.A.m.S.K.!.).e.' ] 0.e.C.V.} x.S.H.K.K.XX-XC.g % & $ $ + < A M.P.m.M.F._..XA.l.6.A.S.l.^ S b B G Q / E ^ ^ b q b ^ l.v.v.x.5.5.G.XXG.l U ].CXCXuX^.z 7 H S.`..XJ.~.aXcXjXdX&X(.V.2.W Q G A C / 2.$.z.z.c.A.W.-X<X(.H 6 6 n { | | ' ' J K g 0 8 n !  . .' n g j j j 0 0 0 0 j J q.-XzXzX-Xe.T J c N M } { T (.CXKX<XU M W W @.@.F.T..XK.~./.#X#X#XyXfX&X^.t.w.w.4.{ 5.1.5.V.S.l.Q @.F F ;.;.l.@.:.z.x.D..XOXF.%.%.D.XXXXXX|.}.e.n % + ` vXcX>XyXpXZX,Xw.' H.(.(.^.G.G.!.<X1X6.I Z P { ).W.] K | W.<XaX~.I r 5 r b M E G.XXG.4.2.~ P L I I I Y 4.W.!.!.(.!.w.&XCXNXlXh.%XdXg.] q.I 9 8 { 2XFXGXHXHXFXkXd.k k ^ v.l.v.V.XX-X1X-X~.J.XX,X,X,XpXsX*X@X!.i.t./.rXkXnX@Xr.t.Q.y.] 9.!.>XiXrXrXvXjX#X!.|.1XXXQ.~.D.8.1.3.x.e.4.T 1.G.G.A.H.XXVXAX:XK.H.A.J.}././.g.g.g.%XrXsXyX&X#Xf./.,X,X@X=XjXkXhX",
"0Xk.j.g.@XkXsXh.p.8.3.2.z.3.!.aXZX#X4.^ S G p 5 w p Q l.P P q.W.C.0.[ [ [ 0.f.t.| 4.V.A.^ v u u i b l.M.#.m C %.}.xXAXFXCXsX&X].>XXXK.F.S.M.M.B.P.B.v.E u i $.1XzX2X!.A.H.H.Q.yXfX|.4.#.;.F @.@.z.b.M..X5XOXV.2.3.m.A.;XxXQ.1.2.m.b.D.F.L.K.H.w.J.|.<XXXK.Z.Z.b.x.A.H.-XbX`.{ P E b S / } v.Z.} { 5.Z._.:X3X;X XXX}.J.A.6.K.XXXX(.W.q.0.y.e.V.2.^ l.v.S.S..X-X].l % $ & & $ + $ 5 z.L.b.b.K.XX}.A.V.V.H._.l.S u u B F Q C E ^ E b b ^ l.2.2.x.Z.G.W.(.`.C.H [ ^.iXsXsXyX..l K Z.H.T l 1.|.,X*XuXuX<X1XS.W A y 5 b l.v.v.c.S.F.~.(.1X<X).k & 2 J V.Z.C.q. . .J j 8 9 j ( K K j n J n j 0 g J n 8 g J V.<XfXvXuXf.| { ~ P { x.Z.5.p.ZXLXfX' ~ z.%.@.z..X5X6X,X2XfXfXcXCXCXCXsXyX>X-X#XW.C.G.G.G.`.K.P 8 p i S ;.@.2.z.:.z.v.m.T.7XT.z.3.m.~.XX~.F.5.Y j & + ..FXFXuXuXvXFXjXf.q.~.;X|.J.H.Q.Q.OXS.x.z.%.2.{ J Y K 5.C.(.gXxX-X4.k v W W W ~ 5.Q.~.`._.H.! P T ' T ] (.2X$X X#X|.f.&XKXHXkXjXCXFXtX0.0.Y k j J 4.*XkXHXHXnX[.U k m ^ 2.x.A.~.;X$X1X<X`.A.H.`.;X,XfXfX&X@XW.w.w.*XkXSXkXh.9.i.Q.| l l ' #XvXvXFXjXdX<X@X&X].~.A.S.L._.F.x.V.-X>Xq.R [ [ 4.;XxXZXVX2X.X~.;XZXCXFXFXjX=XtXtXtXtXrXrX=Xf.g.*X,X X@XjXkXlX",
"0XeX0XiXNXNXiXh.w.<.I D +.Z T -XAX6Xl 8 b p y 5 5 A M.v.k H G.W.| U l l z 0.).t.q.4.T 7.7.P e 9 u A M..XS.S V E A.Q.-XaXxXaX;X-X<X:XOXL.x.@.;.M.P.P.n.D p G M.7X6X`.G.~.!./.,XfXaX|.6.E V d V ,.M.M.S.L.XXXXm.x.b.D.H.XX6X~.6.3.D.K.|.,X<X-Xe.1.e.G.XXQ.J.K.A.V.6.G.i./.aX<X5.P E E C C E ^ O.( P ~ 2.V.`.aX,X;X;X}..XA.3.A.:XaXW.t.].>X^.q.} C S W v.x.A._.`.K * @ $ * & % $ $ 9 x._.G.b.A.K.D.A.6.V._._.2.u 3 5 p S S E / / E M C ;.c.l.l.v.c.~.W.^.(.| z 7.t.^.@XrXkXrXf.[ ' l 2 4 m 5.).Q.!.!.)._.P.Q y 3 p :.M.S.V.e.V.u.J.XX1X1XQ.l - 2 E Z.H.q.{ } } J g 9 q M ( K j n j j n j 8 ( Z.} g 6 8 C.,XyXrX].W.] Y ^ C 2.G.`.).p.$XVX#X0.V.+XF.z.x.OX5X6XzXZXFXFXFXCXvXjXsXpXyXpX<X(.!.|.(.|.,XJ.k 2 5 A @.@.:.L.OX3.3.m.S.4X.XJ.A.A.N.K.XXA.&.l k 0 $ + ..KXFXiX*XsXjXCXh.<.V.:X<X,X-XXXH.6.1.3.m.c.l.^ m z 4.W./.@XaXuX].w.1.5.2.$.@.$.x.~.(./.W.e.<.7.G.5.[ r.xXcXsXsXrX@Xg.=XFXJXGXGXSXSXhXd.[ l l l 9 2 l [ ^.[.y.g e c E E x.(.^./.|.XX!.V.V.u.6.A.V.~.-X,X@X^.d.0.&XjXFXnXtXd.] 0.G.G.| H H W.cXCXtX'.^.#XaXaX(.4.{ 6.K.~.H.v.G.jXCX'.' [ Y Y e.<XaX;X|.}.}.;XZXKXGXGXDXSXPXIXGXnXlXkXjX*Xg.g.^.(.'.rXhXtX",
"0X0XqXSXSXGXhXh.<.U L Z d r k 7.XX6.2 2 p y w 5 5 p z.c.P P q.t.] | ] [ [ | C.q.q.| | 4.G.V.! 0 9 b ;._.G.$.S P ~ T 1.G.XX|.G.i.Q..XK.V.$.D D %.F.T.M.S p D :.z.6.V.K..X;X3XzXZXgX#XJ.&.v p D :.M.S.K.T.~.~..X.Xm.A.~.XXXXK.x.l.L.OXxXxXxXXX1.~ x.K._.V.{ 2.~ 2.e.W./. X/.!.4.~ l.^ C C ~ E M u v M M P S.<XgXaXXX|..XH.6.A.oX<XW.t.(.>X].q.! E C S ~ 2.c.L.J $ + @ * & 6 6 * 6 } 5X5X~.b.V.A.K.D.6.6.V.c.^ b 9 u B / Q ^ v.v.x.2.2.l.2.^ $.2.2.4.C.(.W.H H 4.t.W.^.rXjXcX-X' ! J k k I e.G.Q.u.e.1.~ ;.i 5 5 F M.P.S.Z.V.4.{ q.(.-X-X`.5.e 9 M P T Y Y { ! J n j N ( ( ( ( J g 0 0 j ( !  .( 0 & 0 C.uXyX[.f.w.l k v P 5.(.-X>X^.t.t.t.4.A.+Xx.Q $.7.6.G.XXzXcXCXFXFXvXyX(.(.~.#X|.i.G.}.|.-XaX_.k 2 5 G n.:.n.7X6XS.5.A.L.+X~.J.(.}.U.K.XX2XoX0.f % O O o.kXFXuX@X[.dXsXg.U 5.>XbX>X(..Xx.W &.l.M.c.l.x.e.i.,XyX'.@XyX@X/./.i.i.V.x.2.2.x.G.G.t.q.t.r.d.).d.9.g.iXjXjXjXjXrX'.@XtXFXPXFXlXnXHXrX[ [ 0.5.m 2 - 2 6 6 6 - 4 b E } V.<X,X(.G.J.6.T 1.D.K.H.6.q.e.i.t.0.[ [ >XvXnXkXtXd...4.V.).Q.#.T w.fXFXrX9.] |.2X:XH.~ ~ 6.F.G.V.V.W.rXjX,XC.| K H 5.XX;X}.J.~.J. XdXFXFXHXnXhXHXIXIXSXlXjXFXNX=Xg.r.r.f.@X%XtX",
"0X0XhXSXSXSXkXqXg.r.0.7.*.Z l P P k 2 3 5 w w 5 3 5 C W m M T q.W.-X].W.X.X.| ' 1.4.y.t.(.1XV.J 8 v M v.S.l.N m c m H T 1.5.1.4.q.5.1.^ ^ Q Q l.L.L.l.S A F +.V D z.F.+X:XxXVXzX3X,XXXF.b.3.z.n.F.F..X}.~.~.oXXXJ.J.Q.(.Q.~.x.~ 1.~.1X-X(.{ k S x._.H.5.! I P { w.|.fXFXdX!.<.1.Z.v.E ! l.^ b 9 w 9 9 9 $.:X2X X!.G.H.K.H.J.!.~.W.t.t.W.).C.{ ~ C C M E l.l.6 $ @ @ * 6 7 7 & h `.5XxX<XH.A.F.K.A.m.3.2.^ W S S b S Q l.c.L..X:X_.V.} ~ E W W E J V.>Xt.g l ' 5.C.).].uXyXW.'  .Z.Z.S.F.H.G.H.6.{ m u p y y V ;.n.x.6.C.H.q.| 4.W.^.(.|.H.1.C m m Y 5.V.{ ( J n n ( (  . .( j 0 0 0 g ( J n 8 2 < 0 Q.bXpXrXf.' 7 7 k 7.Q.-XyXzX>X(.t.e.5.S.H.2.W m 4 2 0 H q.f./.xXvXuX(.J.J.~.}.}.J.K.}.|.;XxX(.I 5 5 A M.;.D S.OXH.5.A._.(.(. X,X,X(.G. XfXKXjXh O O X = tXcX,Xr.f.jXvX^.R { C.(.(.e.7.$.$.;.v.l.l.l.x.).,XcXvXuXyXyX=XrXjXyXr.i.G.e.{ ! ! 5.e.t.h.hXFXnXh.h.iXlXiXkXkXjXsXrXg.g.rXNXkXhXGXHXlXd.d.#X(.{ 8 3 3 2 2 2 2 5 p B ) S.<X<XG.{ Y T U #.F.+XoX!.t.e.1.U z l [ ..'.[.^.g.W.W.y.| C.).A.4.i.cXKXMX..H T G.H.6.I ~ 3.S.~.~.(.@X'.%X&X(.| [ J } _.XXQ.!.~.~.p.$XpXjXsXh.h.tXkXnXtXh.iXFXGXjXtXd.9.p.@XrXiX",
"0X0XmXSXkXhXkXkXfXfXpX<X|.7.L Y m e 5 3 3 9 u u A b M k 9 e M 2.(.>X(.| K K [ q.p././.@X,X-Xe.' J v N W $.Q W P P Y P P P ! { 4.{ E ^ ^ / E ;.P.L.S.;.Q G F F F F ;.M.L._.;X<X<X,X2X;XXX.X+XK.F.D.K.}.}.}.~.}.XX|.#X-X>X,X;Xp.R T { T l 7 2 4 S 1.V.S.V.6.1.' 7./.pXCXKXFXpXf.0.H.V.{ } v.O.M M p 9 9 9 2.<X<X|.w.' 1.A.OXXXH.H.G.q.' 4.G.Z.{ ! E v c v N ( g 6 $ $ * h f ; % & [ -XxX,X:X~.K.Y.K.K.c.x.^ ^ Q D S Q Q ;.n.A.:XxX1XG.^ P b S ^ ^ ( 5.<X(.' n n ! V.C.t.f.^.t.y.| 0.V.L.K.J.K.c.2.~ E C A A F ;.v.z.3.A.|.-X(.(./.#X(.(.(.W.H.A.5.5.H.:X-X| J ( n j n j K  .( g 0 0 8 j J n 0 2 2 < 2 C.zXAXCXfXt.f 7 H H.bXzXcXfXgX2X#XW.V.x.2.^ M 0 & & & 2 2 ; l 4.H.H.J.~.K.}.}.}.oX:XoX}.oX|.W.7.V 5 p F E E $.m.A.6.G.|././.|.#X-X(.w.7.pXJXkXf O X . X ` XXC.R r.zXvX/.4.4.C.t.G.e.~ D ;.z.l.E C I 6.W./.yXfXpX*XsXFXKXFXkX@X/.~.e.I m m T ^.iXFXPXIXGXh.j.FXFXiXrXiXsXsXkX%Xf.f.@XlXnXGXGXkXlXsXdX&Xq.C v w 5 d y p i w p E x..XXX5.! Y 1.w.G. X,X-X(.!.G.).t.[ z z K [ [ [ 4.W.W.t.| 4.C.`.e.' ].vXdX] l L Y 1.3.^ v I A.J.!.#X<X>X'./.'.C.4.P ~ x.~.|.|.-X-X!.J.i.i.w.7.1.<.[ [ <.w.@XfXFXFXiXd.<.i.*XsXhX",
"eXeXlXhXiXrXrXsXjXNXsXpX,Xw.U K k 8 7 8 { G.6.~ x.A.V.T m m P ~ C.W.7.U H ' q.!.@XpXdXuX].0.| | ! M M E Q Q 2.e.G.e.4.' ~ I 2.v.} E ^ / / v E _.5XS.%.$.v.Z.S.m.A V $.z.A.H.~.XX-X-X<X2X;XoX!.A.F..XoX}.|.J.u.oXfXyX&X,XzXxX#X<.l g 0 4 2 2 e W ~ 1.1.x.V.e.~.XX,XuXcXZXjXfX>XW.t.e.4. . .^ N N N q u j Z.vXzX].w.T I 3.OXOX_.S.A.Z.Y T 2.2.~ ~ E c 8 5 3 u E n & @ 6 l g 6 $ $ * K V.+XOX.XoX.XOX+X_.H.6.x.$.D S F F @.@.W S.+X+XS.2.E S / / E / { -XxXQ.Y 9 9 k J ' { q.-XdXsX/.t.e.A.K.L.x.2.2.l.$.z.M.P.M.z.$.3.H.XX<X<XaXaX<X,X@XW.!.G.~.`.Q.-XbX5XV.! n g g g 0 g K n 0 0 0 j ( ( J j q 2 < 2 ' <XKXKXKX^.l l ! ~.zXzXdX$X XJ.~.H.V.v.^ W c 9 0 9 0 2 & & & 4 u W 3.K.oX:XoXoX3X2X;XoXoX}.V.~ C 5 5 p $.7.2.3.3.e.;XcXsX@Xf.G.~.C.4.{ w.uX(.7 @ O X X h c.Z.e.G.>X].t.w.`.-X).V.x.;.D Q :.$.P Z T e.w.0./.aXpX&XkXHXJXFXlX@X(.G.4.P m l 0.kXPXIXIXUXmXj.h.kXjXtXtXiXsXsXjX,Xf.w.g.iXFXGXnXlXsXjXsX'.t.5.1.F @.>.;.;.Q p 5 b $.H.H.x.2.7.A.aXxXyX*X].t.W.W.<XaXd.[ l g l [ 0.0.d.^.y.X.| ~.`.5.H Y q.q.{ W ~ W $.z.W e m z.S.G.(.aXpX#X'.&X,X!.' R 1.V.|.aXpX#X/.G.~.i.6.6.2.~ I I Z I A.-XfXdX'.r.0.!.*XsXlX",
"eXk.j.h.=X=X@X/.=X*Xh.g./.0.U U Y { w.f.#X,X|.A.W.aXaX).4.{ { { { { { <.7.W.@X*X*XpXuX^.[ z [ X. .( g ! l.} 1.XXdXuX].^.C.V.q.q.2.^ ^ / S q v L.6X.X6.S.1X5XbX1XW 9 V %.F.6.3.F.oX:X2X$X$XoX}.J.K..XoXoX;X;XG.J.,X@X!.W.G.).XXV.K l c 8 9 8 / l.W E P ~ ~ x.H.+X;X(.W.f.W.#X-XH.e.t.0.' ! E u 5 5 5 9 m G.vXAX'.5.~ Z W S.`.L.Z.6.6.! ~ } ! E E c q 5 2 2 3 c 9 % $ 6 ' l ; $ $ @ $ < E S.U..XXX.XXXOXXXG.A.2.W G Q F F D / ^ v.v.l.l.;./ / O.} ( { `.bX_.! 9 2 2 4 0 g K -XCXGXcXW.q.Z.F.S.c.x.2.x.x.c.L.+XS.$.%.b.A.G.H.C.W.XX,X,X<X|./.Q.`.~.H.(.).Q.q.Y g g j g g g g n j 0 0 q n N ( v./ 2 & 9 4.(.aXcX<Xq.C C W V.1X<XQ.w.~ x.M.z.v.$.W M M c J ^ B 3 2 < & < 3 i %.K.+X+XoX:X2XpXgX3X;X|.C.4.^ u 5 S T.~.V.V.6.!.cXJXKX&Xr.e.V.V.1.! { 4.e.P f $ X + h _.5X-XG.C.q.4.{ A._.H.x.2.$.W E ~ x.6.G.}.|.W.0.y./.#XrXhXGXGXkXh.d.t.4.{ ! P z d.GXIXIXIXUXqXk.h.iXiX%X@X%X&X'./.i.e.e.W.yXFXFXrXg.^.^./.f.C.V.V.A.H.L.L.Z.^ i 3 9 W x.S.L.F.x.K.6XzXsXuX#XC.W.W.<XzX].[ l g [ ^.uXuXMXtXs.[ | H.`.5.M c m ~ c.x.W / / W b v M S 2.Z.Q.#X-X#X&XdXvXrXy.[ U 0.&XjXiXg././.-X-XW.C.5.6.3.#.&.#.6.w.J.!.u.7.e.|.fXkXtX",
"eXo.o.9.f.!.g.r.w.f.g.'.g.r.0.w.&XdXFXFXjXsX*Xi.^.xXzX>XC.5.e.q.5.e.Q.|. X*XsXjX@X/.t.[ 6 6 l K K n g ! } { G.aXvXvXuX>X-X1X).y.{ 2.$.;.G 5 5 ^ OXOX~.~.<X:X:X_.W 9 p F z.I v ^ K.2XxX,X3X,X X}.U.}.}.3XZXZXoXu.p.i.6.T n ! Z. .Y n n c q b / ^ S C M Q Q l.c.V.A.K.A.5.5.A.S.z.V.G.(.Q.V.I 0 3 5 k H U T W.:XW.! ^ C C $.S.L.A.x.{ { 4.{ M E / ^ v 8 5 0 c E 9 $ @ * H f * % $ % $ & c 5.m.A.H.m.A.oX<X;X~.x.W Q @.Q Q Q l.2.2.2.^ ^ v.v.l.l.2.E } Q.C.5.H 8 4 < < < 4 6 [ ).dXuXC.V.H.K.A.x.x.V.V.V.A.S.A.2.$.:.z.3.2.5.5.5.H.|.;X<X$X#XXX).5.{ 5.{ ! P n g n  .O. .K j K K g 9 8 j N ( O.M 2 & 8 L.1X~.G.T m v u u C x.c.^ C S @.@.-.:.$.E E ^ ! ( } J 0 2 < 2 2 5 G E..X}..XoX2XpXrXpX,X;X;X-XG.1.m C S.OX|.i.V.A.(.jXJXFX@X0.e.V.e.x.5.{ 1.).C.q.; X + g L.xX<X~.6.~ I T I | | { 2.@.W %.m..X3XgXfXdX@Xr.t.g.&XsXhXSXFXsXs.] { { K H k U g.GXIXIXUXmXqXh.tXMXtXrXh.d.d.9.w.7.6.G.|.pXCXjX@Xw.w.t.!.G.A.6.e.V.K..X_.x.^ v 5 p C c.R.F.F.m.3.V.G.#XyX>XW.W.(.1X<Xy.z g Y y.tXCXFXFXjX[.X.Y 4.Z.v.J 8 E l.S.S.3.2.~ ! ~ ^ E c E Z.H.W.(.#X&XrXjXdX/.[ [ f.jXFXnXqXh.g.'.>X].f.e.~.~.H.G.J.e.7.1.7.7.u. XzXFXSXkX",
"eXs.o.9.p.p.f.r.' 4.^.aX>X'.'.>XFXFXHXHXnXqXg.9.p.-X,X).q.6.J.~.H.G.<XaXfXNXFXFXfXd.x * $ * 6 6 6 0 0 n ~ 7.G.$X,X>X#XW.G.~.XX).G.5.2.M.G y 2 r z.+X1XW.5.~ D b q q p i b e 4 u 1.}.dXjXZXZX;X}.}.}.J.;XKXAX|.7.J.}.A.Z 9 I V.V.{ l g j M S B S b v C W %.z.z.x.e.x.S.S.z.z.z.W x.`.xX<XC.z 7 l C.zXcXd.x z T { ^ ;.Q S W 2.F.A.m.6.H.H.4.! ^ l.v.^ ! ~ x._.V.l % $ * h f * & 6 ; 6 { H.`.A.m.x.b.x.}.<XaX1XS.^ E ^ ;.v.c.l.l.2./ E E ^ 2.v.P.I.I.P.Z.| Y H n ( q 2 < < 2 6 6 z z z Z.~.e.e.6.K.J.A.A.6.6.2.~ %.z.z.z.z.c.F.S.K.|.;X;X3X2X2X~.5.~ } E c 0 0 7 g  .Q.Z.( K  . .( q 8 u u M ( 8 2 & 0 Z._.A.4.P e 5 5 y u b p y y +.+.@.@.;.v.Q Q ! ( J J ( N 2 2 5 a F >.P..X}.oXoX2XBXfXpX$X,X,XuX,Xu.R 1.+XXX|.(.Q.Q.^.&XrX#Xt.0.w.w.e.e.1.6.6.e.| f @ X X 6 c.6XxX.X#.W $.V.S.5.5.^ ^ D D 6..X2XfXjXkXtX[.g.d.s.[.sXkXnXSXdXg.z l J l g g 4.'.kXHXHXDXkXtXtX%XlXjXKXNX%Xr.0.G.J.K.~.|.pXsXpX#Xp.t.(.>Xf.e.V.t.G.`.~.G.V.2.E v u b v.B.n.b.n.z.$.~ G.-X,X/.W.(.(.t.U g T Q.].tXsXkXhXjXrX| K H P E v 9 B ;.v.x.e.H.H.V.G.C.V.! m } H.~.|.aXgX%Xg.*X@Xr.r.iXHXPXHXSXiXd.f.@X#X!.A.A.J..X(.(.K.K.D.7.8. XfXKXGXFXNX",
"0Xk.j.f.p. X@Xt.T 7./.pXyXrXiXtXnXGXGXnX%Xr.] <.w.f.t.0.' q.Q.XXu.W.1XxXZXFXGXPXFX9.: @ $ @ $ % < 0 2 8  .e.J.~.;XG.6.Y E } _.5X<XG.V.2.M 9 3 3 c v._.O.k 3 3 5 w w w 5 5 4 m { I 1.XXcXjXfX;X!.~.K.D. XzXxXi.1.oXxX<X5.m 1.L.F. .H 8 q b S M b V M T 1.z.l.z.%.3.z.z.x.S.M.W e W c.`.W.] z [ ].GXIXIXkX` f g ( $.>.>.:.-.;.M.v.x.x.`.1XH.7.5.Z.G.C.Q.-X<X-XG.l * % & 6 & % * f [ q.<XbX-XH.m.M.x.x.S.J.-X).V.%.S Q n.P.L.S.c.} J c M E ^ } } ! ( ^ v.} ^ }  .Z.} 0 & & & & & & 6 g Z.`.S.5.A.OX5X~.7.6.H.x.z.z.x.z.z.z.v.P.R.+X3X2X2XdXgX:XH.T ~ c.2.c 4 2 0 0 8 n j 0 g  . .J j 8 N N N u 9 2 2 9 Q v.v.v.2.{ m m C b r 5 5 A :.,.,.>.:.Q F Q B c c M E E v u G >.L.T.E.U.XXXXoX;XZXFXfX;X}.~.<XzX#Xw.u.~.(.C.W./. X^.t.y.0.0.r.t.C.G.6.e.x.D.e.H ; O . o h I.6XzX.X2.I 2.H.K.~._.m.z.$.T e.1X2X&XsXrXg.a.g.r.<.d.kXFXkXSXCXiXy.l m 9 2 b l.Z.^.uXMXhXlXrX[.d.tXFXKXFXrXt.5.G.J.K.H.G.e.u.u.e.e.t.#XvXpXh.f.i.G.Q.).6.1.x.V.{ J b b C $.z.L.D.6.2.V.XXxXgX].G.q.T k Y Q.uXuXtXh.h.tXnXkXd.[ g j m i 5 u E v.H.:XZXCXsXyXyX<XQ.K Y G.XX<XcXzX#X/./.'.[.iXFXGXPXPXGXjXh.g.'.-X(.e.{ 5.G.!.~.~..X~.G./.,XfXVXpXiXhX",
"qXk.s.r.i.;X,Xi.T 7./.yXsXlXlXlXnXkXtXh...[ U 4.^.].t.4.' e.~.XXA.H.~.W.f.pXKXPXvX` * % $ $ $ & 2 0 g ' Q.Q.~.-X<XH.k u u E x.5X6X_.x.E u q 5 3 2 9 j 8 0 2 3 q i 5 5 5 3 m _.).Y U t.uXiX=X/.W.W.G.H.~.|.!.4.3.<XcXxXG.{  .Z.Z.~ M 9 9 u b u u e ! Q._.A.2.z.%.@.;.n.M.n.:.G 5 u N T ] [ ..rXFXPXIXPXnX..x P Q -.F ;.) F G Q ^ @.%.~.1XXXJ.G.V.G.W.>XcXdX^.<.x * $ * & % % 6 g | `.bX<X(.J.K.F.x.2.x.A.e.Q.S.$.M W c.P.L.c.{ J 8 9 j M J n 8 6 2 4 n } !  .Q.5XH.n 2 < & & & 6 6 n Z.L.2.{ x.H.1X_.6.6.K.S.x.z.M.N.n.z.z.;.%.S.+XxXzXZXzX:X7.L W c.2.M 0 2 2 2 2 2 2 < 0 J n g j B / B u 0 2 2 3 b z.z.x.S.H.Q.~.F.x.^ C u i F ;.;.>.-.F F F s p 3 9 / l.E E $.v.I._.+XL.~.XX(.#X|.gXKXzX~.6.e.(.zXuXW.!.~.W.w.G.G.i.t.f.^.'.&X/.y.| 5.5.x.x.F.XX4.% X . o h P.5XXXK.M.2.l.S.K.OXOXF.A.z.3.H.XX|.#XsXdX'.0.[ [ ..g.tXtXlXkXjXjX].0.H 7 9 ( ! ! ' 0.g.%X%Xd.d.y.[.lXlXtXd.] 1.1.1.} } 4.R g 7 7 k T y.yXvXyX^.0.' C.`.H.' 6.S.5.{ n 2 2 c v._.~.m.2.c._.<XdXuXd.K l m ' C.).[.tXh.j.tXnXjX'.[ l ! ~ b 5 w u E x.zXJXKXFXFXvXaX^.z l ! Z.XXbXaX#X X|.(.g.uXjXFXDXGXnXMXh.'.'.].^.5.L ~ H.~.}.}.|.,X;X$X#X!.9.9.a.hX",
"wXk.` 9.u. X;XG.T u. X*XiXkXkXlXlXtXg.9.[ U U H.vXAX*X!.w.W.XXXX~.J.H.4.l L w.].] f 6 6 < < & < 2 0 { 1XaX#X^.:X:X6.9 5 y A Q v.v.v.z.S 5 5 w 3 3 2 2 2 3 3 5 i p w 5 t c Z.bX/.' ' i.yXsX'.^.'.(.f.7.6.K.A.5.V.XX.XH.2.~ ^ ( M N u 5 5 3 3 5 9 K C.<X6X~.1.E F @.v.S.P.n.:.D p 9 M 5./.&XrXFXJXHXPXPXMX` z } ^ p 5 5 3 5 y s Q Q %.A.~.XX(.G.u.e./.jXFXdXg.] z % @ % % % & g K Y q.).(.J.J.XX-XH.~ W $.V.OXL.Z e C M.L.S.1.g 6 7 9 8 c n n g 2 & & 0 0 0 Y 1X5X).^ v 0 & % < g 8 g J ! P E { 4.q.Z.4.1.x.x.6.6.D.R.n.z.:.Q u c ~ _.zXZXxX!.1.P ~ ~ } ! j 0 4 4 < < < 2 j J n g ( O.v.( 8 5 5 3 3 B :.:.x.G.Q.aXzX:XA.7.$.^ Q V v W / G A G A p y 5 u l.c.l.l.S.M.v.z.M.N.F.}..X(.(.1X-XA.~ 7.e.A.H.V.V.~.|.!.u.6.u.!./.&XuXvXFX>X4.K ! 1.2.#.A.<XW.* . . X ` L.`.A.F.P.H.z.:.m.F..X~.~.S.S.~.(.|.#XyXdX#Xy.[ z d.g.d.9.g.@XtXuX>XC.Y 9 9 M ! K K H Y 0.W.f.r.d.h.d.s.d...[ T P P ~ $.^ P 8 4 2 2 9 z y.^.].7.H L q.).(.] 7.H.C.! 9 & & 2 C S.H.e.5.x.V.G.Q.).| C Z ^ } ! Y W.yXd.s.h.iXdXg.[ y.| { n 2 2 3 9 { &XKXKXFXdXyX^.[ f g n J Z..X;X$X;X;Xt.] 0.d.h.tXhXh.d.9.%XgXpX@Xe.I ~ S..XJ.}.;XzXCXsX'.r.` x <.NX",
"wXo.` [ 7.w.J.8.e.w./.yXfXiXtXtXrXsX*Xi.<.U z e.FXJXjXrX*X>X,X#X|.i.A.e.l - - ; & & 6 0 g 8 2 < & 6 | bXzX#X!.#X3Xm.4 3 5 w p i i F F i 5 w i p w 5 3 3 3 3 5 i p w p b J `.zX'.' 7.|.,X&X'.].&X].f.' Y 6.J.).Q.V.H 8 c E / E v c v q 9 5 5 r e ! V.).Q.e.L k u V ^ 2.S.P.z.W v P V.,XjXCXkXSXSXlXh.d.X.K J ! / 5 2 & & 2 w B ;.:.b.D.!.|.(.W./.(./.*XsXrX].f.z % @ % & * 6 f f g l P 2.c.~.<XxX:X6.I C S.7X.XW e C z.P.S.1.0 & 6 7 0 g K  .! 0 2 & & & g q.<XuXW.~ S q 2 & 8 E n g g n P ~ { q.C.Q.4.P ~ 3.S..XOX+XF.M.;.u 2 & 4 P _.~.G.1.7.5.4.q.`.`.} c 2 2 < 2 3 9 O.`.Q.5.} H.Z.n 9 B Q Q A Q z.3.m.!.#XzXcX*X!.6.1.6.A.u.7.1.W D E S i d a G ;.c.P.c.7.S..X3.Z W 3.A._.OX:X~.A.~ E E m.J.m.2.P ~ XXZXzX!.e./.zXZXdXjXCXCX#X' m Y 1.$.1.!.fX'.= . . o h / H.c.M.P.OXn.+.&.N.K.).`..X.X}.|.#X#XyXyX@Xg.f.9.s./.^.] [ 0.W.^.W. .P 8 9 n v.C.q.T H | (.#X^.'.^.g./.!.| { { ! ~ E ^ { { V.1.l g g g h f z l g K V.-X(.[ [ Q.H.T l n k 4 e 2.G.w.6.V.6.4.6.2.$.^ } v.5.Y l ' d.d.d.s.g.^.y.d.>X].[ l 7 2 4 8 5.pXcXtXh.d.] z g f 7 g n 2.K.|.aX2X|.4.z l K [ ..g...[ [ ).cXfX@XG.{ ! S.F.D.!.#XdXdXrX@Xf.9.[ 9.%X",
"wXo.` 9.p.p.u.A.4.7. XaXfXrX=XtXhXFXcXg.0.' z U -XcXjXsXsXyX&X=X,X!.i.e.T 9 - & & & 0 n  . .g < & < J :XxX;X|.#X;XG.k 2 3 5 5 w s F i p p u q c i B u 5 3 5 w a b u / E c 2.OX,XG.G. X|.f.r.r.g.>X(.x 7 U G.-X1X| 7 0 M / ^ ~ C E E M M M M ^ 5.6.V.q.[ z 7 6 4 2 5 i l.c.;.$.5.H.,XvXFXkXiXtX[.d.X.z 8 e V B B 5 & $ $ 3 A -.z.S.K.!.!. X~.^.-X&Xd.9.d.tXkX[.x @ @ > f f > 6 6 0 0 5 p $._.:X2X2X~.#.v %.+XP.^ E @.%.v.c.x.g 6 2 2 6 g Y  .K 7 2 6 & & ' 5XzX].| J E ^ M 0 c !  .{ Y J ! 1.q.Q.-X`.| m C 2.T.6XxX6XOXL.$.4 - - 6 9 g 9 4 8 ~ } C.<XAXbXQ.n 2 2 3 3 3 8  .1X1XQ.Q.`.} 9 5 S v.P.x.A.H.A.G.#XpXpX*Xg.f.e.6.G.fXKXZXi.T 6.V.$.i y G -.z.c.M.v.! A.<X).T I x.~.~.XX+XA.1.W E 3.oX:XA.#.Z 3.:XAXAXoXe.|.ZXZXpX>X,X/.4.L Z P I ^ 6.$XcX&X> . . X = M v.v.n.B..Xn.%.&.b.S.XX<X<X;X/.!.-X-X>X#X'.iXjXkXh.f.(.t.X.T '  .5.E v c c J V.bX-X4.H { w.p.f.yXd.] e.V.I { |  .~ P E 4.W.<X`.V. .' K f 6 f z n [ Q.bXQ.' [ q. .T  .V.e.I L 7.;XaX|.i.e.x.x.l.^ ~ x._.q.H g H 0.^.].^.y.9.d.yXvXsX^.0.l 8 8 l G.aX>Xf...[ H H Y { ' { 1.1.m.J.<X2XA.#.k H | 0.<...[ [ x [ W.#X^.G.6.~ 2.x.8.7.e.w.f./.,XgX*Xd.g.d.",
"wXk.o.s. X#X!.J.4.<.J.2XpXrXrXjXGXHXCX@Xr.4.1.I 6.Q.-X&X>X*X&X*X,X XJ.G.H.5.g 2 2 2 5 ( H.`.{ 6 & 2 n _.3X;XpXfXdX|.T 9 3 3 w a -.F A G S ( N N B / / B u u u ( S ^ x.^ u u I H.OX:X Xr.9.] 9.%XyX^.x 6 g | `.-X{ 9 u ) ) E S b ( ^ l.} ! ! Z.`.G.W.W.t.] ' U l 9 2 3 S ) ;.M._.1XzXvXrXh...[ K n n n M Z M / ^ u < $ & u ;.n.M.}.,X<X;X;XXXW.^./.h.[.kXHXGXh.> $ > | y.h * * 6 g 8 3 5 2.1X-X#X,XXXA.W W v.c.c.m.l.Q E ^ 2.J k g 8 g Y V.X.g 6 6 6 6 6 q.xX<Xy.T ! E ^ ( 8 c 5.Z.5.{ Y ! ~ 5.Q.-X).{ k v S z.+X6XxXxX:X1.9 l | q.' g 6 & 2 b } Q.5X<XW.| 9 2 2 9 9 5 7 7 K | Q.1X-X{ 4 4 V ;.c.J.XX;X|.!.(.,X@X!.f.!.!.J.g.FXIXJXh.r.&XuXH.C d D $.2.$.Q ^ ~ A.2X;Xu.3.K..XU.U.XXXX}.S.x.+XxXzX;XU.E.E..X6X:Xb.6.~.<X<X(.e.1.L m m C P I 2.~.VXKX&X* . . X > ) ) Q ;.M.S.6.b.b.x.6.~.<XxX,Xf.w.^.,X-X#X&XFXKXFXtXh.&X^.| ' Y ! E u 5 c E ! 5.1X`.} P { ' 0.@XcXd.l m m v ! | ' H n Y q.(.-XW.y.V.5.! m g l | C.X.0.).q.' 5.{ Y | `.`.(.G.w.^.CXKXpXy.e.A.5.4.{ T e.:XQ.{ T ' W.&XfXdX/.r.@XjXFXvXdXf.[ l 9 6 ' ).t.y.y.q.| V.`.`.`.XXA.~ 1.V._._.l.^ M H q.W.(.^.^.f.9.] ] e.H.8.3.~ Y e.7.<.' I R p. X X/.p.p.y.",
"wXk.o.s.@X=X/.!.w.w.p.f.@XjXFXFXGXFXjXiX/.t.e.2.#.1.<.p./.&XpXfXyX'.g.J.;X-X{ r 5 5 3 v L.5XH.L 8 k ' ~.#X&XfXFXfXy.H e 5 5 3 t A A S Q ) l.l.! ( ^ ^ ) ^ E E ! 2.V.H.x.m r v I _.xXxXg.9.9.'.jXjXd.7 - 0 c O.I.^ u B O.O./ S ( S l.x.E m E Z.G.V.C.).&XyXcXCXdXt.k 9 B / ^ c.H.).].).y.U g 6 7 8 / l.l./ ^ c.S.@.5 2 c Q @.%.N.;X<X;X~.(.W.e.q.!.iXHXIXIXGXj.: * ` uX>Xx % % 6 g j 3 5 v.5XxXxXaX~.H.x.v.x.H._.F.x.W c c J } 5.{ Y K q.Q.q.z f 6 6 6 6 K C.| K K ! E ( v 5 8 v.L.{ J J E E } Z._.x.J c b S D %.x.K..X~.{ I H.1X1XQ.Z.' g 3 u ! Z.} l g g 0 8 N / l.q.' l H [ C.).Q.{ e v @.z.z.A.U..X|.W.W.^.#X,X|.!.}.|.&XFXPXDXtXlXkXjX(.T I $.2.z.$.S C 2.K.aXuX|.J.|.|.}.XX3XfXxX:X+XVXVXVXVXxX6XOXL.c.x.3.x.A.S.H.x.2.! E P ~ ~ ~ 7.Z.:XVXcXi.# . . + z I./ i / Z.6.6.H.~.A.1.V.;XzXcX@X0.t.(.!.i.f.pXKXKXrXd.).).C.| K n k 9 2 k ! ^ } V.c.E M ~ t.yXvXjXr.g g k C ! q.q.{ Y q.Q.C.q.| l H ' { Y k H t.yXd...| ] ' 5.4.' 5.+XOX).^.).].dXAX>X[ ' 4.4.G.t.| q.-X(.W.W.^.>XpXcXaX!.i.|.*XsXkX%Xy.| z g 6 7 z C.C.C.C.Z.5.Q.Q.G.x.5.} ^ 2.c.^ ^ ^ ^ J ! t.aXCXFXFXCXpXG.6.3.#.I ~ W.&X*Xg.r.<.7.7.R H l L ' 4.",
"wXo.o.j.=XiX*X#X@X@Xg.9.g.jXFXSXkXkXkXiX&X|.i.u.6.4.<.u.J.@XdXFXsXrXpX*XsXMXg.7.E b 9 M Z.1XXXe.e.W.#XyXuXsXsXsXf.[ U c u p 5 5 9 v b M ^ } } E M E ! ^ ^ E P ^ W.-X1X).1.I ~ ! 4.|.zXjXrXh.CXFXlX` 6 2 2 3 u G G p i E ^ Q C M B E } W C M M L ! C.(.*XjXFXGXFXuX| m S l.2.7.1.{ K m k 9 9 9 j M ^ ;.^ / O.l.M.I.-.) I.I.$.3.K.}.XX|.J.W.C.1.~ 6.[.GXIXGXhXs.: % ` >X^.h @ % 6 n N 5 5 M V.1X<X-XW.H.S.c.x.L.OXK.5.2.m g n { x.Z.5.q.).`.`.| g g K j 6 & < 0 j  .^ E E q 3 9 v.H.J n P E / l.c.v.^ E / ;.>.%.:.:.C Z { ~ 2.H.y.X.5.q.Z.{ u 8 K / c 2 2 0 j j ! H.1XbXdXaX-XV.q.2.^ C M c._.L.H.S.F.J.~.Q.G.i.>XaX,X#X X#X#XsXNXiXtXnXCX,Xi.{ ~ $.M.M.^ S C 3.H.|.yX<X-X#X#X-X-X3XZXzX~.A.+XoXT.T.XX.Xm.;.l.c.S.S.x.2.x.%.%.l.v.S.S.A.A.J.H.`.;Xf.x @ . . + X.{./ p ^ ).J.~.XXaXJ.1.6.}.dXZXgX(.!.i.e.1.' ] ].[.^.d.].Q.q.| [ J H c 0 g P O./ ^ E E E 1.aXHXGXtX..l n J ~ V.`.H.V.~.-XW.4.n m k k { 5.l c ! C.dXyX^.f.W.q.| 4.L P 6.x.| t.W.f.y.w.7.' | [ e.bXaXG.e.i.(.|.;X<X&XyXyX^.0.' ] y.g.tXg.r.i.y.[ z ! | G.q.V.V.5.! { q.5.{ ^ ! ! Q A e M n J ( M  .-XFXKXHXJXFX-XG.3.^ I 6.ZXPXPXtXh./.i.4.K H k k l P ",
"wXk.o.s.=XfXjXjXsXdX&Xr.r.g.@X&Xf.d.y.y.t.(.(.G.G.w.4.u.J.#XCXFXiXlXNXfXdXuX&XG.$.P C ~ x.A.Q.,XyX>X&Xd.d.'.]...[ C.Z.n M E ~ ' L J J c M M P n c v b b S B M { |.zXZXaX-XG.G.5.T l u.VXJXPXGXFXh.> & 2 2 2 2 5 5 8 u M E 2.4.T 1.x.c.6.! P k 8 L A.(.].yXyXrXpX,Xt.e.A.A.5.} ~ P 9 8 8 8 c c M / ^ S C W W W W %.c.8X+XG.x.A.H.G.A.6.1.1.5.6.4.<.] d.@Xh.d...h % ; f > * % * - g j 5 3 3 8 ! { P W %.B.S.A.G._.H.1.x.l.! K { y.W.Q.Q.|.#X(.| g K Z. .g 2 & < N / / S S u 5 q O.c.M c N M Q ) Q S S D %.+XOXR.P.:.b 9 c M M J K Y | W.W.5.{ M M M M u 8 8 c 9 ( L.1XdXdX<X:XZ.{ E A i S S.7XOX_.D.D.A.J.~.|.&XrXfXxX#Xe.4.#X2X;X@XsXjXsX@Xe.1.W } x.M.z.2.x.V.e.J.|.gXfX#X(.XXoX;XfXfX4.v V V b C E C i a F c.5X+Xv.E S S G F n.K..X}.J.K.8.6.H.} 6 + X X + [ Z.! S %.).(.(.,XaXJ.w.G.}.}.<XxXaX:XW.t.5.} { { ] W.].].W.q.{ ( ( ! } 5.| q.l.} Y c C $.~.vXJXZXt.K R ~ 4.4.G.F.7.A.<XaXW.U 7 9 C 1.G.5.g m ! 0.yXCXsXtXtX%Xd.0.l 7 7 g l { q.[ g l K | 0.] W.bXuXA.w.(.,X2XaX;XH.W.(.<Xw.U z ..[.pX/.W.<XvX>XW.V.5.{ { | 5.! H Y |  . .! B p 5 2 0 v ^ ~ P M K W.yXCXKXjX*X!.H.x.3.3.p.KXIXIXmXqX@Xr.' V.4.T P m n ",
"DXeXo.s.g.&XpX*XrXyX,X^.r.0.0.<.<.[ [ [ ' w.G.G.~.G.e.7.e.#XCXkXtXsXdX@X/.g.f.G.x.1.! ~ v.5.e.-XuXuX^.z f l g f [ C.| K J 5.`.,X(.C.{ J c v u u 9 5 8 8 9 u M ! 1XZXfX&X#X,X,X-XT 6 f @XIXIXPXkX` : & 2 0 0 2 2 4 k H L 1.~.~.4.{ e.G.H.4.~ M u I J.-X!.i.w.w.p.(.C.G.`.`.V.{ ! E M M c e C { Z.x.2.E C W W C b b Q P._.H.F.J.Q.H.2.^ 2.6.e.V.e.T ' [ [ 0.y.1.z ; * $ @ @ % * & 9 c 8 8 8 k Z l l m W %.m.A.A.A.x.2.c._.H.5.q.C.).(.-X|.^.C.| l n {  .K 6 < 2 c B u q B B c v E ^ M v v b S S S S S @.z.4X9X7XF.W u 5 9 9 9 g n { C.].>X].C. .! J J E J n J j g ^ _.-X(.G.1.^ ~ E b b ^ x.H.K.D.A.S.~.|.;XaXcXjXjXxXw.7 m W.1X;X>XuXuX'.t.6.P W $.;.z.z.x.H.H.G.A.|.dXfX*X XoX;X;XaXxXe.e r p v b i p i p a ) 8X`.^ 9 5 5 5 w ) L.+XXXJ.A.7.3.5.H % O X X + [ O.! ^ z.G.(.|.,XaX#X/.|.}.G.W.(.#X|.!.G.e.5.5.{ 7.-XaX>Xt.4.{ ! ^ ! V.1X5X`.q.| { 8 N S.<XjXjX,X4.T 4.x.A._.|.A.1.A.|.;X!.1.7 4 P L.+X4.n E P H y.jXFXkXtXtX[.d.[ f 2 - 4 k Y K f z | W.C.] [ q.y.5.e.-XxXxXaX,Xi.7.W.aX>Xt.[ y.yXdXd...#XuXf.| [ g 7 g K K Y [ U l l l k 8 2 & < 9 } 1X1XW.| Y q.W.|.,X Xi.u.A.F.D.!.=XJXIXIXDXtX@Xw.' 6.1.~ W C M ",
"mXeXo.s.d.g.@X'.g.i.!.(.W.w.4.1.7.6.e.A.u.t.C.G.V.V.5.1.4.@XCXnXlXrX/.0.<.0.q.Q.G.{ J ! } v.V.e.q.(.).U 6 - & & 6 n J ! | ).&X*X,X-Xe.P c N M M E ( ! Y P P C T ,XFXiXr.g.cXFX>X' 7 6 0.FXPXHXh.f - 2 0 M 2.T K 4.t.f.f.@XdX<Xf.t.w.e.x.7.^ I v 1.}.,X!.u.6.7.u.~.i.e.V.x.} E W E Q $.2.#.x._.5X1XJ.1.~ ^ Q S p 5 p Q v.6.D._.`.Z.E P V.`.-XQ.t.5.V.C.W.W.C.1.H f f * O O @ * ; l e.Z.v.2.A.A.5.4.~ #.#.A.~.Z.2.$.2.S.XX_.q.e.C.t.y.(.,X(.q.{ U n J { { n g c S B u u S / B b b S B S E ;.z.;.:.;.-.$.v..X6XOX$.V q 5 5 q c k J 4.Q.].bXbX-XC.| { J J J ( J K 0 9 x.`.`.V.P E J E M P V._.e.1.2.m.F.XX;X,XfXZXCXNX;Xx - Z W.-X#X-X-X].W.4.P b Q Q @.W W 2.Z.H.H.~.|.,X2X*X$X;X3X,X,XaXK./ S G / ) B a a w 3 5 i i 9 2 2 3 3 5 G L..X~.H.H.K.6.J 6 + + X X $ [ ~ ! V._.G.(.|.;XaXaXaX6X}.7.<.i.~.H.A.A.A.5.1.{ 6.~.<X(.e.5.~ M S b Y Q.<X`.C.q.P k M S.1X/.f.i.{ 1.5.x.~.XX,X(.G.J.!. X;XK.#.P I S.+XV.! E P l ' '.vXvXtXtX[.g.y.[ H 8 2 2 8 H Y U | ).).0.U H Y ~ 4.).<X<X(.^.i.7.W.].>X^.] y.-X).[ z [ U l n g g K z f z t.).d.[ ` x f 7 2 2 0 n 5.<XvXdXQ.4.e.H.6.3.3.3.6.m.S..X XsXHXIXIXkXlXtXr.' U l C D C B ",
"wXeXo.s.d.f.g.h.g.w.1.e.W.G.1.#.V.H.(.XX(.!.G.e.V.V.6.{ 4.W.sXNXsXh.w.4.T { 5.G.G.! m P ~ x.c.H m 5.`.C.l - - 2 2 0 8 k  .-X>Xg.rXaX-X' T { 5.^ Z.`.5X-XXXOXV.4.dXKXsXr.f.fXvX'.4.m 9 H ] y.| [ 7 2 2 ! H.:X<XzXfXvXFXFXGXGXlX[.'.t.e.3.3.%.I Z e.3XfX@XW.H.~.(. X!.6.~ E S S D Q l.S.K.H.A.J.XXXX~.H.6.2.2.2.E p 5 p b W m.K.H.5.P P V.-XaX>Xd.] t.).W.t.| P z f g f @ O $ : ; [ >XbXC.V.XX-X`.).G.6.A.}.:XG.T 7.S.S.V.1.P { 6.7.4.(.<X(.C.| T H m ~ G.).Q.C.x./ b N S ) ) G b B Q ;.$.z.M.M.n.:.z.z.v.F..XN.W A i 5 5 S l.! Y V.G.C.(.;X(.W.G.{ K K ' 5.J g 0 2 J C.`.q.} { ! ^ P ! `.xXC.H P M.L.:X2XyXsXCXCXsX' - - { <X>X(./.W.t.4.P e C S Q ;.W W x.A.}./.!./.-X1X1X|.;X2XaX,X3XXXS.2.^ ;._ G s a w 3 < < 3 5 3 5 w w u O.P.S.A.V.Q.-XQ.K & @ + + X $  .^ 2.`.bX<XaX;X;X2X;X,X;X}.J.G.u.u.A.6.c.S.x.x.3.l.^ 1.} v.2.E c 8 9 M  .C.C.`.Z.m 9 P V._.~.A.H.H.C.i.G.W.Q.sXfXjXpXpXpXdX<X}.u.6.m.S.x.$.^ ~ K 4.d.].rX[.h.'./.t.| | Y l g n E } 1.{ C.).q.K m P ^ 2.5.Z.V.q.G.Q.q.W.W.).W.[ Y { { Y ! { 4.4.| q.).>X(.[ [ ].uXiXtXrXrX'.d.^.^.| [ | -XvXcX#Xq.H.XXV.#.I $.x.A.A.J.|.iXGXHXSXhXlXtXg.[ l 7 9 u e u ",
"wXeXk.h.g.g.@XrXpXp.R R e.K.A.6.6.6.i.W.W.i.e.6.e.A.x.1.4.G.,XfX@X0.4.4.T L ~ 4.2.~ M P } x.5.Y Y q.Q.H.P k n J ( 8 2 4 ~ 1XxXg.[.dXpXf.!.~.G.{ 2._.`.-X<XbX-X^.jXJXvX^.G.(.(.C.} W C c 8 g g g 8 2 8 C.>XyXjXFXHXHXPXPXPXGXtXj.d.y.A.6.3.1.T 4.|.ZXZX*X/.|.<XyX-X`.A.~ P C C C 2.S.~.H.e.1.7.m.A.6.V.V.6.A..XH.#.u 5 2 8 W S.H.4.I ~ 5.W.>X>Xg.y.f.].t.| Y Z f f 6 6 * $ * * f | uXuX0.i.#X,X,X(.!.e.G.|.2XXXe.x.H.A.^ Z v E $.2.1.H.XXG.Z. .Y m m 2.`.zXvXbX).5.! M B / / / S S -.;.;.:.;.z.z.x.M.M.P.P.z.@.A G s w 5 ;.`.C.{ C.H.5.4.t.W.(.-XC.| { q.H.{ 8 2 2 g  .C.V.G.H.G.5.K ' XXbXZ.J M @.m..X2XdXjXCXvX).f % 6 e.gX-XW./.!.w.1.P v @.l.;.$.$.z.A.;XzXfXfX#X!.Q.~.e.e.K.J.!.oX:X_.v.;.-.a y y y y w 3 3 5 a a a a a G ;.c.2.#.4.C.1XXX} 6 $ + + X $  .x.6.1XvXvXgX(.!. X|.|.|.}.oX;X~.m.6.3.z.c.S.m.3.C r e n ! E M M 9 5 c ! 5.| _.Z.k c P { x.F.D.K.(.&XjXaXf.f.SXHXHXFXCXjXpX*X;X}.J.6.6.#.^ W I 1.e.t.....0.d.^.(.W.w.q.C.5.Y ! ~ ^ ^ ~ 5.Q.V.Y m D W @.E P ~ ^ x.v.{ q.t.W.Q.{ H H E ^ ~ ~ G.]./.*XjXcXgX^.[ ..d.tXMXkXkXkXMXkXMXtXd.X.] &XZX,Xt.W.,X|.e.~ D $.m.H.p.i.&XiXlXkXkXkXiX@Xw.[ l 9 9 9 8 ",
"wXeXk.h.g.g.*XjXCX X' R w.}.}.G.1.I 6.Q.Q.e.4.6.5.6.6.6.e.W.-X|.<.z [ ' ! M E ! ! ~ ! ~ v.Z.V.V.C.Q.Q.C.{ Y ! ^ ! J 8 k { <XxX,X'.pXdXdXcXdXW.' Y ! P { q.V.W./.pXCXcX~.6.5.6.v.v.$.^ ^ E j 8 e u 2 g ^.[.tXhXSXDXDXDXhXqXj.s.9.9.w.G.G.w.0.<.t.yXFXFXpX X$XgXaX;X|.!.6.1.P P I x.L.K.6.T #.3.N.6.1.6.V.6.V.oX3XG.P e 4 3 u z._.S.2.2.5.t.^.,X/.f./.'.r.] H m z x 6 ; ; * % : f r.uXyXr.#XjXjXsX>X!.u.i.|.-X(.H.x.V.6.I i i V C C m K ' U Y J Y H P v.`.zXvXdX].C.V.$.^ Q S E / S Q @.n.z.W 2.F.7XK.x.P.I.;.F G a a w 5 l.`.Q.q.G.V.' z 0.`.1X(.W.q.| y.).Q.J 6 2 g J { V.~.:X6X~.' { H._.C.2.^ %.z.D.XXxXZXZXyX| - & 8 ~.zX#XG.G.Q.H.H.x.^ Q c.:.@.z.m.J.2XCXKXCX Xu.A.J.1.m k P 1.F.L.S.x.z.F w 3 w a s _ a a A _ G B a G ) c.c.$.P P ~ M.F.c.n & + X X % C.Q.e.`.aXaX(.w.u.~.}. X X/.3XzX:XF.^ P ^ z.M.z.$.Z v ~ P l K 5.`.V.c M ! { } x.} Y M J I x.S.m.J.#XjXHXCXh.g.SXPXDXkXsXpX$X X$X;XXXG.6.2.W M M &.3.| [ K U [ 4.e.C.0.0.t.C.| { J m P J ' Z.5.P v u b b b b b V C m 9 k { ).1XC.1.#.W S v M 5.-XgXfXyXyX#XW.z 6 [ d.h.h.d.j.[.[.s...[ z z W.cXxX X XaX,X/.u.#.I 7.H.^.i.r.@XlXFXFXsXiXyX>X^.4.L P Y ' ",
"wXeXk.j.f.f.=XjXNXrXy.7.}.$X$X/.1.l #.H.H.7.~ 5.V.6.A.V.G.G.t.0.l g z n k k J J J E } 2.5.Z.H.Q.H.Q.(.C.C.V.} W 5.Q.W.0.y.>X>X@X@XgXZXFXFXdXg.' Y J c c Z ~ 6.G.-X#X;X~.c.2.2.c.v.$.@.;.E k g M u 2 H >XuXlXSXPXPXmXhX0Xk.k.j.d.9.9.t./.*XyXrXrXiXsXvXyX@X$X;X;X X X$X$X~.' Y 2.S.L.c.W W 3.D.T.K.6.6.e.A.6.Q.<X1X1.k 9 8 u / L..XF.x.1.e. XaX@X'.'.sXrXy.z H y...f 6 * * @ # h [.dX&Xt.#XFXGXCXsX#XoX:X6XXXJ.D.m.x.3.W v u N N k g g g g l n P ~ 7.A.`.aXyX#X(.~.~.S.S.H.x.l.^ C ^ z.M.z.$.x.+XAXOX5.x.c.@.G G B i q p W 5.V.W.).q.l 7 K Z.Z.5.| q.t.^.>X1XZ.c 9 E ^ x.G.Q.:X:XXXV.5.Z.S.V.S.S.P.M.6.A.(.<X<Xt.g & & 9 L.bXXXJ.J.Q.).XX+XS.2.l.%.:.n.D.~.,XdXCXfX X7.I I l 8 5 9 C %.z.n.M.n.A w w y a _ -.G A G _ _ G G Q ) l.c.2.~ P M C W ;. .& + X . % C.`.q.4.4.q.{ T 4.J.;X6XxX:X:X:X_.x.P 8 v @.z.l.#.~ K.2X(.w.w.^.uX].[ K } O.^ P P ! ! E 1.6.3.3.e.(.CXHXFXqX%XSXHXnX%X=X|. X X!. X2X:XA.%.W S W E C Z m P U z z U { 4.e.e.V.5. .Y n J H m J J J P m M u u b b r u C E P T A.XX~.A.6.l.E m P ' W.aX>Xf.y.| { l 6 g ] [ U h h [ ....X.[ g l q.1X<X-X:XxX<X&X#X!.t.i.!.^.w.w./.dXvXrX*XrXpXfXaXW.e.G.XX1X",
"wXqXk.s.f.r.g.=XCXvX[.r.g.@X@X/.y.l P 1.^ W W x.S.A.e.w.W.C.y.] l f g g 8 n H g 8 8 E 2.! { 5.K.G.V.A.V.C.).5.{ V.<XcXcXuX@Xg.d.f.rXNXjXkXtXf.' I S b M ^ 2.5.(.(.W.G.G.c.z.$.V.z.W Q ^ l.E M / S 8 q.bXCXnXPXIXIXDXlXj.j.lXFXtXd.9.r.@XCXKXJXFXlXtXsXyX&X*X$X,X$XrXFXKXjX0.' e.S.M.%.V @.z.K.XX}.i.6.6.H.5.e.-X>X4.L n n 8 M } S.F.V.4.7. XcXtX'.&XsXjX].z l ^.^.z f : * @ O : ].yXf.e.(.vXFXjXiX$XoX+XXX~.D.n.N.D.A.2.C M ~ ^ I T | w.q.K H T v.S.~.-X<X1XQ.K.XXXX_.XX:XOXK.2.~ $.l.z.v.x.6._.<X;X5.! 2.;.) ;.) B u b v I H.1X1XC.l 4 e M ( M J { 5.y.^.t.' m J } S._.W.(.-X(.G.A.x.S.V.x.x.F._.S.6.7.5.e.e.U 7 & & 3 ;.+XXXu.J.|.|.|.}.J.S.6.b.m.b.S.J.<XaX,X Xu.I 9 9 e b p p @.:.,.:.B.n.F A _ _ F F -.;.Q F ) B B B S Q ;.^ 2.v.l.E M C l.V.2 + X . % q.-XC.~ W { ! P { Q.1XXX.XD.7.1.2.l.P k v E ;.;.#.~.xXAXcXpXh.g.uXyXy.' ! / C C P 2.v.5.x.6.x.x.1.t.fXJXHXhXkXHXGXkX%X@X#X|.|./.!.~.K.M.@.S S ^ $.M 8 c T w.y.0.0.4.{ 5.H.K.S.S.x.K n n 9 2 k { H.Q.5.m e b v 5 8 ! Z.} P ~ x.A.V.1.4.).`.t.4.u.W.W.q.| 5.7.I n g g g 0 6 2 6 9 n n k 9 p z.K.K.H._.aXaXpXsXdXdXsXpX'.w.0.!.pXsXrX=X'.g.*XyXf.0.i.XX,X",
"wXqXj.s...0.9.h.CXCXrXd.g.@X*X&Xi.U v u u u C c..XK.G.f.f.y.^.(.d.U H Y 4.Z.x.J 8 4 M W M ! x.c.6.~ ~ 5.H.e.5.} q.-XCXjXuX&X'.f.t./.2X#X@X/.i.2.~ W E ^ 2.z.x.G.V.e.V.6.2.%.@.V.:.@.@.l.S.c.^ l.$.} C.2XaXrXGXPXPXGXhX0XqXDXGXhXqXd.d./.sXGXFXSXiXh.'.&X&X*X$X!.oXjXHXIXGXg.w.i.x.$.C u C z.b.D.K.A.u.G.J.e.6.W.].q.J v b 9 4 k E x.x.5.t.pXCXrX^.g.[.jXrX0.x [.lX..h : = # o + x 0.q.q.C.(.#X}.].|.~.A.m.m.S.S.T.+X~.5.P W v.c.6.5.-XAXcXy.| I ^ x..XoX X(.(.~.~.K.z.v.P._.Z.} ^ $.%.$.z.v.6.e.W.-Xi.7.2.$.$.V.S.^ M E E C 5.-X-Xq.K n 9 8 c M J n Y ! ' K g g ! Z.<X#X].>XuX(.G.G.A.S.m.x.x.A.G.x.2.2.2.~ ^ W e 3 < < E `.<X<XdX2X-X}.}.}.}.~..XU.8.8.K.:X:X|.e.' U z ' e.1.^ z.B.n.;.>.>.:.M..X7XOXx.~ H.+Xl.P M b p i a A E E 5.Q.A.4.| { x.Z.6 + X . @ [ Q.Z.^ / } E P $.v.5.T k 9 4 2 8 ! 5.W./.A.1.Y { ~.aXaXzXCXjXuX&X(.e.{ } l.b k 2.`.`.XX(.-X1XG.' 0.uXFXGXFXGXHXFXlX].#X*X#X#X#XG.6.1.3.I v W M.F.$.m I G.,XfXfX>XW.' e.5X7XP.S.x.n 9 m n g ' (.zXcX-X4.l m M u n } H.5.{ ~ l.%.W C { >XKXSX*Xi.t.C.2.x.v.x.c.~ m c 0 2 2 2 2 3 3 3 5 8 b l.n.:.;.v.5.D.oXdXFXFXdX&Xt.y.d./.,XpX,X Xw.<.G.~.w.0.4.e.t.",
"wXwXlXj.` ` 9.@XrXpX*Xg.h.=XjXdX].7.I v u p V Q c.A.!.#X(.d.].zXaXy.z T Z._._.} u 9 u b b ^ } ! m l H 5.C.| ' | ' W.*X%X%X%X%X%X'./././.f.i.e.6.V.S.H.P.S.2.~ ! P 1.6.2.W V G z.:.@.@.z.S.S.v.n.n.^ T ' [ d.tXGXPXGXDXmXmXDXHXSXlXh.d.f.@XtXlXiXtXg.'.yXyX=X!.u./.NXIXPXFXf.e.V.4.7.7.T l L #.6.A.6.G.(.!.7.4.G.G.1.( u b u 9 v E 2.x.e.f.jXFXiXg.d.'.jX*X<.[ tXnX..> : = * o X # x ! Y { Z.C.5.Q.~.A.6.m.M.S.F.5X6X.X6.W $.z.c.x.e.:XAXAX,XXXV.#.6.F.J.G.~.:X|.6.I e v ^ S.v.{ ^ %.%.@.Q z.V.G.pXcX,XG.c.$.W F.XXx.M E v.{ ' | 5.{ } ^ n 8 c E ( H n l n 8 0 8 P XXzXjXdXfXdX>X>X(.G.V.A.K.OXXXV.6.1.2.2.l.%.D p 5 2 < k -XcXFXZXfX#X!.J.oX;XxX;X+XD.A.K.+XU.u.r.f.].uXcXaXW.6.P.B.n.;.-.:.z.P.6XAXxXH.4.XX6XH.J J B b E W W 1.G.#XdXuX[.^.C.q.g $ O X . + > H H n c k 5 e J M u 9 2 2 - - 9 { Q.dXZX,Xq.Y Y 5.A.G.!.uXvXdXW.{ W $.c.c.P J S.OX<X-X|.-XaXW.] 4.!.rXnXGXGXSXMXg.W.(.#X,XyX&X(.W.G.H.6.~ ^ F..XT.G.|.fXFXGXCXyXi.U T Z.} ! n c 2 2 c v.~.-XuXuXuX,XW.' T x.x.1.x.~.~.G.5.^ E b u U =XIXIXFX'.f.y.5.{ 2.x.x.2.} { c 9 9 9 c N M M M c b E F D S b c I 8.-XjXdX*X^.| 0.!. X$X,X,X!.7.1.1.' e.e.4.1.' ",
"wXmXDXqX` ` r.*XdXg.a.'.pXsXsXpX/.e.~ C v p A S D W A.:XXXt.^.yX>Xt.U Y { { v.^ J M b v M E M 9 9 g z q.W.y.| | <.C.-XtX=X*XyXuXuX=Xg.^.d.w.e.q.e.K.H.x.5.~ C 8 c E ~ E N t d @.x.%.W 2.6.2.W W F b 9 7 l 0.'.NXGXDXSXDXDXPXPXHXSXhX@Xf.f.g.rXrXtX%XsXjXfXpX Xp.g.sXHXSX[...e.Z.W.pXZXpX9.l L 7.A.G.XX2X|.w.e.W.V.P c v b M u S v.m.A.G. XfXCX*Xf.i.!.>X^.[ ..sXMXx * * * # o X # z ! c 9 E v.x.Z.K.D.m.N.M.m.F.6X6XK.6.W $.;.z.1.6.~.,XuX2X3XXXm.x.S.c.5.G.XX|.1.k 4 9 S ;.$.$.v.z.:.W S 2.G.1XKXKXzX|.V.W 1.+XaX}.2.2.Z.} J M M M / v.^ n c E ( j g g 8 9 9 0 l -XvXjXjXjXdXdXaX<X`.e.6.OXxX-XC.V.V.V.x.l.%.D i u c 0 0 ).ZXFXZXpXf.w.J.6XVXVXzX2XT.A.A.8.u.f.rXCXFXFXFXiXW.7.%.z.:.z.z.:.%.:.F.6XzX|.i. X;X(.{ m C :.x.x.e.].sXFXHXFXlX[.C.g % + O O X + * g 0 0 0 2 2 2 0 9 5 5 3 2 2 2 9 V.<XsXSXcX'.[ L 3.A.V.5.5.e.5.{ I V Q v.c.x.x.L..X~.!.|.f.W.W.q.| 4.t.].rXrX[.d.w.Q.-X|.2XaX].^.>XaXaX;XJ.7.c.F..XaXfXCXFXFXkX&Xr.J g 0 4 4 2 < < 2 j C.<X>X].f.t.t.C.C.).1XH.1.6.oX2X(.5.! E M b Y g.JXIXHXlX'.f.K k m $.l.} 5.} P m C ( ( ( / ^ O.b t 8 i / / y 2 5 I ).].g.g.W.4.] w./.~.-X#X!.~.4.L H Y 1.~ ~ ~ ",
"mXDXDXqX9.` r.#X<Xr.[ f.pXsX=X/.e.{ I E S i A S b b $.c.5.{ | 0.W.C.q.' K H P E E ! J N M S S c J 4.W.#X#X^.t.e.4.C.-XdXuX*XyXrXrX#X X^.f./.XXC.T ^ %.S k J / b u N u e e 9 C l.H.L.3.~ ~ J 9 4 2 5 k ' t.W.&XhXnXnXhXDXPXPXPXHXSXhX=Xf.r.@XdXsXsXsXjXjXkXfX*X!./.pXfX@X..0.G.W.&XFXLXKXg.U L 6.G.~.<XdX$X X/.(.W.' n M M u v W v.S..X:X$X,XdX#Xf.t.w.w.4.Y w.]...* @ @ # O X O > X. .M 9 c ^ c.S.K.D.m.F.M.z.S.XXOXK.m.3.3.2.2.x.n.D.!.|..XK.D.A.m.S.z.2.1.K.~.~ c 8 u b Q $.c.c.v.W C W 2.V.XXzXZX2X~.1.I .XxXzX|.6.3.v.} M u c b E l.O.J M E J c 0 2 0 0 2 2 0 Z.bXuX&X].(.).~.~.K.V.6.~.<X-X(.!.H.H.x.v.z.$.S S J g 9 V.<X>X].).G.5.A.6XVXVX2XOXF.x.e.i.#XsXSXGXGXnXlXg.4.1.2.2.z.M.P.B.%.d v b.+XXX(./.~.;XG.H C M.H.V.~.vXSXDXHXnX0X..0.z @ O X O X = z ' 8 g 9 0 2 2 4 9 y r u c c k l x.xXNXFXFX%X] I 3.e.x.^ C c e u p i S $.S.P.S.c.1.1.Q.>Xd.y.].-Xt.[ ] ] y.d.f.t.~.-X-X#X,X,Xt.q.Q.>XfXfX;X~.V.A.J.,XpXfXNXkXrX/.y.P 8 2 4 2 4 8 g 8 g { { T { 1.2.{ { 0.q.e.4.L k 7.|.G.{ ! M c M Y 0.kXIXPXnXdXW.g 9 v W } } 5.2.{ 5.5.}  .! S ;.I.F 5 2 w ) O.u 3 9 I !.&X@X@X(.w.] <.4.4.t.~.XXXXw.' U z K J P ~ ",
"UXUXUXqXs.` a.#Xf.<.[ r.'.uX'.w.1.Y M E S a p i i p p i C P P ~ 6.5.5.P m J M M E E M c c E ^ } e.<XcXdX&X^.t.4.0.r.f.rXrX/.g.'.&XyX&X^.f.!.XXV.M u y r 8 J J P P P r 5 9 u W S.-X~.6.~ ! 8 2 2 2 2 I XXbX>X'.iXkXSXDXPXPXPXPXDXhXqXh.g.!.;XpXdXjXjXsXsXsXsXpX@X^.!.i.w.0.f.'.sXsXFXHXFX/.<.7.}.}.;XgXpX,X,X-X(.t.[ n c q 8 M ~ 5.A..X3X;X,X#XQ.G.4.U L z L w.] h % @ @ # X . @ g C.C.^ c c ! Z.`._.K.S.S.M.x.M.F.L.K.F.K.J.S.x.x.n.b.A.H.S.z.z.z.M.P.m.$.~ 2.x.l.E M S Q ;.v.S.M.;.C P l.x.6.V.~.XX~.m.~ I L.5XXXe.1.~ ~ S u p u M $.l.! J J ! ! n 2 < < & < < 2 M c.x.4.{ 1.~ ~ #.z.x.x.J.-X,X>X,X;XXXH.S.x.%.W P n 9 M  .K l ' Z.c.$.2.F.oX|.D.m.2.5.W.pXvXCXkXtXtXtXg.0.' } 2.v.M.P.L.T.N.D r D F.OX<X;X/.W.G.1.^ 3.7.I }.KXHXDXDXlXj.o.` h * + O + O = X.O.M n c c 9 0 u b 8 M l.c.v.5.T 4.yXFXKXNX/.t.6.6.5.2.P M b V s A G S Q z.@.v e 9 m -XvXcX&XyXjXsXg.y.0.0./.-X-X-X#X]./.|.W.0.' 5./.pXpX XG.e.e.!.>X>X@X%XtXg.t.e.$.E c c  .W.<XxX`.{ l 7 9 c } O.Y { 4.{ { ~ P k P A.A.2.S 8 8 ' {...d.tXtXh.f.{ 8 4 p b P 5.Z.A.).C.C.G.C.| E ^  .F 5 < 3 i u 5 k w.*XsXjXjXCXpX!.<.<.4.7.' <.w.t.^.^.w.1.P k m ~ ",
"UXUXDX0Xo...a.h.d.[ z ] y.&XW.' ' T c N V a y y y y w y b E P E W P M c m M M M M M N b i S v.H./.dXfX*X@X^.r.r.s.h.h.tXh.9.y.f.'.iX[.d.t.w.4.P 9 9 y v P W.^.^.W.t.I c v V %.+XaX(.6.{ J 8 9 g Y g Y aXuX^.d.%XkXGXPXPXPXDXDXmXtXh.g./././.|./.&XyXrXrXrXrXsX*X^.y.0.t.#X*XhXkX*X&X%X&XW.!.3XgXgXgXfXfX2X;X|./.e.Y c 9 9 M x.Q.G.6.6.J.J.!.G.V.x.7.' U T 4.W.0.z h : # X X . @ [ `.Q.{ H n ^ c.`._.K.F.F.S.S.M.x.m.S.~.<X2X:X}.A.z.z.S.c.v.:.:.z.z.n.b.2.P E Q ^ M S Q ;.z.c.S.x./ E l.H.Z.x.#.2.V.A.6.6.#.&.2.! Y { ^ E b u A B S c.S.J j E } V.' H g 0 2 2 < 9 / @.E m M W @.^ 2.S.S._.-X-X,X,X<X:XJ.1.I W $.^ / J 9 c } J 6 7 ~ c.Q D I 2.6.6.1.T i.yXCXjXsXh.9.[ [ [ U Y E Q z.F.T.L.L..XS.W D z.K.1XaXaX/.G.A.z.&.l r J.JXIXPXDXqXj.` x h & @ + + X + > K E ! M M v c p v c b E E ~ V.5.4.,XCXCX*Xt.f.!.C.t.e.~ I D D Q ) ;.Q E @.D 5 - 2 9 Z.zXzXfXfXsXjXvXyX*X2X,X;X$X@X].^.^.W.W.G.!.(.#XyXrX@Xi.w.w.#XfXrX%X%X=Xg.7.I E ~ ! } 1XdXjXvXjX^.] H e v l.S.5.q.5.{ } / E ( l.Z.Z.l.M 8 [ ].vX[.s.` ` x f e u 8 9 5 c } H.H.C.| t.-X>XC.| T M V 3 & 2 3 2 & z jXJXFXFXFXjXsX(.<.<.G.:X~.<.<.g.dXpX@XJ.7.m C E ",
"UXUXwXk.o.s.tXtXh...` [ ' W.w.T | 5.n 8 i i y i i i i p p i i i u 9 9 5 9 9 u v M N c i i Q c.(.&X*X*X@X@X/.g.rXJXIXPXlXs.s.d.f.'.uX[.t.4.' L e 8 c N ~ J.vXvXdXuX].G.5.} ^ x.:XxX(.4.Y m k T W.aXw.z '.[.9.0./.kXGXGXnXhXtXtXlX=Xg.f.w.4.' <.<.w.^.*XpXyXrXsXiX'.y.y.-XzXCXjXh.[ x l ! 6.oXAXZXZXsXdXgX;X|.(.!.G.e.5.T L q.-XbXXXG.1.2.T R T ~ 6.~. X!.].&X@X(.t.[ f O . . . + K `.H.! M n E 2.v.c.S.S.S.S.S.F.H.S.K.oXxXZXzX;X6.~ $.c.P.c.c.z.:.%.z.x.c.$.S S b r u D ;.v.S.K.S.x.v.P.+X+XP.$.W 5.x.D.K.D.&.^ M m Y ~ E M M W E ! H.P.M 0 M Z.1X-X].].(.q.n n Z.P.l.M e M ;.M.B.S.L.+X5X<X1X-X|.XX_.c.I u v Q :.z.l.c 9  .H.J 9 N E D Q $.%.z.x.2.6.,XFXFXrXd.] z x H K Y ~ W W %.S.T.K..X6X5XL.%.x.A.(.aXfXpX#XH.m.#.k 4 7.FXIXPXDXtXj.` h > & @ + + X X + 6 E Z.} M S E b u u u r e E x.1.{ XXbX,Xi.| G.(.).(.-X!.w.{ ^ Q @.>.;.Q ;.;.p 2 2 2 P H.t.W.|.^.yXvXCXvXvXuX*X@X=X*X*X%X'.f./.,XzXcXvXsXsX@Xf.g.sXNXkXkXsXsX@X7.l k I 3.V.H.;X(.r.t.f.(.(.C.6.K.(.(.`.t.! W S E E v.V.G.v.J H t.vXHXvXd...U k 9 9 8 S i u N ~ V.5.Y { q.W.uX>XW.0.E M 4 2 3 2 2 2 [ FXIXHXkXlXtX&Xi.w.7.G.~. Xr.g.fXZXiX*X Xu.' { P ",
"UXwX0Xo.o.s.kXkXlXs.` l l U z K V.H.J 9 e y i G >.n.S u t y 5 5 5 3 3 2 2 3 3 5 w w w u A M._.-X>X,X@Xg.@X>Xh.tXPXIXIXqX0XtX[.f.g.rXdXW.' U 5.l.C k P V.;XCXFXsX@X/.)._.Z.{ 6.XX5X`.6.K m I e.dXdXf.0.'.rXr.[ i.rXrXh.j.d.d.d.g.^.t.6.' z k k l U w.(.<X,X&XrXsX&Xi.r.uXcXjX%X| k 7 r A &.T.VXAXBXsXpX;X}.|.#X!./.,X<X,X/.@X,X#X).A.1.C m L L W H.2XcXcXjXuXd.r.<.] f O . . . + n 1X`.E b u M E ^ v.S.c.x.x.S.L.XXXXoX2XzXZXxX|.m.I Z z.L.P.m.z.z.n.S.P.P.c.^ C t 4 r S ;.l.S.~._.S.$.W c.7XL.W $.F.T.}.}.K.S.S.Q M l m M ! } ~ M  ._.H.u 2 c Z.1X].>XzXvXbXW.C.H.Z.^ M S %.n.P.M.S.L..XOX:XXX~.G.G.V.#.W S D %.3.S.H.P 8 J ^ ^ c q B F Q n.n.c.x.%.A.fXJXFX'...[ z z K { x.z.%.$.c.F.K.D.U.6X5Xc.2.x.V.~.3XgXCXdX}.b.2.l 7 H uXHXPXDXhXj.` z f * + + O X X O * C C.v.W W E b b b u u v / 2.E E S.~.t.{ ' G.~.W.).cXvXyXt.~ b p d F @.;.D b u 5 3 4 2 7 f f l | &XpXpX*X&X|.#XrXjXFXvX&Xd.y./.&XkXFXnXCXsX@XsXhXhXhXFXjXrX^.] 6 4 ~ L.6.7.{ ! 1.4.G.bXzXaX!.!.(.>X>X4.k u F z.^ S 2.P.2.v g { >XvXrXy.5.7.~ m c 9 b v.c.^ ^ 2.} ^ 2.{ | ).xXuXe.x.V.l.E b c c 9 5.pXCXjX=X@Xg.i.i.i.G.G.w.p.f.sXFXFXsXsX@Xr.t.Q.5.",
"mXwXeXo., o.tXSXnXs.` x l k 9 e ^ 2.c 8 b u v / z.v.C u p w 3 5 5 5 3 2 2 2 3 5 5 5 5 u W .X2XyXrX*X/.f.'.&X%XlXPXIXHXqXhXFXjXy.4.[.sX@X] ' V.H.4.L P e.(.bXzX*Xi.t.W.V.~ n M $.I.H.G.0.4.f.sXFXkXy...sXFX%X[ t.|.d.` U 1.q.i.W.e.' 7.e.4.U z Y [ ' u.$XsXsXrX=Xh.f.i.y.y.y.4.P v u V G F :.4XAXAXCXZX#Xw.(.;XW.f.].'.*XuXyX/.y.{ { 2.$.&.&.W ~ u..X;XpXdX'.[ z x z f O . . . + n `.`.^ b p u i G ;.c.l.z.c.L.OX6XxXxX3X3X;XXXXXF.%.V ;.B.B.n.:.m.F..X:XXXS.3.&.Q S V F @.z.S..X:X.XS 9 A :.W b 2.7X6XoXJ.}._._.z.5.4.1.5.Q.Q.2.H { _.I.8 2 M c.Z. .q.Q.>XaX-Xe.J N b Q ;.n.B.I.M.M.x.c.S.F.F.M.M.z.2.$.Q @.%.%.z.T.L.^ P M q q q p B Q ;.;.z.z.b.3.A.aXFXFX@X9.y.e.1.{ 5.V.S.x.x._.}.F.b.D.L.b./ S :.b.A.3XKXFXpX XA.5.J 0 g y.MXGXGXlX..x ` h * @ O X . X * h l Y W ! E E M b M E E S W W v v W 3.} ~ 5.e.).^.].vXKXsXq.M p t w a A S E E b b 3 & $ % $ $ & 6 ' (.(.@X&X@X@XpXkXFXjXrX'.d.f./.g.%XtXrXdXsXFXGXkXkXkXtXd.' 7 & - I XX_.1.{ 4.Z.G.V.XX1X).] [ 0.).y.x 7 7 ~ P.l.C $.I.^ 8 0 6 l ' K J Y 5.1.2.P 4 e S.1Xe.1.1.l.S.x.7.I 6.XXOXJ.S.H.L.H.n.c.l.M { e.W.g.g./.i.w.i.^. X#X&X%XtXNXGXFXFXjX%Xd.g./.G.",
"mXeXo., > > 9.hXnXh.` z l k e b C C e c b b C C S b p u u 9 e S %.b 9 4 4 4 8 Q Q M C 2.~.aXcXiXrX&X/.'.@X=X%XtXhXtXh.h.kXjX@X[ T y.^.f.t.| e..XJ.{ ' t.].].].(.d.r.W.e.J 9 4 b E ! 4.`.zXFXKXGXrX] 9.FXPXkX<.4.}.!.y.T I q.G.e.U L G.<X#Xf.W.f.] <.p.pXCXkX=Xd.9./.(.] x 6 7 Z W D @.F s p b.4XZXKXKX$X7.i.(.Q.W.f.g.[.&X&Xi.7.I I 2.x.m.3.#.2.3.8.8. X;Xf.9.[ z h : O . . . + J _.H.} A a a B A F ) $.;.n.P.7X5X6X;X}.D.J.~.XXP.z.@.>.z.z.:.z.b.F.+X6X:XH.z.c.B.n.z.n.M.P.A..X6X+XE 5 5 9 9 r m L.6XK.6.J.~.`.F.`.-XXX:X5X`.6.~  .Z.S.b 9 E x.l.! ! { t.(.).} y 5 5 G >.>.:.n.M.n.:.:.M.z.z.z.n.;.%.$.Q @.-.;.M..X`.V.2.M 9 5 q u A W z.z.b.m.M.z.7.,XCXFX@Xg.|.~.u.e.!.(.~.A.S..X+XK.K.%.C b G s +.:.x.-XFXCX,X XG.} n 0 9 U 0.[.[...` ..[.d.f $ O X . = [ 1.n g e c v M P M C W ^ l.~ E e 4 9 E } 5.A.).-X].].pXfX/.T 8 9 y p p i D ;.;.Q S 3 & % $ $ $ & & g U 0.&XjXsX=X&XpXsXrX&X/.f.W.!.W...z [ i./.jXHXFXkXlXh...[ l - & l Z.Q.w.w.G.W.(.W.] z f ; * f [ X.[ H g [ H.5.;./ ^ B q 3 2 2 2 6 n { | e.1Xq.8 C L.1XH.6.3.c.V.x.x.#.7.6.H.J.D.H.K.H.M.L.M.~ m H ' f.,XpX@X/././.@XsXCXFXNXFXGXFXSXsX=Xg.@X@Xa.",
"DXeXo.o., > ` lXSXlX..z K M N M ;.Q M M u V W C p 5 5 v E u W XX:X1.H 4.q.' ' G._.2.~ _.aXcXjXiX[.&X*X=X%X=X=X%Xg.9.9.f.>X>Xz f H | e.4.C.q.e.-X-Xt.<./.>X'.t.G.).(.(.e.m 0 2 3 0 4 9 G.KXIXJXjX/.z y.FXPXkX..f.,XxX(.T H K P I U { G.$XdXdXdXsX'.f.@XfXFXjXrXa.[ p.#XG.l 2 4 r V D Q Q y t A N.gXZXZX@X0.y.W.).].yXdXuX].f.V.6.~ ~ 2.A.3.3.M.M.2.x.u.#X#Xg.[.'.[ f * o   . . = ! S.x.E B a a a a A s a A @.n.n.x.M.b.z.%.:.b.N.M.:.;.-.@.F @.n.P.K.}..X+XS.$.$.M.B.L.L..X.XK..X4X+X3.D V i u u v 2.L.A.6.K.:X~.}.<XaX<X;X1X_.S.x.} l.l.W b W l.l.^ E P ! 2.z.A p 5 3 A :.-.Q ;.;.;.:.:.M.M.n.n.>.-.F @.;.;.@.@.x.S.H.V.x.^ b q u b D 6.+X4XXXJ.m.m.6.XXZXfX@X@X*X;X|.!.@X(.G.5.#.3.+X1X.X1.v V A s F @.%.J.aXyX}.J.x.^ b 3 5 C ^ | [ [ [ g.FXkX..* O . . , MX^.l 6 4 4 8 P } { E W 2.2.2.2.C 9 8 E x.S.K.XX1X-X`.-Xf.<.m 9 5 F F b m $.x.l.2.^ u 2 & & - 2 - - 6 g 0.>XCXjXrX'.#X&X'.g.f.W.G.i.W.U 7 f <.r.h.tXtXtXtXh.qXrXd.f & l W.-X/.'.#X@X>X'.` f * $ $ f ` y.>Xy.z K ! O.z.$./ / / q 5 5 9 j E H.(.W.(.Q.V.2._.OXL.S.S.x.V.x.6.3.A.A.A.A.8.J.D.6.$.$.2.{ P 1.!.,XcXCXjXjXsX=XrXkXFXFXjXiXsXsXrX%X%X%XsXrX9.",
"mX0Xk.o.o.x ` tXHXFXj.` z m b b Q ;.W C b D W E u 5 5 E l.P 1.1X1X| | yXCXjX&X-XH.1.~ A.-XyXsXrXyXyXrX%X=XsXCXsXf.<.[ ] y.z 6 g E } 5.5.q.] 7.>XzX&Xg.pXfX].] 4.].1X).4.n 0 2 2 & 2 2 J >XsX[.r.] H U /.uXg...].dXaXt.k 9 9 m 4.W.|.(.@XkXFXHXSX*Xg./.*XjXCXsXg.<.w.t.6.T l 4 4 4 r V b u r r I H.:X;X].w.w.G.(.yXcXCXdX^.q.C.x.{ 1.5.7.1.3.3.1.2.e.|.fX%X9.d.^.` ; @ o . . . # J S.c.M i i a a a a p p i A F s V A @.F A G G @.:.:.-.@.G A -.B.+XOX~.J.+XF.W u Q ;.M.P..X.XOX+XOX+XF.S.b.&.W W S ^ 2.2.6.K.:XXXoX,XaX;XG.e.x.x.v.} ^ / / S ^ 2.v.v.W C C b s y y y 5 s _ F -.;.Q S b F n.R.L.I.c.;.@.:.z.l.$.%.:.%.3.$.%.;.) / A W S.:XzXzXgX;XA.A.H.-XgX&X@X%X&X>X,X#X]./.e.{ I I H.1XaX<X}.6.I v V D @.S.;X~.A.F.m.W t 5 5 A B.S.7.' ] /.KXFXg.h O .   o.PXMXl 6 6 2 9 P 5. .I ' q.w.0.{ I m v ~ Z.c.V.A.H.V.A.H.7.1.~ C N c.H.6.1.A.x.x.c.c./ k 7 g g g 7 6 7 ' ^.yXjXCXsXg.#XuX[.d.g.(.w.' C.Y - f g.iXlXh.s...s.lXGXSXtXs.` r.yXdXsXrXsXsXsXd.x h f ; f [ ] [ ] z 7 g g S 3.x.} l.) ( M E M j ( } G.G.G.).c.2.S.S.m.m.F.A.Z._.OX-X1X_.A.A.K.}.S.x.E S ^ v.x._.2XdXjXFXHXHXjXtXrXlXlXrX@Xf.0.<.w.i./.dXjXlXg.",
"DXwXeXk.o.` ..tXHXHXlX9.x l M b D $.E M E Q W ^ ~ ~ ~ Z.V.~ T 4.} ~ e.cXJXFX$Xe.7.$.W &.u.!.@X#XyX*XrXiXiXjXAXcX/.z f f g g 0 c P J Y q.q.' <.>XCXsX@XpXgXf.U ' Q.`.5.Y c 0 3 3 0 9 2 2 6 6 ; 7 Y J k l [ K ' u.(.G.J 2 2 C V.-X,X,X@X%XsXSXGXFX*Xg.i.r.g.pXjX*XW.4.{ U ' 5.4.L 9 k n m M e 4 v l.S.H.`.G.w.G.(./.@X*Xf.' ' C.-X<X-XV.~ I W ~ I 1.!.FXFXh.x h ` h * @ X o X . + 6  .c.G i y p a p a s _ F G G G F G G A i A +.@.:.n.z.:.@.F -.n.OX<X-X~..XA.E r p b A $.v.3.F.+X4XOXOX_.6.#.m.x.%.$.2.} x._.XX|.oX2X<X|.A.7.^ W l.l.) G S S / ;.M.M.W C b i p i A G S ^ ^ } c.S.F w 5 y V :.c.c.c.%.%.z.S.S.6.#.W W 3.6.#.Q ;.;.>.z.+XAXKXZXdX$X/.J.|.<X@X=XsXsXsXyXpXdXyX'.7.P H { H.(.dXFXFXyXw.*.T #.%.S.K.A.A..XP.D 2 3 5 d z.V.1.1.6.i.fXdX<.; X .   k.PXvXz 6 6 7 g Y { Y 0.).yXdX/.<.L P E } x.7.1.I &.#.~ 7.6.5.2.v.{ A.:X-XQ.~.V.S..X_.v.x.e.q.0.y.y.y.t.,XdXiXiXrX%Xg.%XdXrXg.d./.] U e.{ 7 U CXIXGXqX9.` 9.kXGXnXhXnXnXkXkXjXvXkXiXsXsX..; ; g z [ [ H 6 ; ; f g H ^ x.x.l.l.z.l.v.x.} n j H { V.XXQ.^ b S E Q z..X_.A._.:X5X5XOXH.A.H.K.A.c.2.E $.c.A.~.;X,XrXkXFXGXkX%XtXsXyX'.r.R H H R 1.W.,XyX%Xh.",
"UXwX0X0XeXk.j.qXPXPXnXj.` z P C C S E W ^ ^ ^ v.!.Q.e.C.C.e.1.{ W I 6.aXFXfXi.Y P ^ @.%.3.e.i.(.(.|.,XyX'.^./.^.0.g - g J g 9 e M J Y 5.V.6.7.,XFXfX@X/.p.U k m 2.W c g 8 0 0 c ! P k 0 < & 2 v l.^ B q e 9 - ; 7 7 g 9 r x.OXxXdX'.g.*XdXhXSXsX'.f.f.a.a.h.rX>XW.4.L l ' (.<X(.(.-Xy.{ c 4 2 r ^ l.G.`.G.C.G.).f.r.w.' z U W.aXCXzX(.' c c P { r.iXHXGXhX` : : > * @ o o o o X @ h } Q s d a a i A -.>.-.F -.-.-.,.s V W :.B.B.b.b.M.S.F.F.M.N.OX6X6X:XXXx.m 9 5 5 9 b c 9 c x.K.H._.H.T 6.7X.Xv.x.S.x.V.G.XX-X3XxX#Xt.x.%.W b E Q Q S S Q ;.v.F.S.2.^ S S G F ^ v.V.V.5.V.K.K.G 5 5 5 3 4 u Q l.$.&.3.D.K.K.6.#.6.oXXXV.%.:.>.:.x.XXZXKXCXfXpX#X$X3X<X,X,XZXKXjX*XpXfXsX'.' l U C.|.#XjXGXHXFXiX@X|.~.D.D.S.M.K.+XR.E & & & 9 P { ~ 7.3.1.u.t.U - . .   , lX^.H g g g l U z z ^.jXFXGXiXy.z H P T e.e.3.Z W n.z.x.x.3.x.S.5.e.,X2X:XJ.V.V.c.} I ~.zXCXkXnXFXFXiXiXpX=Xg.g.%XtXtXtXrXh.g.d...{ ' P k ' jXIXPXlX` x s.nXDXmXSXGXPXGXhXtXdXjXrXsXkXs.: % 6 g z f ; % 6 H q.V.5.W $.z.z.z.2.2.S.L.O.J j n ~ S.5XQ.u 5 b E S ;..X+Xx.x.A.x.x.6.6.S.K.A.H.K.F.x.A.A.}.~.J.!.,XBXsXsXsX=X*XyX*X X7.L L P L ~ e.y.d.s.9.",
"UXwX0XqXwXqXh.qXPXPXDXk.` z I ^ Q W Q $.%.z.V.`.;XXXt.C.(.C.4.1.I I 5.-XzX#X<.H l I ^ W $.6.G.Q.~.~.-X-Xf.] l f g 9 6 7 g k e P } 5.5.1.5.6.6.XX,X>Xi.0.U l 9 8 5 3 3 9 q c ( ) ^ J j 8 3 2 3 ( I.l.V i p 5 % @ $ 6 K n 9 5.XX>X>X].!.#XjXsXlXiXh.h.%X*X=X=Xh.f.0.z 7 l e.,XgXfXCXvXyX' 8 2 4 5 u W P._.A.A.H.(.(.#Xi.' m H C.-XcXZX#X[ H l K t.yXCXFXGXGXj.* @ @ * @ O o o . . + h { Q @.@.@.@.Q Q @.-.-.-.-.F +.>.:.A._.:X:XXXF.F.T..X:X5X+X+X6X5X:X:X`.x.I m c c M E k 0 8 E C C 2.2.~ e.~.V.S.A.V.5.G.A.~.|.;X<X(.q.P C S E ~ $.$.$.$.2.v.c.H.H.6.} E Q Q @.z.K.1X:X(.).(.|.W 4 5 5 3 2 5 A D W 3.D.K.oX2X3XXX<XzX3XJ.x.n.b.z.b.K.,XaXdXfXZX;X|.XX~.XX!.-XcXyX/. XpXsX@XR m ] W.,XpXsXjXSXFXGXFXvXpX XJ.J.F.}.+XS.c & $ $ 6 ~ V.A.6.1.4.w.y.U - o .   # > l g n g g H Y z ] sXFXGXSXuX..z H T e.(.oXA.Z E z.m.m.6.2.x.x.~ 4._.OX~.L k 9 0 2 6 t.CXJXPXPXPXGXnXtXh.g.a.tXHXGXhXh.@Xg.d.d.y.{ P m l 0.sXJXHXqX` ` h.GXSXlXnXDXPXGXqXs./.>X&XkXFX[.x * & 6 6 & $ * l | Q.XXA.I W $.1.G.0.<.{  .( n M m m S.bX).v p S ;.z.n.c.v.;.E C M v C $.x.F.S.H.K.XXoX;X|.|.|.!.!.3XpX*X*X&X#X$X$X*X@Xt.' ' 1.T T 4.f.sXNX%X",
"UXwXwXmXDXSXj.0XDXPXDX0X` x H 2.-.Q Q W @.2.6.G./.w.4.).>Xt.{ ' J ~ V.`.uX].!.J.A.6.W $.b.N.F.H.H.H.~.!.e.U 7 7 l n k 7 g n  .Z.l.5.c.x.5.7.#.6.e.q.' [ { P c 9 3 5 u N B ( O.^ N 8 0 0 3 3 2 N c.x.I D S e % @ $ g Z.Z.l f 6 f | W.G.!.'.uXiXkXkXkXjXjXkXiX%X^.R 7 - P T.|.@XrXkXkXuX] 4 2 2 2 2 m L.~.A.J.J.'.#XaX|.' n ~ 5.0.(.>X^.y.t.y.] g.uXtXs.tXhXh.* O @ # # O o o . X * | H.z.z.v.v.x.;.@.$.;.;.@.Q F _ D P.OXxXAXZX}.~.OX6XxXxX,XXX.X.XD.D.H.Z.x.2.x.x.x.V.H. .K ^ / u p A D 2.6.A.A.A.e.V.A.Z.H.G.f.f.W.-XC.n 8 E x.H.S.c.c.S.S.G.H.A.S.6.~ ~ ~ ^ 2.A.-XbX2X;X-X-X;XZ.l 8 v u u u G A b 2.H.XX6XZXZXxX2X;X}.F.m.m.S.M.S..X.X!. XdXcX#Xi.e.5.{ T 4./.f.r.f.*XfX&XU k w.-XuXsXrX@Xh.iXvXjXsXsXrX*X,X-X:X).} 0 - & - l 2.G.~.H.J.;X*X].] - O .   o > n K K n l Z Y l | dXFXhXtXh.0.L l { (.,X;Xe.m C ^ 3.3.3.2.3.$.I ~ S.L.1.6 & & & & ; t.CXHXPXPXHXDXhXtX%X=X=XkXIXPXhXh.@Xf.r.y.q.T k c K ^.FXPXSXqXo.` tXGXhXtXhXGXPXPXqX9.y.W./.fXFXiX..; % & g 7 6 7 J 5._.:X~.I k P C.uX%X..z l g 9 k k 9 1.aX2XA.C $.S.M._ A ) ;.Q E E M W ;.^ $.3.A.H.(.2XxXxXaX2X#X X;X$X,X$X#X X/.$XpXyXf.0.1.e.G.w.r.rXGXPXFX",
"UXmXwXwXhXqXk.j.hXHXDXhX..f l Y F F Q $.Q E Z C I T e.1XXX5.I P V $.K.XX#X,XpXcXvXXXI 1.S.K.S.V.V.5.7.1.P n n M Y P 7 g | '.yX].q.{ ~ m.8.5.~ %.V.t.i.f.W.y.Y 8 3 5 i B ^  .( c 0 < < 3 3 3 < 8 l.H.-X(.5.J 6 $ & [ 1X(.T ; % $ ; z T 5.e./.*XNXGXFXNXjXkXsXsXyXy.7 - m A.;X>XrXiXsXuXy.6 - & & & 8 c.S.V.G.|.,XuXxX|.7.P P k l T T 0.g.uXtXd.s.d.[ ` ..d.d.* O O # # + X o   o z ).~.5.5.x.x.z.2.#.2.l.v.$.Q Q F S P.6XzXAX<Xe.A.OXxXzX:XJ.c.;.^ ;.l.2.^ ^ v._.(.W.W.C.| ! / u 4 8 S ;.c.K.~.H.G.e.e.A.H.H.G.t.p.t.1XA.k 7 P Z.1XOXH.H.XX`..XJ.K.S.6.T Y } ^ x.H.W.).(.(.(.-XaXuXV.P J ~ E 1.C.w.4.T e.XX2XxX2X XJ.m.m.z.m.m.D.U..X}.!.u.G.-XxX#Xq. .{ Y H ' q.w.y.t.(.aX].U H W.dXiX%Xg.f.9.9.d.d.^.rXjXZXaX(.C.' 0 - 4 k 5.e.5.V.W./.iXFXkXtX..: O X . # h  .[ K H K J U z ' uXvXrX/.d.| L L t.pXpX X6.J M W 2.2.$.3.z.2.5.~.;Xe.k 4 2 2 2 2 7 t.dXFXSXhXhXlXtXtXtXiXsXjXFXkX*X/./.W.f.t.5.E c ! 5.(.FXJXSXh.` ..iXFXtX..h.FXHXHXtX9.] 4.i.dXFXjXf.g - 7 I ~ } v.S.A.V.x.~ P 9 g '.JXGXhXd.[ l 7 4 4 & { xXAX1XV.2.v.M 3 3 G z.) G A Q ;.Q E C E 2.V.G.(.aXzXxX2X2X;X X;X-X(.G.i./.,XfXyX/.i.G.Q.(.'.&XFXGXFXFX",
"UXmXwXqX0Xk.j.s.qXSXPXkXs.z k v b F z.b.Q C I ~ ~ ~ V..XH.1.C S W m.+XoX|.$XaXzXZX;X3.3.F..XF.6.#.I k e 9 9 M C ! P L y.rXFXnXh.s.` U 1.$.2.W %.H.-XaXxXaXW.Y 8 5 3 y S ^ ( J 8 0 < < 2 3 2 < 0 E `.bXuXC.Y n g g q.1X-X' f % @ $ & g K Y | G./.=X*X&X&X*XyXsXdX#XH 6 e 1.<XcXjXjXjXsXd.z g 0 2 & 4 ^ l.5.H.-X,XaXaX!.5.Y g - 6 ~ 1.] d.vXkXh.h...` ` [ d.g.> O O # # O X .   # [ ).C.q.1.{ 5.7.2.7.2.6.S.c.;.Q G F n.S.~.~.5.P Z c.+XXXG.1.W S S E S C b M } H.^.(.#X).' l 0 2 & 2 A z.K.-X;XXXH.A.A.S.H.G.!.!./.].-XV.m 7 m { Z.H.Z.V.`.1X:XXX~.H.V.e.5.} ! 6.H.J.C.e.e.!.(.aXZX-X{ Y 4.C.,XZXZXgXw.<.J.oX|.~.~.D.m.b.b.m.K.}.oX|.|. Xw.| C.-X-X).4.{ { { 4.5.q.y.q.e.~.w.z U !.jXjX%Xf.g.9.[ x [ 0.&XvXjX^.] K g 2 7 m 2.~.-XW.0.r.rXFXFXGXtX` * O X . # h Y l n H H J K H | ,XjX@X!.w.5.T 4.|.dX,X}.e.P N I 2.v.2.^ ~ G.bXZXcXW.H e 8 9 9 8 J 5.).[.h.%XrX'.@X=XrXpXpX@Xf.a.r.0.0.w.!.XXG.J n 2.Z...g.iXg.x f ` sXvX..> ..lXGXnXh...z <.^.*XCXFX2X7.m Z 1.x.x.D.m.z.#.Z e e g z iXIXIXPXtX..K l 9 2 & 7 C.<X^.K 7 6 & & < b v.) S V E ^ Q W M v m 2.A.e.G.(.XX|.|.|.J.J.J.J.u.u.!.#X*X/./.&X>X].y.f.pXyXh.@X@X",
"DXwXqXqX0Xj.j.j.h.hXGXkXg.' v u v @.F.N.%.$.z.2.^ 2.x.S.3.~ E W 3.A.}.}.}. X-X<X3X~.6.3.n.T.S.2.#.#.k 4 4 5 8 M M H ' iXHXGXqXlXlXlXh.[ P ~ W 3.6.;X,XaX<Xt.T g c 8 m E } 2.l.~ g 4 2 3 3 q q q M Z.(.].d.[ K K ' W.(.f.[ U z f @ $ 8 ! M H Y ' <.0.r./. X XW.r.<.L e 4 6.<XCXjXsXiXtXd.y.{ ! g 4 0 S S M ~ 5.t.W.(.C.1.M 0 & 9 x.6.4.g.kXMXlXlXg.....y.>XuX..@ O + = = O .   # ] (.t.4.1.' { ~ ~ 5.6.x.S.S.l.;.$.l.;.E M e 9 9 u C ^ ~ m c u p S S b b b ( ^ S.~.:X<XQ.T 9 2 & & < u z..X<X;X!.A.V.A.A.V.W.;XaXdX,XW.{ l 7 H Y Y H m { _.1X:X;X X!.(.<XXXq.Y 1.H.H.V.5.e.G.~.2XdX|.7.] y.].vXHXJXFXg.<.u.~.~.~.T.D.N.D.}.oX3XaXaX*XjXKX,X] { V.>X<Xu.{ 5.e.C.Z.q.q.T 1.Q.W.0.w.&XjXSXkXrX%Xg...K U ] /.dX%X] g H Y 4.V.2.1.W.jXMXg.s.iXJXPXPXDXs.* o . . + `  .n m n n c k m { G.<X-Xe.e.6.V.G.;X;X/.G.A.~ v v P W P I ! C.aXAXcX^.{ ^ S C N N P [ 9.d.h.tX[.f.g.%XsXjXsX'.i.w.' l 7 K H.`.V.P C } 2.l f 6 ; 2 - f ..y.h : f ` f.^.<.x x ] #X&XjXFXZX(.1.#.7.H.XX~.6.6.6.1.1.1.<.g.SXPXPXDXqX..` [ Y K 9 & & 6 6 - & $ $ $ & 5 / ^ E W 2.2.2.5.$.M c I 1.6.q.4.' | 7.G.e.<.7.m.V.6.A.f.r.9.g.kXvX/.] 0.g.g.9.[ f.",
"mXwX0XqXh.j.j.h.h.tXlXiXg.4.W b S %.D.m.z.l.z.z.W ^ x.A.G.i.e.4.A.A.A.A.~.}.~.!.}.u.e.x.M.Y.m.3.J.|.Q.5.m 9 4 4 7 z -XKXJXtXj.hXPXIXnX` z I $.3.c.~.W.y.0.4.[ K | Q.G.V.x.c.x.v.} M q 5 5 N ( M J ' t.^.W.[ H l | ^.].9.x X.-X[ $ % l 5.P H T w.!.!.i.i.w.<.<.L r r v 2.e.>XuX[.d.d.[.^.y.' } ! ( N S c c N m Y | | { ^ 2.n 2 k c.A.t.f.[.kXkXtXh.d.y.g.uXuXy.$ O + > x = .   = ..).W.| 1.{ ' I 1.5.V.Z.5.x.2.^ ^ ;.>.;.Q A b A G A V b N v 8 q u u u A Q ^ 2.A.~.XX.XA.&.v u 3 < 2 A P.;XyX,X/.e.e.G.H.W.(.aXvXzX/.] l g g Y P n g g Y G.1X;X-X$X#X>XfXaXC.{ 7.V.6.x.5.5.6.Q.<X|.e.1.e.f.*XsXhXlX=X9.<.u.K.K.D.F.F.U.;XzXgX,X,X X@XCXFX&X{ m E {.<X,XW.y.q.V.Z.6.' H 1.1XdXuXiXjXSXkXkXkXhXtXd.0.4.w.].dX].[ l T V.XX1Xe.<.f.NXSXtXs.tXHXIXPXPXj.: o . . # ` C.{ J J M k k m I #.6.V.A.A.A.J.(.-XW.7.1.2.2.~ ! P k 9 c P { A.XX!.u.6.x.z.^ ~ P { ).tXtXlXkXtXd.d.=XdXsX].(.(.G.Y 7 & 2 ! 5.2.! E E J c 9 9 0 4 - ; ; 6 6 ; ; x U [ [ [ [ [ ^.yXjXjXsX^.7.1.u.:X:XJ.T 1.A.G.-XxXjXFXGXGXnXlXj.` ] | t.e.{ f % $ 2 2 & & & & < 3 b ^ ^ x.K._.~.Q.V.7.{ 5.4.4.q.q.t.C.| t.W.7.T T I 1.G.W.r.r.'.dXuX/.0.0.g.'.f.y.y.",
"mXwX0X0Xs.j.qXlXtX%Xh.h.g.t.2.^ W x.J.8.x.m.z.$.W 2.H.Q.,XaX#XW.Z.Z.A.6.G.~.!.G.G.A.A.A.m.b.z.A.3XzXcXxXV.r 4 4 7 z dXJXkXj.tXPXIXIXqX` L 1.2.2.2.4.' T L 4.W.t.(.bXbX-XV.2.^ ^ c.l.M 5 9 j ( ( } e.W.#X).] z g z ^.dX9.f y.zXd.* f ' T m Y G.;XCXfX=X@X9.x 9 e 4 8 W G.`.^.d...] d.].^.y.T P ^ W b S E ^ 2.~ } { ! E ^ c.$.e g 1.A.G.^.[.iXiXtX[.h.g.[.uXuXd.: O O > h = o . = d.W.Q.V.4.4.4.5.e.C.H.G.5.5.2.2.;.-.-.;.;.Q ) ) _ G S S / ^ S b v M S Q ;.l.x.V.S.V.7.6.M.m.M.M.x.x.F.5XzXcXyXW.e.e.H.~.Q.(.-X-Xf.U f 6 2 0 ! ! J c g J 5.H.(.-X,XdXjXFXcX].4.4.x.^ P E W 2.x.G.A.7.6.;XpXpXrXh.%Xg.9.y.!.J.A.J.F.F.}.aXxX#Xt.t.W.g.g.d.<.Y H K { (.zXaXy.H ! } 2.P l T ].vXFXnXFXGXFXkXSXFXjXrXg.f./.>XuX].z k Y 1.w.t.0.w.rXHXHXkXs.s.nXPXPXnXo.* o .   o ..`.1.M M C c I V.e.P P ~ 7.u.}.,XpX>Xr.' T 1.6.V.G.q.T k k k C Z L #.u.H.6.e.6.6.7.G.vXGXFXjXkXtXy.d.yX,Xf.y.e.V.5.P 9 & - g P E C ( j 8 8 8 c J H l g g 7 6 [ '.d.....d.'./.....].rXrX[.f.q.6.A.`.K.1.R 1.A./.pXFXSXHXPXPXDXlXj.s.#X]./.(.Q.Y ; % < 2 3 2 2 2 9 m l.x.7.6.H.~.G.V.G.V.e.~.G.[ ' ).<X-X).>X1XG.1.e k 4.#X/./.'.&X@X/.r.i.!./.>XpX'.y.",
"mXwX0Xs.s.qXGXDXlX%Xh.g.d.C.7.$.%.S.XX}.K.6.I C $.M.S.G.-XgX#Xi.q.5.V.V.A.G.W.G.H.K.S.Z.x.z.m.J.-X,XaX:Xe.I I I L w.fXFX%X0XGXIXIXmX, > l ^ z.~ 2.{ 7.4.6. X|.(.Q.(.!.e.2.W v b n.P.E e W 2.{ J Y t.-XuX>X| K f f C.-X] f y.>X..h ..] f l | W.pXSXsXlXjXpX9.; 2 6 n { W.W.4.U [ 4.W.-XW.q.{ ! ^ D u b ~ } l.v.5.~ / / / $.Q v m 1.H.XX/.g.%XtXtXtXtXh.h.tXMX[.h O O # * = # . = ^.(.C.e.V.C.W.G.G.G.C.C.V.6.2.2.G A A F ) F G -.>._ S S ^ v.l.~ ^ 2.2.} 2.1.5.V.H.S.x.H.XXOX`.1XbXaXaXzXcXfX,XW.6.6.x.5.T Y U z g f g 7 6 0 g n c 8 8 M 2.V.G..X;XxXFXFXjX(.| | ! { P k r v C I 1.D.oXcXNXkXrX=X=Xh.^.#X(.G.G._.U.K.K.|.G.R l U (.uXh.9.[ H I ^ P 4.-X#XU 9 u C E m m ~ W.dXFXkXhXkXjXiXiXFXFXjXrX&X>X*X>Xt.z l m I ' y.g.%XjXHXFX[...` s.qXtXs.> @ O X   o o.-X2.P P P m V.6XxXQ.1.#.#.u.;XZXFXrX/.p.f. X,X#X^.W.W.5.T 4.V.' L ~ H..X!.!.}.K.m. XCXPXJXNXtXh...t.-X}.7.1.~ ! 1.7.L 8 g J P P c 2 2 9 c P v.-X>X(.C.[ z f [ vXGXtXh.qXiXuXy.[ y./.@Xg.f.t.e.e.e.{ Y K | G.@XsXkXnXPXPXPXGXnXtXh.dXdX[.g.f.u.m & & 2 9 0 9 C } H.).H.e.5.1.3.7.6.H.7.t.:XW.x l 5.5.| q.-X6X~.7.L 1.-XpX,XdX&Xg.f.d.r.f.W.f.^.#XW.w.",
"wXmXeXo.s.hXPXPXhXh.h.g.t.q.~ m W F.xXxX~.1.v k ^ c.2.{ !.uX%Xd.y.| q.G.W.(.(.W.V.V.6.1.} v.6.7.[ ' 1.R ~ A.m.7.J.;X>X*XtXnXPXPXmX, : : 2 k k m 4.).!.!. X|.!.e.' ' Y Y 6.v.S A M.+Xv.~ XXxX-X' U ' q.C.C.X.K g 7 Y ' z x [ t.[ ] d.0.z l | ).&XsXlXhXSXGXjXx 6 [ 0.| 0.U g g K | q.t.q.q.5.{ P u e b / ^ / ^ ! ^ ^ E E W C N E Z.H.-X#Xg.'.rXtXkXnXtXj.d.&XuX..@ o @ * * # . = ^.1Xt.e.W.Q.(.~.W.t.t.C.`.`.P.l.a y y a A i i ) v.;.S S / ;.l.} l.5.4.4.e.e.G.H.H.H.G.H.H.H.A..XbXzX2X;X;X;X(.G.x.2.~ Z e 7 - - 6 g K J k 9 2 4 9 q u S ;.z.x.A.J.).(.(.i.| { q.(.#X(.' L L I *.7.A.|.rXjXjXkXsXsX'./.;X|.^.(.-XXXK.A.A.#.l 7 k ^.CXnXh.d.7.7.3.~ { 5.5.m 9 i S b c I A.].tXjXFXhXtXtX@Xg.%XuXfXpXpX,X#X(.w.' ' ' ' 0.^.yXdXiXrXtXd.9...` ....x * @ + .   o o.1XS.2.^ E ~ J.6XzX<XXXW.i.G.xXZXjXpX*X3XjXFXFXsXg./.^.w.0.'.>Xf.4.1.G.`.XXXXoX}.A. XfXGXHXNX%Xd.[ { 5.6.7.#.! ~ 1.x.A.V.e.e.V.1.l 4 2 g {  .C.dXCXdX].t.0.x [ kXJXJXkXhXlX&X] [ w.(.<X@Xf.t.t.q.q.4.{ | e.G.!.#XdXjXnXnXhXkXsX%Xd.*XyXrX'./.!.G.l - 9 b r b z.~.bXuX(.C.5.~ W ~ 3.6.5.~.1Xq.g H Y 9 2 k G.XXG.e.G./.<XsXfXCXsXg.9.9.g.^.f.4.4.4.' T ",
"wXqXk.s.s.nXPXPXhXj.d.^.W.q.E c e A.zXZXXX' Z C ^ z.P l !.jXjXlX'.y.0.q.t.,XdX].7.L H Y } Z.| ' U k 7 l 7._.XX!.~.;X;X].%XFXGXtXo.h ` [ l 6 & 2 y.aXzX,X/.d.<.Y H K { { ! } ^ Q c._.V.e.<XCXdXy.U z m k M J M c 8 9 g l g g l ' f.>X(.] { q.G.&X*XpXjXFXGXjX9.x %X%X..l 6 6 f z T 5.q.0.e.5.{ I ( E B E E S D ^ l.l.( v b M c M 4.C.-X]./.=XiXlXkXGXiX9.[ f.jXd.* O O = = O . = '.<X(.(.|.|.;X|.(.!.(.).).L.v.S y 3 5 w p y y a ) Q F Q Q E 2.x.V.V.e.y.W.(.(.`.H.V.z.$.C v z.R.5X6XK.3.3.m.m.z.2.~ C m k 7 - & 2 g Y n 9 4 2 2 9 u b S / W ^ x.3.P k k v N ~ A.<XzXZX<X/.#X>X@Xu.1.' r.&XsXjXFXdX'.r.i. X X!.#X,X}.m.m.&.Z g l t.ZXFXlX[.f.p.t.x.V.x.x.~ Z Q ;.D e P ~.sXlXnXHXSXtXd.f.f.w.t.W.(.].W.t.G.G.|.;X@X/././.g.d.9.] d.f.t.i.w.' U f % @ + X . . , (.`.Z.2.^ x.J.J.J.$X3XfXuX-X-X@X#X*X,XdXFXPXFX%Xf.f.f.r.f.[.&X].(.w.e.~.~.`.Q.(.f.W.yXsXkXkXuXW.| Y I Z C W $.z.2.1.~.<X1X).C.V.U 7 6 z | K | #XcXrXr.W.&Xg.g.tXPXPXPXDXlXh.[ U w.-XpX/./.].&Xt.| { G.W.V.A.A.G./.f.r.d.r.f.W.f.9.f.yXvXdX@X!.!.<.I 6.2.I 3.~.<XCXcX/.t.5.} ^ ~ 2.$.2.H.H.K 9 J ~ 8 2 Y XX~.0.t.#XyXyXrXiXFXGXtXg.9.g.^.t.' { ~ H 7 ",
"wX0Xj.j.j.hXPXPXhXj.g.f.f.u.Z r 9 L :XAXXXP I z.z.l.E v 1.;XAXvX,X^.y.0.y.,XvXrX] l m W W W T ' { P m x.~.;X-XW.G.!. X|./.w.` ` [ [.uXkXuXy.* % <.xXvXjX/.w.[ R ' Q.<X1Xq.n Y l.x.E P ' >XvX>X| l k u u u c c c v c 9 g g 6 l | uXcX>X/.f.f./.@X*X$XjXFXFXiX9.] iXtX9.z k l [ 9.d.].).y.q.5.1.6.P.I.^ S A B S / l.S.^ 8 8 M n 9 Y G.(.g.g.%XsXlXlXGXkX9.[ ^.vXtXf @ @ = > # . = [.zX6X2X3X;X:XoXXXXX.XV.^ S b y w 5 3 3 3 5 w p B A A F Q Q ^ x._._._.~.XX~.H.G.x.v.$.A t t @.+X6X:Xm.N u W z.c.V.6.! 1.{ P g 4 2 6 6 6 - - - 4 g S b S / / E W D S 8 u p p M Z.1XaXgXfXFXJXPXFXg.U [ 0.g.rXkXkXkXrXf.r.W.]. X X XJ.6.T 6.m.{ Y 4.2XFXkX[.i.(.'.G.7.2.} ~ C Q Q b 4 9 e.dXkXSXJXHXrX0.w.6.I v m P ~ I ~ 6.~.,XcXjXjXyXg.r.[ x [ t./.f./.!.e.L 4 & @ O X . . = | `.G.:.l.c.z.2.@.3.J.oX:XXXW.t.!.*XpXjXFXFXtXd.9.] 9./.>XrXiXdXpXg.w.u.A.H.~.~.e.7.t.W.W.(.-XW.e.2.W b e Z 3.S.c.4.t.).).C.q.C. .U K ] t.H f ] (.Q.y.f.vXFXlXtXSXHXPXPXDXtX..[ q.(.|.i.W.(.`.e.] w.(.C.C.V.1.1.T I R T 1.e.6.1.1.6.;XZXfXf.i.G.V.H.OX6XXX|.#X#XpX,Xf.w.t.q.q.} ^ / E E E c 9 ~ 2.K | 1XxX].t.t.uXCXjXsXjXSXGXGXsXf.i.y.<.U P I H g ",
"qX0Xh.qXiXkXHXHXhXh.g.g.f.w.m 5 5 k 1.V.4.H ~ M.x.l.^ V e T (.,X(.y.| 0.y.#XzX>X4.l m C C I 4.e.{ P W x.K.XX~.W.i.w.!.$X#Xr.....d.d.s.g.kXdXx @ f !.cXjX=Xr.y.0.t.-XcXxXC.l m ^ ^ 9 0 P (.>X).q.g 4 5 u u c c v M N n n g g ' Q.&XyX*X'.|.#X@X=X=X*XkXFXCXtXa.r.MXkXtXs.y.f.'.'.&X].W.e.5.5.| Z.Z.l.( S S S ^ ! ~ S.2.9 0 c M P K 4.W.f.d.h.rXuXtXnXnXs...].vXdX` @ @ = > # . # h.6X6X:XXX~.F.A.K.L.c.C 9 5 5 5 y y w 5 5 w a _ S b i F Q Q $.v.V.V.G.H.G.6.2.3.l.l.$.F d p W L..XT.3.v r V $.P.XX~.e.T ' e.e.6.! ' [ ' { ' K g n N b A F F F A S G p p i A ~ V.;X;X|.&XCXJXIXFXh.9.i.i./.*X*XrXsXjXsXd.d./.yX*X/.i.T 7 { XX).0.y./.kXjX%Xu.G./.e.Y m m I k 7 2 2 2 6 4.,XFXHXGXFX9.U 5.2.v 5 5 5 u u S 3.e./.uXkXlXtXg.9.i.y.y.W.;X/.p.A.1.l 4 - @ O o .   o h S.S.%.$.C D I b Z #.7.e.e.5.e.i./.=XiXsX@Xa.] ] ] r.%XcXFXKXCXpX/.w.e.e.e.6.6.5.P { 5.1.1.H.K.b.%.%.S v E x.A.H.5. .} { | C.-XQ.5.' t.#X] 6 k ~ ).e.y.uXKXSXh.lXkXSXGXHXnX9.] 0.V.G.G.e.5.6.T ' (.,XW.G.J.1.T 4.1.#.I 7.m.c.3.#.#.A.-X#X!.i.(.W.W.`.XX|./.(.f.i.t.t.Q.(.f.y.4.P S V u v e n } x.q.<XZXdX'.W.(.uXjXjXjXCXFXFXFXiXd.r.y.] ' R P U P ",
"qXqXtXtXhXkXSXGXnXqXh.@X'.f.T r p D 2.T H m E l.$.W D A 5 2 8 Y w.4.4.w.f./.#X(.6.l 9 8 m e.`.W.Y k v E 3.m.J.(.i.w./.2XaX#XyXcX^.x : x tXkX..% % z ,XFXkXrX/.e.t.).-X(.y.| Y J N 9 0 k Y {  .{ M 3 5 q 0 g E W M M m n J { 5.t.d.g.@Xg.@X*XiXrX%X=XtXlXrX%Xh.=XjXFXFXnXkXkXkXkX].g.W.W.q.| 5.} c 9 9 u B ) l.O.~ 2.} k 0 0 J { J | (.'.g.g.'.].%XsXkXd...W.>X'.h @ @ * # o   o h 4.V.c.6.$.W &.%.%.^ b w w y y a _ _ ) Q Q z.B.M.G i S Q -.%.z.2.7.S.H.Z.2.:.%.^ $.;.Q @.F ;.v.M.F.A.3.$.@.3.F.1X).V.1.' 0.W.).).(.^.#XpXdXyXt.K l c c ( l.c.W v u w 5 y F A.|.3X;X(./.yXKXJXNX'.f.|.#X*XpX*X=XsXFXvXg.d.g.yXdXpX/.U - l -XbXg.f.d.[.yXuX XW.W.V.I P 4.A.T 6 % % 2 v m.<XjXCXjXf.` g c A i y 5 5 5 y F l.x.)./.&X%X'.d.r.].@X'.^.|.!.G.H.6.T L 6 % O X . . # 6 2.3.@.C e r &.Q W $.1.1.T I #.{ i.=XtX%Xa.[ 9.@Xg.d.'.vXKXKXCXsX/.!.!.7.T P ~ } 2.} ! ~ 2.F.K.3.E %.$.$.^ ~ { 4.C.5.K K | (.dXdX].<.@XCXuXf 6 J C.C.t.*XGXFXj.0XtXlXtXtXtXh.9.0.5.6.A.6.#.$.I 7.-XxX@Xt.G.6.4.e.J.~.u.A.A.A.A.6.3.1.7.w.!.|.<X#XW.Q.J.i.f.(.W.4.' 7.(.aX>X^.4.k u b C S b J { Z.W.bX,Xg...] q.^.f.].%XrXjXhXtXh.r.f./.W.t.1.' U P ",
"hXhXqXqXhXNXNXkXlXtXrXsXsX%Xw.m N 2._.G.Y I W W u e r d y 5 r W G.-X<X,X$Xf.W.e.T l 7 k { -XaXC.K 8 9 r b C 7.G.Q.w.J./.t.f.1X/.` ; f ` g.[.] f & - U rXvXdXy.H T ' [ ] y.).5.J c N 8 8 8 8 j ( M u q q 0 g ~ 2.Y I m k P e.W.f.[.%Xg.g.*XyXsX=XyX*X[.d.y.d.[.sXSXGXGXSXSXkXtX'.d.g.yX>XG.{ E v 9 3 3 w B v.v.l.2.5.4.! 9 2 k ! J ' ).>X%X[.f.t./.@X].t.| q.G.' * @ @ # # .   . * ! ~ C D V i b b C / Q a d a a A _ n.P.S.x.H.OXP.$.V S Q -.%.v.x.A.~.~.V.2.%.@.;.$.l.;.;.-.@.;.l.L.XX.XA.3.x.K.(.Q.t.W.].[.[.d.9.g.%XrXsXvXCX'.4.z 7 7 M c.S.^ b u t 5 p ;..XxXaX<XXXi.0.f.@X/.W.W. X2XpXdXpX*XrXsXjXtXg.d.'.dXfX,Xw.7 ; q.gXrXh.g.d./.uX*X@XQ.H.3.3.OXxX+Xl & & 9 z.F.2XpX=Xf.7.' k 5 y y y w 5 5 p -.z.c.H.!./.@X&X&XpXyXpX,X>X/.!.~.~.~.`.XX] % X . . o > | 2.^ E M V C %.6.Z.A.A.e.7.3.1.T f.CXHXkXtXs.@XNXZX'.d.pXjXCXjXg.g.yX>Xt.' ~ E ! v.S.} m ~ L.V.H H m ~ x.} Y '  XaXf.K H q.1XzXdX].] @XFXvXx 6 K q.V.C.^.kXGXlXqXqXh.j.j.lXhXy.0.5.1.2.$.^ %.6.J.2XxX,XW.i.A.V.H.XX-XJ.i.!.|.|.|.}.G.w.7.i.;X;X#X^.(. X!.^.(.(.6.' 4.!.dXcXyXw.g 0 N ^ W C P m P W.<Xt.z f 7 l [ 0.y.y.y.d.d.g.^.w./.,X*X/.i.w.] l ",
"mXmXqXtXkXhXiXqXqXtXNXFXNXrXf.' Y 5.~.~.x.2.$.W P m 8 p p p C 3.(.pXFXCX*Xp.i.i.1.L L I A.1XW.| U l 9 2 2 4 v S.`.}.J.U f 7 z z f h [ | y...U l 6 & 2 U {.W.g 7 ~ 5.Y { G.`.5.n c E / E M b c J } } ! { Y Y { { | ' H k I G.#XuXvXjXh.h.%XtXrX&XrXsX@X<.z [ d.tXhXhXkXsXtXg.a.9.d.%XdX,XG.P 8 5 q a w b O.Z.v.^ x._._.} 7 < 0 J ! Y t.>XdX&Xd.y.e.u.e.e.4.x.V.k @ O # O O .   O h l.E b V A A C A D Q ) _ s i a F ;.B.+XoXXX|.|.A.~ W D F @.%.v.x.H..XL.x.$.$.Q ;.;.;.:.;.;.Q @.l.L.:XoXH.x.A.J.G.i.y.].FXGXkXs.` ..d.g.^.'.&X@X|.W.' l k ! 5.2.E C V V W v.L.6XxXaX#X4.g 6 7 l 6.C.(.aXfXdXpX*X@X=XFXKXkXtX%X*X>XaX#X[ ; U aXNXtXh.g.].uXyX^.A.S.3.m.+X6XXX~ t t D S.Q.;X;X!.i./.e.Z 5 5 y p y p y y G z.S.G. X&X*XsXCXCXpXpX$X#XW.G.e.e.G.).-Xf.6 O . . o h `.} / Q ^ D W %.S.H.V.A.J.J.A.6.1.t.dXHXHXGXh.kXHXFX@Xr.#X,X@X/.y.].xX#Xw.6.6.~ J W S r 4 r W ~ 5.V.e.G.H.G.t.@XFXKXsX[ f { q.).1Xt.l 4.>X].l 7 n Y ' 5.d.iXGXnXtXlXtXj.tXHXkXg.4.{ ~ Q Q S W x.~.;X-X#X!.G.A.V.V.J._.~.!.#X>X*XjXjX*X/.w.i.!.G.G.G.!.>XyX,X(.~.e.e.G./.*XfXdXC.g 2 c ^ E E ! J m _.1X[ 6 7 l m H H U ' [ U [ 0.5.1.~.aXsX=X@Xg.i.[ ",
"mXmXhXlXhXlXtXiXtXiXkXkXrX'.f.i.6.e.A.S.S.6.#.W G.1XG.P m W 7.G.].&XkXNXfX@Xg.f.e.1.1.1.C.C.U l ' 4.m 7 2 2 e V.(.(.i.H 7 2 H G.t.y.y.f.y.[ l 6 6 2 & & 6 & - 9 ! O.! ! 5.V.~ N M ^ l./ E / P ~ Z.H.C.Z.V.V.5.G.-X).U l ~ Q.yXvXFXSXhXtXtXtXtXrXrXkXg.[ x l [ d.g.h.h.[.[.rXtXh.'.'.#X#X| l 8 q B B b / I.H.5.2.5.H.`.} 0 2 0 M ! { 0.^.>X].t.7.1.1.1.5.4.x.} 2 @ O + O X . o h Q.c./ G D D Q Q F D F @.-.F i i F Q v._.<XaX,X(.V.~ W S p s @.l.v.L.+XM.%.Q Q Q F ;.:.n.M.M.W V W m.OX:X~.K.D.3.m.x.5.r.tXnXMXd...] | X...9.d.*XvXdXrXg.[ U ' e.l.$.$.%.z.m.A.D.).;X;Xu.I e e Z ~ ~ G.<XcXcXyX/.d.*XKXJXJXnXtXh.'.].>Xf.z l aXJXkXtX*X,XyX(.' v %.z.A.G.L.x.x.n.P.F.A.K.XX}./.<XdX,Xu.v 5 3 i -.n.F d y S x.(.aXCXjXFXFXNX,X Xi.u.A.6.~ #.1.e.(.d.; @ . . . , d.! M S $.%.%.3.F.m.#.3.D.H.e.1.4.4.g.rXhXkXtXiXtX'.f.i./.~.e.4.0.(.1XW.] 5.6.~ m e 9 2 2 4 b 2.1X6X~.e.XX<X].cXJXJXjX..6 7 g g l n g g H g 7 k m H ' q.t.=XSXSXnXSXnX%XkXFXiXd.| #.W Q W S D 2.S.~.|.(.W.C.V.V.e.u.~.|.;XdXdXkXHXGXsXg.w.e.7.6.A.A.G./.yX,X#X#X|.#X#X@X*X,X|.q.H 8 N c.P.O.E J ! `.`.n - g Z._.q.[ [ U H [ 0.q.U l e.#XsXsXrX/.@X&X",
"mXmXqXh.h.iXsXiXtXlX%Xd.9.r.!.!.u.e.m.x.z.&.W ~ }.KXvXw.K T G.yXrX%XtXlXjXsX'.d.i.u.V.V.G.4.U T G.e.K Y M 9 L V./.,X#X<.k 4 H <XZXvXsXrX'.<.x 6 6 g 0 2 & % 0 b / / E E ^ ~ ^ ^ ^ b b b M ! 2.A.V.G.).).G.e.e.-XzX:XU 7 Y H.,XdXSXFXFXSXkXsXrX&X%XtXg...x f x z [ 9.d.'.uXkXFXjXyX/./.(.| l c b i i B ^ _.+X1.~ 1.} 5.E 0 3 u ( ! } 4.e.W.W.5.~ ~ ^ 2.2.2.l.~ 6 @ O @ $ o   o h `.c./ F F Q ^ %.%.@.@.@.Q Q F F G F ;.S..X(.G.A.6.1.x.l.v r Q n.v.S.S.3.2.z.v.;.$.%.:.P.L.x.C r t C T.+X~.J.D.3.z.2.} | 9.h.[.f...0.y.0.y.t.g.tXFXFXFXjXh.r.!.(.V.2.@.;.:.z.%.D L V.:X~.V.~ P P e 9 P K.xXxX#Xr.t.pXKXJXHXSXiXrX'.^.@X#X<.l XXAXFXsXuX#X).5.e 4 F M.L.~.F.U.OXxXzX:XU.Y.oX#XyXdXcXfX#Xx.S t V B.8XM.@.p r I |.ZXGXFXFXjXpX}.7.#.3.F.3.P T 1.G.`.| & O .   . , d.5.Y W 2.3.%.3.m.I k Z I ~ 1.1.~ T z z ] <.9.9.9.[ 0.w.e.e.6.T T 5.V.4.{ 1.7.2.P c v m m c v 5.2XVX!.q.G.(.,XdXdXjXdX] 6 & - 2 2 9 C Y { ' ' 6.e.5.C.(.^.'.sXFXGXHXFXtXh.g.^.t.4.2.W S E E ^ x.G.).-X-X!.w.0.i.W.W.!./.*XcXFXGXPXJXiXr.w.e.1.1.3.A.A.W.(.@X>XpXcXdX&X/.(.W.0.' ! J m x.`.l.M M / O.Z.M 0 g Z.bXuX>X'.^.t.W.aXaX<.z w./.&X*X=X@XrXCX",
"mXmXqXs.s.tXkXiXlXkXg...[ w.!.J.4.T 2.W v r D ;.!.cXvX!.[ ] /.cXkXiXtXiXFXFXrXg.i.6.6.V.C.4.T V.G.' | (.V.m Y t.&XgXaXW.l 4 H #XFXIXGXkXsXf.] X.! K g 2 & % 0 / S A S G ^ 2.l.v./ u p S ( } H..XH.e.H.:XXXC.' | W.G.H k ^ 6.^.rXkXFXKXFXiXtXrX^.d.h.sXtX..x x x ' f.@X*XrXMXvXfX#X/.'.'.t.l e p w u b M } S.2.$.x.5.P c 0 5 M ( ! } 1.V.C.H.2.W E $.n.z.$.W l.c 6 * h z = . . > C.P.} F -.;.O.$.2.l.:.;.;.;.@.+.-.-.;.M.P.H.A.x.6.x.L.+Xz.p G n.c.2.1.6.K.K.F.c.v.%.z.S.x.#.Z 7 - 4 x.+XXX~.A.$.P P { (.].tXMXg.] 4.t.f./.#XrXlXFXFXFXSXkXsXpX#X6.^ F -.%.z.z.G u ~ 1X`.' l l 7 - - 7 3.U.J.u.<.e.#XsXSXkXNXkX%X@X'.W.}.7.7 ' .XaXuXrXW.A.C 9 y +.B.7XT.T.<XvXAXZXaX2X$X2XfXZXCXvXpX@X(.G.x.#.L.5X_.z.D p v u.zXNXBXrX@XW.7.#.&.3..X6.T 1.u..XW.K & + .     , jXaXC.^ V.e.3.6.3.3.~ I Z L 1.6.$.' l 7 7 7 x ' e.G.H.e.G.q.4.1.5.} P M ! Y 7.6.3.2.x.L..XS.P 1.;X<Xi.| 5.G.(.t.[ [ | K 2 2 5 5 5 5 G 2.Z.`.1X<XW.q.].uX].f.'.sXFXSXlXh.g.d.^.G.1.~ E M ^ v.x.A.G.G.(.-X(.t.W.<XaXXX!.i.|.zXcXFXJXFX'.r.A.5.{ T #.4.A.J.G.f.'.dXFXCX%Xf.w.' T Y Y  . .{ { Y c u p S ! P V P 0.aXvXvXCXvX@X%XFXFX=X9./.,X#X X$X*XsXjX",
"mXmXlXs.9.@XrXrXjXNX=X9.9.w.r.g.<.z r 4 2 4 p $.i.-XdX&Xf.y.r./.sXsXiXlXkXjXiX[.d.4.4.5.1.' 1.~ P J { `.(.0.] XXcXvXjX#XH 9 k 1.*XKXPXGXtXd.t.t.5.! n 0 & & 8 -.) B E l.^ ^ v.l.S 9 A ;.M.P.OX6XU.F.A.XX:Xt.4.T T ' ' 1.#.7.i./.=XpXjXsX[.g.r.w.[ f.FXFXtX9.....p.yXsXrX@X@X=X=X@Xh.^.W.V.m 9 5 y p p b E ^ l.x._.L.E 9 0 8 M ( / ^ ^ x.Z.S.l.S A z.P.M.l.v.Z.{ f f [ ..>   . : V.L.} Q ;.M.S.V.6.z.b.z.z.n.>.-.G F ,.>.M.m.:.%.z.m.L.L.n.&.W x.F.D.J.(.XX:X}.A.7.^ $.^ P E P z 7 2 &.XXaXaX~.1.k 9 P -XcXCXpXf.| y.W.#XgXCXkXkXGXnXhXkXiXsXzX#X7.I &.@.@.n.M.C 8 P _.4.l f l g 7 6 l I 3.7.1.7.i.!.'.sXsXiXrX%X&X XJ.e.H 2 4 C S._.(.H.D.%.V i W c.5X6XXX-XxXaX;X|.;XpXdXZXZXiX@Xg.f.(.|.(.G.H.~.D.6.3.W M Z 6.!.G.' T I I #.%.M.S.2.P $.~.1Xe.7 $ + X .   , vXCX<X~.S.G.H.6.m.U.U.A.1.I ^ S.F.A.1.H l k U e.(.-X`.H.H.V.5.x.V.7.v M V._.G.7.x.z.x.XX:XK.1.4.-X#XW.y.W.(.Q.| [ K g 0 4 3 5 w 5 w a Q x.H.Q.C.X.Y W.ZXpXd.r.f.W.f.d.W.^.#X(.e.{ P Z P { V..X~.5.1.G.Q.(./.&XZXZX*X/.!././.-XaXdX&X!.W.!.G.G.i.w.0.i.G.i.i.W.@X<X<X(.C.4.4.1.Y K Y Y J J n 8 5 5 b S E 2.6.J.aXvXSXkXfX*X'.sXFXjX@X$X,X#X X*XsXfXkX",
"wXDXhXj.s.h.=XrXsXCXiXh.g.g.d.g.f.z 7 4 - - r 2.6.(.*X]./.(.d.9.f.&XrXrXrXrX%X[.f.t.{ 4.4.{ ~ ! M m n { ).).W.-XdXCXsXf.l 9 g g [ g.jXFXuXf.W.q.V. .M 9 0 < 3 B G F Q ^ } 2.$.@.V u G ;.z.S.~.~.U..XK.H.~.(.W.u.6.6.e.e.i.^././.@X'.'.@X^.t.4.U l [ yXJXGXh.d.f.@XuXrX'.f./.yXsXiXg...4.{ m 5 5 i A B S S ^ 2.V.L.S.~ c q c M M C E $.m.3.&.D u S x.S.H.x.2.K z f * * > #   . * Q.`.c.%.M.+X7X_.V.6.b.b.b.n.:.@.F -.,.:.z.z.%.z.z.3.2.z.z.@.W M.5XxXzXxXgXfX#XG.6.$.E L Y J E ~ 8 2 I OXzXZX<X6.N 9 c V.(.>X-XW.5.G.!.;XzXcXFXFXHXSXlXh.g.@XdX,Xi.T E Q ;.n.;.u 8 ^ x.K l l H V.V.e.V.e.A.e.7.6.u.|.,XpX*X&XrX%X'.!.u.R 7 - 4 u $.c.A.S.b.%.S @.c.H.OX6XXXA.6.7.1.7.J.#X#X#X/.d.9.r.r.&XpX/.i.A.A.m.6.x.v.W k 9 9 c v W W W z.P.F.6.7.~ #.H.1X7.- @ + X   . , tXdX1XXX.X;XoXJ.m.F.+XT.x.&.#.2.6.J.XXG.w.t.t.w.(.#X`.G.Q.~.S.2.1.I 9 e +XxX.X7.2.#.6.6.7.6.~ 1.XX<X-X^.).].W.y.C.W.t.' k q w w 5 5 u C E ~ Y H l l ] pXcX/.r.0.T T ' W./.^.W.e.T C P I { A.XXJ.{ I 6.e.G.|.cXKXFXrX'.@X^...] 0.| 0.i.(.|.;X2X,X(.^.!.!.!.i.W.G.w.4.4.4.' G.H.Y K K Y { { ! M u u b W l.c.6.6.#XcXkX[.].@Xg.'.dXyXg./././.$X,XpXrXkX",
"wXDXSXtXg.h.'.&X*XjXjXhXkXkXkXiXg.` l 7 - 2 4 k C.>X'.f.^.#X^.y.9.@X@Xf.d.g.[.%X'.t.4.V.5.{ ~ J b u 8 k 4.).`.^.r.W.0.H 8 e m k 7 U 0.^.].W.y...0.} ( g 8 3 3 u G A G c.L..XM.@.D C S -.@.c.H.D.A.D.K.A.J.;X;X|.}.K.}.(.yXjXjXpXW.G.e.G.G.V.5.H k 7 [ uXFXsXg.g.[.tXh.f.y.t.>XvXvXy.z P M c 5 3 b Q Q Q C W 2.2.2.2.^ ~ / / E M P ~ S.P.5.m 9 8 C l.5.5.7.l ; ; % O o o o . . # d._.v.$.m..XOX`.G.V.m.m.M.P.n.D +.-.-.+.l.m.b.m.m.z.%.%.$.@.D n.6XAXvXfXzXZXfX(.H.K.K.~.Q.! n M m g H V.5XbX-X4.M 8 8 g g K 1.V.l.x.V.G./.g.iXFXHXFXrXg.r.f.|.<X_.3.Q $.;.A 5 2 r Q l.J 7 7 K C.).).`.(.~.J.u.A.!.#X,X,X*X*X,X#XW.4.k 4 2 5 p S F Q $.z.%.I P m._.H.A.J.D.2.W W E ^ 7.q.q.t.f./.f.f.&XcXkX%X^.e.6.z.2.x.S.x.&.M u V D $.@.;.P.T.K.A.6.2.3.x.A.1.- @ + .   o h ..[ U 7.}.zXzXXX3.%.S.F.m.3.#.L I w.W.t.t.!.G.{ 4.3.3.m.U.K.c.5.' H 8 e K.XX6.P E $.^ I I $.I m { G.W.].yX].W.t.C.<XzX>X[ u q u b ( J ! Y P L H H ] 0./.>X^.e.1.~ 1.w.,X>Xf.6.~ m c c J { 6.J.V.4.P 7.V.t.g.cXFXkX%X*X].f.0.' H z Y V.#X,XdXfXyXyXdXpX,X@X(.(.e.L 7 e k l ' G.5.1.e.V.V.c.2.~ ^ W ~ $.L._.6.T e.(.].^.W.W.i.f.,X,X'.@X'.g. X Xh.h.sX",
"wXmXmXtXh.@X%X*X>XrXiXsXFXHXHXGXiX9.x 7 - - & - ] bXyXf.f.@X&Xg.f.].'.^.[.tXiXlXjXf.U 1.D.x.~ J c 8 8 9 8 l q.(.' l g 2 4 u N E P 1.[ ] y.).^.d.d.C.! 8 8 w u b G i i v.OX6X_.;.G Q Q +.@.M.H.F.J.8.A.A.A.oX2X2X3X:X:X;XfXCXfX(.7.4.7.1.6.D.6.T m e e T (.#Xf.@XtXiX'.f.<.[ 0.'.^.z g 8 8 8 8 8 b ^ z.^ C C P m H P ~ } l.v.v.2.! ^ S..XH.| | K l { | | ] z z ; @ o o o o . . O ` Q.2.$.2.5.V.S.H.H.H.D.F.R.z.i G -.+.F :.N.P.P.n.n.:.:.@.W b A M.XX~.}.:XgXfX#X|.3XgXZXaX| 9 0 k ! Y K { X.K n n 9 2 2 2 2 9 b E E ^ 1.{ 0./.dXjXCX*Xf.u.e.A._._.z.:.c.M.C 4 2 9 C 2.P g f z 5.q.t.Q.(.(.|. X/.(.#X,X,X,X,X<X].4.l 4 4 y s @.$.@.Q @.%.%.I I m.L.A.6.6.1.2.2.2.;.;.2.4.] t.<XdX*X@XfXFXkXjX>X7.#.$.2.5.J.T.K.x.v.M.S.S.2.3.F.F.L.F.m.x.x.~ P k - $ O .   # ` z ; 6 U  XVXaX}.7.%.3.m.F.m.1.I I Y Y L z H K n k k S $.6.5.} C.@XaX] 7 { e.T K { } 2.$.^ { ! k 7 k 6.<XzX'.0.[ { `.<X].[ g e C E q._._.V.e.t.d.].aX(.w.q.q.1.#.6.u.|.aX].e.{ C u 9 9 N E W x.x.W C 1.`.aX'.rXjXrX&X@X(.e.6.~ H K ~ A.#X>X#Xf.f.].*XdXfXuX,X#Xy.x 2 4 e M K | Q._.H.V.x.6.6.e.G.G.6.{ ~.`.5.m P e.G.G.V.e.e.w.f. XpXpX#Xf. X Xp.w.*X",
"wXwXqX0Xh.%X=X*X#X@Xg.d.sXSXGXPXFXtXd.<.z 7 % % 7 ).aX#X'.%X>X]./.'.yXfXvXdXsXsXuXf.U I #.3.~ J c 8 9 2 & & 7 { 2.c 9 4 u u v n e.G.t.d.g.yXvXiX&X^.! 9 8 S @.W Q A p b v.OXL.^ S S V V Q M.K.U.}.J.A.3.b.U.oXoX|.XXoX|.$X;X;Xw.' U R P #.3.2.~ E C v v R <.0.].dXsX&X/.W.U 7 g g k 8 7 9 p p v M $.v.z.$.^ ^ E P P ~ } } l.l.c.$.Z 1.`.>X>XuX0.z t.[.tXtXh.[...* o o O O X . X > y.v.z.%.$.2.%.A.XX.XK.L.P.F y d -.-.+.;.M.B.P.n.n.n.:.@.V r 5 5 v Z &.6.J.;X,X#X,XZXZX#XU 7 6 9 J ! c 9 6 7 7 g j 3 2 2 9 8 9 8 8 M ~ ~ V.Q.(.&XpX>X(.V.z.z.z.z.:.:.M.L.F.#.l 9 k { e.q.4.w.0.| w.W.!.!.$X;X#X@X#X$X$X#X X!.w.[ z m E @.z.M.z.$.$.;.$.@.@.W 2.V.G.H.K.J.A.m.m.S.M.m.A.7.!.fXCXjXiXiXjXjXcX#X4.~ 2.L.1X<XXXK.H._.XXOX.XA.V.A.6.m.F.D.6.7.I m k 6 $ O .   O x h ; 7 | |.dX$X/.D.8.u.J.}.J.7.1.! ^ C k 7 g m m n n M M m m ! ).FXFXd.h Y q.5.q.G.S.V.S.H.Q.V.P 9 e 6.xXzX^.[ g n { { ' q.W.G.6.Y | Q.C.| W.dXFXGXcXW.' 4.5.7.6.K._.`.(.e.1.#.W ~ m m E S C Q ;.C v E V.5XaX&X*X*X'.@X!.u.6.{ ' 1.x.H.1X-Xy.' 4.t.t.f.g.^.'.,X(.z 9 8 b ^ v.~ l.l.6.7.6.G.@XpXZXzXf.U 5.H.{ 9 e ~ S.L.S.x.7.6.7.i.;X;X Xp.}.}.w.<.p.",
"wXwX0Xs.s.@X&X@X Xf.<.[ r.g.tXkXSXkXjXsX&Xy.f % - z W.-X|.'.].@X/.@XfXcXsXrX'.'.].t.' 1.1.1.P m c 9 3 2 < 2 0 9 v b q v v M M k 0.>XaXuXrXjXFXCXdX).' k v x.L.S.l.E i u D c.v.E S C E W 2.S.K.!.|..X6.I #.8.A.A.~.~.H.6.7.8.K.5.{ ~ ~ 2.3.2.$.I C V S 2.{ ' r.].dX&Xg.f.).{ 7 4 9 v m c b A b v I 2.x.x.6.c.v.l.W E ^ l.$.W ^ l.%.C ! q.).uXzX^.x g.FXHXnXlXh...* O O O O O o . = x Z.v.%.$.:.&.b.+X+XH.c.;.y 5 y F -.>.>.n.n.z.@.n.B.B.;.W :.z.D u r b $.}.3XyX*X$X,X^.' g 5 9 8 j M c 0 7 l { Q.C.8 0 S x.v.P e c E $.$.2.A.e.!.,X<X`.x.Q F F @.>.:.%.M.OX+XA.l g ' ).`.XXXX0.' 0.W.|.$X*X*XpXyX$X XJ.7.T #.3.A.(.-XXXH.A.S.x.z.v.;.$.D D C E 2.F._.XX:XoX~.~.Q.~.}.}.|.#XjXGXHXvXrX&X#XW.w.4.6.A.:XxX<Xu.1.G.K.K._.J.H.S.x.I P S..X~.G.e.7.' f & O .   + h U z | `.2X2X|.|.oXoX;X;XoXK.#.~ 2.~ W P P 1.H._.|.G.4.#.Z e m t.cXvX'.[ Y q.Q.-XXXA.A..X1X(.H.2.v k C.bXdXW.[ g g c M ! ;XKXZX/.U 0.C.[ l | ,XvXFXsXy.T 7.6.A.}.;X<X!.e.1.&.%.x.S.D.x.~ N ( Q Q C e r C 3.7.t.;X<X>X].1XG.4.G.XX`.x.~.<X<Xy.U U T T <.0.0.r.,XpX^.[ K J Q Q V V F #.1.C.uXSXFXKXFX(.z H  .~ v v W :.;.W E W m.6.u.u.u.u.u.u.u.u.4.<.",
"wXwXk.o.9.g.g.r.i.7.' ' [ w.f.'.tXlXsXsXuX^.l 6 2 g 1.H.G.^.!.W.!.,XjXsX=Xh.r.y.t.t.w.7.G.1.k 9 5 5 3 3 9 S ^ M k c N m l Y n K 0.<XcXjX[.iXFXFXyXy.H 8 v v._..X~.6.$.M S Q D V x.XX-XG.m.~.-X3X,X(.4.R *.3.8.F.J..XA.#.W %.z.z.2.x.m.S.H.V.6.#.~ Z C A.-XdXjXiX%Xd.9.y.t.H 4 0 M E E / Q Q E ^ 2.c.A.Z.A.S.S.c.%.Q W Q / S W $.Q b c n z | 1Xq.x tXPXIXPXhXo.> * O O O O # o . o > Z.Z.$.Q ^ :.M.R.R.c.$.i t w y +.;.>.n.B.n.%.&.z.P.P.z.3.T.6XP.^ Z C %.2XZXCXfX!.U z 8 q 5 8 c v S M 8 e 5.dXCXcX] g 5.1XQ.5.P I ^ $.Q D %.3.A..X.XA.@.i d s F -.@.F D x..XL.T L 1.~.`.Q.C.4.U ' /.zXcXpXpXfXpX$X/.6.H k l 5.:XzXZXaX~.H.A.x.M.z.%.$.S V i b &.S.S.G.-X,X-X,X>X!.i./.#X,XdXFXCXdX&X(.e.Y T { ~.XXXX`.H.1.~ x.P.T..XF.S.x.^ C I 6.oXxXuX;X~.] 7 % O     @ [ -X>X-X-X;X;X;X$X XpXaX,X~.1.l P 3.&.C D 2._.xXAXFXjXdX(.' H k l 0.(.^.C.q.| q.q.1.I #.K..X6.L M S P C.<X-XC.5.P m b E e.cXJXHXyXt.C.q.! l k ' W.>X].e.4.A.}.-XxXzX$Xu.6.$.^ ;.M.L..XU.#.I $.%.%.W C v v v L 4.(.#X^.].].G.q.(.5XXXG.G.1X<Xf.0.' U ' 4.4.[ [ f.gXkXW.[ J b r p p B $.x.).cXGXHXGXjX2Xw.U ~ $.@.$.l.Q b u C %.M.m.6.7.6.6.6.7.7.1.<.<.",
"mXwXk.` ....] <.6.7.7.7.w.w.w.i.&XrX%Xh.h.y.m 8 m E ~ S.K.!.G.G.W.&XsXkXiX[.r.4.4.e.W.aXuX' 7 2 5 5 2 5 b l.P.v.M 8 c 1.XXW.0.[ 4.W.].g.d.%XNXCX'.[ z 8 e $.5.^.2X2XXX! M S p i .XKXvX|..X<XpXzXgX(.i.8.8.m.8.m.K..Xm.$.$.;.;.:.$.2.m.A.A.G.e.A.e.1.I 5.dXJXHXnXtXg.g././.L 9 v / ^ M Q :.^ ^ v.L.L..X~._.x.2.2.;.W M M S E W ^ } c g g l K | [ h rXPXPXnXj.` > % @ + O O O o . . > | V.P b B -.S.M.m.z.:.G d s =.,.>.:.n.P.N.b.%.x.T..XF.D..X6XL.5.6.b.8.3XZXJXCXf.f 7 c q 9 8 q b C M M ^ -XKXPXFXg.[ { y.5.{ { { ~ W Q ;.%.b.m.D.x.C d d a s F Q Q G V C ^ ;.$.&.6.K.G.| l l H U #XAXCXjXCXjXjXsX#Xw.U x l T ~.xXaX!.6.6.6.6.z.%.@.@.@.A b e W x.G.e.W./.#XaX;Xw.1.G.(.XX|.'.'.f.t.e.1.~ ~ Z.-XXXu.e.V.l.$.c.S.L..XS.c.$.W D &.x..XxXvXpX|.9.g % X     @ y.vXjX@Xw.8.J.}. X;X,X2X2X!.H k &.z.W b V W x.(.dXvXjX@Xy.Y } 6.T K T q.W.W.| X.l 9 4 b l.x.Z 4 4 p M ~ e.4.P ! ~ } / { W.vXHXGXsX/.W.4.T c 8 J { q.q.q.G.oX3XaXzX,XJ.7.z.$.$.2.A.K.oX;X}.~.V.{ V._.H.2.~ I ' ' 7.G.[ h f g l | Z.V.{ ' w.g.g.g.t.] ] t.).t.[ r.jXCXf.U { E V p b G $.z.6.!.rXjXjX%Xf.J.2.^ ^ %.z.v./ / S C Q @.2.8.J.}.~.H.8.7.*.7.f.",
"wX0Xo.` x z z R ' <.w.|.#Xf.] e.uXdX&Xg.r.<.I P E ~ 3.A.H.~.~.!.W.(.pXNXCXyX).| 0.t.&XaX-XK 2 4 9 5 3 p / v.c.$.E c l W.ZXvX'...0.W.y.y.d.[.dX*Xr.z l k c A.|.@XCXCXf.L v b u i L.zXaX].,X2X<XpXzXaX3XXX!.6.#.$.3.m.3.%.$.:.:.z.3.3.u.f.f.f.f.!.i.7.T 1.~.zXcXjXsXsXsXfX1XP k 1.l.W C E Q s A l..X~.Q.Q.C.V.2.} ;.Q b M E ;.l.H.Q.| ] 0.y.] [ z [ tXCXtX..h f f 6 % $ # o X . . o > [ J 9 4 9 B ;.z.;.:.B.M.n.>.>.>.n.n.n.M.P.B.M.M.P.L.P.m.M.P.m.%.$.z.m.J.>XdX-X[ 6 g ^ ~ P ! W E N M ^ H.gXFXJXvXd.] 4.t.t.1.' 5.2.~ %.:.A.F.F.m.&.d p s G A A Q ;.$.S v v C %.z.c.7.T z f l [ ] g.<X,XpXdXjXFXCXdXf.U l P W 5.V.V.6.1.z.2.z.$.$.$.$.$.$.E N P S.XX(.f./.>X:XQ.<.T 4.C.W.i.w.4.] ' 1.6.G.(.-X-XG.6.z.l.v.R.R.:.z.F.P.x.2.3.$.%.M.H.&XyX>X]./.9.& .     = =XKXjXf.w.i.i. X$X|. X|.:X}.1.T A.H.W 8 9 r z ' t.f.t.' H H  .`.W.4.4.e.e.e.| [ n 0 4 p s A u 2 2 2 2 7 g g c M } l.2.4.G.<XcXdX/.G.H.e.! C C 5.XX5XG.1.H.XX;X4XT.H.x.A.D.3.2.$.6.J.bXZXZX;X| ' 1.OX5X`.6.A.Q.4.T Y l - & - 2 g g n L [ d.uXjX%Xg.y.] t.#XW.[ | aXpX1.' J.V.$.W D Q 3.2.1.' [ f./.9.T 5.c.z.$.@.$.$.Q Q $.W I 1.u.|.2X2X;X|.}./.f./.rX",
"0X0Xs.` [ [ <.1.' U r.pXdX/.[ <.&XfXcXyXf.U m C / W 2.x.A.J.}.!.u.W.(.#X@X(.(.t.).).(.`.Z.j 2 9 u q 9 c / ^ ! E E ! | ).uXdX&Xd.t.f./.d.d.g.d...x l m l P _.vXJXPXjX] l u v v A W 1.e.#X<X-X|./.|.|.G.4.' U ~ #.I W &.@.W @.%.:.z.A. X#X%XrXiXrX&Xf.{ { e.J. X$XpXfXZXgX(.P Z A.S.l.^ E i 5 r $.Q.1X-XW.Q.H.4.{ ^ E b B / l.Z.`.`.Q.-XCXKXrXy.[ X.).(.[ g g 7 7 7 6 * # o o . . = h g 2 2 2 3 u F F F >.B.P.M.M.n.N.n.:.z.n.P.L.B.n.z.:.:.%.:.:.&.@.@.;.b.D.e.R m 9 9 ~ F.H.A.H.S.~ C W x.+XxXcXNX*Xi.t.].aXxX(.w.C.Z.A.c.m.J..XL.m.%.D F @.Q A i Q n.x.#.I I D 3.x.7.T l 6 z q.t.r.d.^.^.^.%XiXsXcXzX!.L l L &.W &.~ W %.:.z.%.$.$.$.$.%.;.Q V J A.:X,X|.(.#X Xw.7.w.A.G.H.A.u.A.e.4.4.G.aXZXcX@X~.x.W $.B.7XR.:.:.n.M.M.z.z.@.$.z.e.i.|.XX^.&X'.f       , KXFXlX@X@X*X,X|./.!.~.H.J.K.7.3.K.L.2.Z Z L [ [ [ ] <.' <.] t.-X(.W.w.5.6.4.| ' ! c 8 b i i e u 8 2 2 u E M M S Q / C C $.A.XXJ.A.m.c.V.5.7.2.V.5X6XS.3.3.D.m.m.&.~ 2.A.L.S.z.3.D..X2XxX2X~.{ m I S.-XG.A.Q.>Xq.U H c 9 2 2 9 v k l U f.dXGXHXjXg.0.] y.(.Q.' ' t.7.m 2.L.K.F.z.z.v.2.2.~ P ' 4.w.<.1.5.x.M.%.W D W @.%.2.c.J.|.;X2XaX$X X XaXzXfXsXiX",
"0XeXs...<.<.p.;X Xg.%XjXFXrX9.] r.&XdX'.4.m Z Z Q ^ 2.6.e.G.XX|.p.<.' ' <.w.t.t.q.{ {  .( g 8 N m J v.J c e 9 u E $.5.e.i.f.g.r.f.f.].f.r.d.9...U K Y l k 5.zXIXLXg.l H ~ I V S G W 1.G.-X(.w.9.u.0.[ z U 0.G.A.P v C Q @.%.%.%.b.J.,XsXsXnXFXnXsX^.T I 3.6.D.J.}. X;XoXG.3.$.x.m.z.c.l.V 5 5 b 5.1X1X(.W.C. .' M p 5 5 q u M ^ } y.yXJXIXFXg.[ | | T J ! M 8 0 g g ; @ o o . o = X.} u 3 3 5 M ^ l.z.n.n.B.n.N.F.R.N.:.:.:.P.R.P.M.:.Q A i V V d A +.:.M.P.z.v 5 r W P.L.H.H.H._.H.c.v.v.S.`.#X!.G.W.(.<XzXxX#Xt.W.|.(._.XX-XoXK.m.3.:.M.M.x.^ S $.F.:X#Xi.7.3.2.m.I f ; l e.t.d.).).W.W.t.f.^.'.(.W.e.{ I #.3.%.&.C W %.%.:.:.$.$.$.2.;.;.Q S ( 2.|.<X-X#X>X@Xf./.;X;XQ.H.V.e.b.K.H.G./.dXKXCX#XJ.#.C @.M.M.n.:.:.n.B.n.:.%.W P 2.A.A.!.~.G.>X/.;       o.JXGXhXkXjXjX,XG.e.e.A.H.A.A.8.7.A.K.H.i.<XsXhXlXlXtXg.'.yXrX'./.(.^.G.e.1.T 5.V.! v c b V S z.M.^ u q b S E J S G A u 5 5 b ^ W D D %.A.H.K.H.A.V.x.m.3.3.2.^ I C E %.x.F.P.M.3.m.K.XX~.H.6.~ M V %.Q.q.4.W.uXC.U K n u 8 0 9 u ! { t.yXFXHXPXGX@X9.' ] y.C.4.<.T m u C 2.K.:XXX.XA.V.5.~ ~ 1.e.V.V.x.x.x.S.z.%.%.%.:.%.#.J.xXZXZXpX Xr.r.g.pXCXFXkXlX",
"qX0Xj.9.] [ g.vXFXFXFXSXFXrXr.<.0.f.r.] H M C C S ^ 6.A.G.|.xXxXf.[ U 4./.f.] U z 9 4 0 g 9 c n P `.5XY 9 P C S ~ 2.x.G.i.f.W.t.t.t.W.t.0.9./.#X].q.K k 9 m Q.BXsX' l 4.XXH.~ W ;.$.l.A.XX|.!.g.!.w.<.7.W.-X!.6.I k v D :.n.z.%.3.J.yXiXtXiXsXlXtXf.R v @.@.%.&.#.1.6.6.3.z.M.z.1.3.L.I./ b u r c ~ 5.4.K l K K c 9 3 < < < 2 9 M ! (.KXJXsXy.[ H Y m n J M v u n z ; O X X . O h {.H.} M b E v.S.M.M.M.M.b.b.N.T.R.E.n.:.:.P.R.B.n.>.+.s y p a a G -.z.n.:.A y p +.P.+XJ.e.6.x.H._.F.x.$.^ } 7.4.4.A.~./.!.f.p.A.|.oXJ.T.6XZX6XJ.~ #.S.L.A.S.v.2.&.U.ZXGXiXf.4.7.V.{ f f 6.).t.y.W.t.5.1.~ 1.4.7.5.4.5.5.7.2.m.M.W v Q n.n.;.:.$.%.l.l.;.F A A A D 6.~.XX-XfXfX#X>XjXdX^.e.6.V.x.S.~.XX#XyXjXjX<X!.#.W :.n.:.:.:.:.n.B.b.:.@.C C 2.S.~.C.e.W.-XJ.;     . , FXFXFXCXFXjX/.7.T T 1.A.K._.A.6.6.J./.#XKXIXIXIXIXPXhXhXGXSXh.!.#X|.t.5.P m ~ 2.m 9 M b C ^ .XH.$.C u b b S E E A p 5 3 3 y s A S V %.K.:X:XOX.X2.W #.:.z.@.W C D @.;.l.z.z.%.$.z.x.K.S.6.7.2.^ I $.Q.V.P e.].C.! n j c 8 0 0 c } H.-X].iXSXHXkXtXg.0...y.W.!.i.' k 8 r m u.aXaXoXU.A.V.A.A.e.6.{ 1.x.x.m.M.b.m.S.m.b.3.3.}.ZXCXfX@X/.f.g.&XpXjXkXhXhX",
"0X0Xk.s.] x d.jXFXGXFXkXiXh.d.f.^.r.[ z m C S S C W 6.~.;XpXCXCX@X[ ' #XCX%Xz 6 0 2 - 2 2 5 8 9 ! 1XQ.H H S._.S.e.e.V.e.t.W.(.W.t.e.e.0.' ] f.-XyXW.' J 9 4 9 e l 9 l !.zX-X5.#.$.^ W 3.oXgXsXdXyXi.w.G.#X-Xd.] T L m I x.S.6.z.A.~.*XrXrXtXrXiXtXg.*.W %.,.@.&.M.F.6.1.1.m.F..X7.6.S.x.W S b 9 4 9 8 k 7 l Z.Z.' n 9 2 2 < < 3 i ^ v.H.W.y.' ' ! m 4 0 j M v S ! g % o . . . o = X.C.Z.} ^ P.+XP.n.N.N.N.n.N.T.7X7X.XN.3.:.B.B.B.>.,.,.+.G -.>.,.>.n.c.v.$.D A W z.L.XX(.G.e.6.H.K.x.&.W S C C E E x.K.i.p.p.w.6.XXoX8.3.:XKXVX~.T 1._.}.u.x.z.~ ^ J.cXPXJXrX] T e.C.U H q.t.| 4.Y 9 9 e C $.&.2.x.2.2.x.S.2.3.3.C v Q M.B.;.$.%.%.%.$.Q A s s i i W x.K.oXxXcXgXpXfXdX!.6.1.2.v.x.G.-XaXaX*XrXpX;XA.%.%.:.n.>.n.n.n.n.b.z.%.W &.$.m..Xe.4.t.-X`.>     . , hXjXjXpXpX*Xy.' l m L 1.~.oXK.6.6.m.i.f.kXIXIXIXIXIXDXDXPXnXf.w.|.#Xy.[ H P I I c u b c P V.1XV.2.^ B u b Q v.2.D d 5 5 w y G A Q z.XXxXxX;XoXV.2.E W %.z.;.@.@.$.@.$.l.l.W C D %.%.z.S.S.x.F.A.e.e.Q.4.k Y V.Z.! J g 9 8 j g g X.C.q.U [ g.&X%X%XrX>X&X&X,XpX].| m k Z I u.;X(.e.3.6.T.:XXX|.G.1.3.x.m.m.m.6.A.XXXXH.6.A.oXaX,X@X!.|.#X*XpXsXsXiXhXkX",
"wX0Xk.s.] z <./.uX&X@Xh.g.f.d.d.].'.i.' Y M E E E W 6.(.aXfXjXkX&Xr.r.fXJXkX[ 7 g e 2 < 2 3 3 2 v ! n k ~ S.K.H.A.A.A.V.e.G.H.V.t.5.5.7.' [ ] q.d.y.T J c 7 2 2 u W A.;XZXaXW.u.6.$.W 3.oXVXFXKXjXf.<.y.d.d.9.y.y.t.] | Q.|.G.G.J.}.$XpXjXjXSXFXjX/.7.6.z.$.^ c.+XOXXX!.J.!.~.~.K.6.5.~ P M M r 2 9 9 9 l  .`.`.{ n q q q 9 3 3 p F ) ;.$.7.A.A.5.' k 2 2 8 b G E g $ O o .   . O h X.V.O.v.T.R.z.z.b.n.z.n.n.E.T.OX+XT.K.F.M.B.>.>.>.>.n.B.B.M.R.4X+XF.S.S.M.M.v.Z.Q.XX;X|./.}.XXJ.6.2.%.%.z.;.F G %.L.XX;X;X/.e..X+X#.l |.KXCXW.' V.:X|.w.5.3.2.3.u.#XFXJXfXr.4.W.).7.{ q.q.| { k - 2 4 M ^ l.v.v.2.2.2.x.W I V V A A -.;.@.Q %.;.$.Q F G A A A F z.S.D.D.XXOX}. X,XaX}.A.#.^ $.$.x.`.6X2X#X#XdXxXoXD.%.%.n.n.n.n.n.b.m.F.S.m.#.&.3.D.7.6.t.yXdX`       , kXfX].f.f.t.| K l T ~ 6.~.XXJ.8.8.3.Z.t.'.kXnXSXSXnXhXSXFXiXy.] y.d.d...[ w.G.I N S S b J G.<Xe.' ^ / v W P.L.^ S G A i p p s d @.+XxXAXbXt.{ K P M M P ^ 2.x.c.x.$.$.l.l.Q S F F F Q v.c.Z.:XxXxX,XW.[ m Y 5.x. . .g 4 j M 0 7 j J z f f U w.(.].uXFXFXNXCXsX'.U k I x.A..XXXx.W b #..X2XbXaX-X~.~.F.S.D.A.~.-XxXaX!.w.J.|. X/.!.!.*XpXyX@X=X=X=XrXkX",
"wXeXo.s.9.<.<.' U z U 4.w.t.y.y./.sXsXg.[ z m P W ~ 1.G.#X,XrX*X#X@X*XjXCXuX] f H } E 9 5 3 3 3 5 4 4 9 C v.A.J.J.A.V.V.V.C.G.G.e.q.4.5.5.| | | 4.1.I E / W 9 2 M K.,X2XaX<X,X$X|.e.6.F.J. XaXaX$Xg.d.d.'.[.%XtXtXrXg.g.sXjX>X!.G.}.;XgXCXFXJXJXFX&Xi.x.2.W D ;.P.OXxXzXxXgX;X~.A.e.V.K.H.{ L e 4 9 n n J } Z. .n 8 8 u B N 9 5 w p F n.z.m._.~.(.].!.P 6 9 c B J g ; # O .     X = [ x.v.v.l.) Q ;.n.n.n.B.n.F.L..X+XOX+XY.b.n.B.B.R.T.7X5XOX.XOX6X4XK.D.S.L.F.Z.G._.;XgXgXgXVXxX}.6.3.z.M.M.z.:.@.W D.2XVXVX2X}..XF.l r J.AXfXi.] W.VXzX]./.}.}.|./.g.=XfXpX@X@X/.W.q.4.q.0.| Y c 9 8 9 u B ^ ^ E n m P ~ m m v V V p i A F F -.:.;.@.+.+.F +.>.M.+X5XF.2.7.3.6.A.XX:X.XA.P M u i S 2.x.e.G.-X<X2X$XK.6.z.M.n.B.n.b.m.K.:XOX.XH.m.A.u.J..X|.fXpX`       , kX>X4.{ 4.T k 9 m } x.H.(.|.#X!.u.7.c.V.e.w.w.r.i.i.h.&X&XW.4.] g.jXFXtX9.d.;Xe.m M E b M V.1X(.A.x.^ C $.L._.W S D ;.n.n.;.F d V M.OX1XH.Y g n c M N c M ^ S._.A.%.%.^ $.;.@.F i A ;.;.^ 5..XVXAXcXt.Y  .} ^ E  . .n 0 0 3 < & 2 m [ g g L 6.H.^.aXvXFXFXNX@Xr.l l ~ A..XOXS.S p 9 C V.|.xXxXxX6XXXL.S.m.A.XXbXVXxX!.i.(.|.#X#X X/.=XpX@Xf.f.g.g.h.iX",
"wXeXo.s.d.t.4.' l l z 4.4.T U ' /.CXFXtX..z k m E #.2.1.e.(.(.(.'.&XpXyX@XG.5.1.4.e.5.I e 9 5 3 3 5 2 3 S v.G.~.K.V.5.Z.Q.Q.C.C.q.e.e.V.Z.V.5.5.1.1.~ C $.M.P 7 L XXxX2X#X$XfXzXpX^.e.K.G.w.7.1.w./.uXdXjXlXkXnXSXkXtXtXnXnXsXf.] <.7.!.<XvXFXCXdX XA.6.%.&.+.D %.S.XXoX;X2XXXJ.Z.q.G.5XxX`.e.P 7 7 k n n M M 9 0 0 8 B ) ( v w 5 5 b z.M.S.~.:XpXjXvX!.6 6 g E  .K f : # . .   . + h O.I.l.( B F A F Q >.:.B.R.Y.N.F.R.N.b.:.n.B.N.R.+XxXVX6X3X6X:X.XD.2.v.S.V.6.A.XX3XVXZXCXCXxX;Xe.6.S.K.F.m.z.W ^ A.oXgXZXxX3X.X^ 9 8 6.#X/.y.4.!.fXCXCXVXxXVXdX&X/.#XpXsXdXjX2XXXw.| 4.1.T { P b i u u w u u 8 N ~ 6.V.{ { x.l.S u q p A G Q ;.-.-.-.-.-.-.;.M.6XVXK.~ I I x.S.A.J.XX_.P e 8 9 u M M P 6.~.,X2X,X}.A.M.n.b.B.n.n.S.~.<XxX6X:XXX(.|.xXxX2XpX..#     . x >XC.^ $.7.I 4 4 C 2.V.).&XyXfXaX(.r.A.J.G.6.6.1.I T 5.V.G.Q.e.0.&XKXPXGXtXh.].e.H E M v W 2..X:X:XG.^ P } P.c.E W :.L.6X5XS.$.@.V i u 9 0 9 8 b b Q O.J l ! _.5XK.b.%.E W @.@.F p i ;.;.2.{ e.-XzX>XT m } v.S p O.O.M 9 3 < & & 2 [ `.C.Y L ~ 6.J. X2XCXFXiXf.<.z ' 6.6.S.A.$.V u b D 3.S..X:X4XU.A.M.3.&.6.J.:X6X;Xp.!.,XaXpX*X@X@X*X*Xh.g.a.9.9.g.rX",
"wX0Xk.k.j.r.' <.~ m L 2.x.L l U g.FXPXSXg.z z K E ~ ~ ~  .5.V.V.W.!.!.i.] ' e.6.W.W.C.{ I E C b J M e u I G.(.(.XXG.T e.-X|.t.e.5.x.V.e.H.G.A.x.3.M.c.~ l.m.l.Y ' W.XX!.u. XjXCXFXsXp.w.Y.D.#.I 3.~.,XpXrXtXkXGXHXnXlXlXjXjXuXd.R L l L ' 0.i.W.G.V.6.3.M.M.m.b.D.D.A.6.A.V.V.1.~ 1.C.`.(.~.G.4.l g n m c c c g 9 9 8 M S p b S E b b $.m.J.ZXFXnXnXnXtXh f 8 M Y K f * O o . . . O $ g ! Q c M C C C D &.z.F.R.:.@.+.>.,.+.,.n.>.n.N..X5X5X:XOX6X;X~.6.6.G.G.A.A.K.XX3XfXNXBXgX$X|.V.D.N.M.S.x.;.W $.z.S._.+XT.A.! c 5 S H.#X XW.y.y.@XyXpXzXaXdXpX#X#XfXCXCXKXFXvX<Xe.1.6.~ I ! E M p y 5 5 5 y B 2.XX6X;X~.G.`.~.2.b y y a d V A V A G F F @.G %.6XAXOX$.P %.S.F.2.2._._.{ E ^ / E E M / H.5XxXjXfX<XK.x.3.&.%.3.S.H.W.!.!.~.XX:XXX-X,X,X&X9.> O .   . ` ].1.&.1.x.~ c u W 2.2.C.].uXvXcX>Xf.J.|._.S.x.1.E @.z.x.A.K.V.] [.FXPXHXlXh.@Xe.P W S v M M x.+X1XG.^ ^ z.%.@.W W n.+X6X+X2.v V D A p 9 5 q q c u A  .n c 6.XX5X.Xc.@.W G F +.A b B Q ) ^ W &.6.H.e.P c c N 9 u / v.E M ! ( m m Y 4.(.-Xf.] T 3.u.!.@XsXrX=X@X'./.Q.e.' L N u p V Q z.F.F.M.b.C C %.v.&.&.%.x.D.K.D.!.,XfXjXfXpX=X=XsXkXh.g.h.g.s.g.sX",
"wX0Xk.k.h.9.[ ' T L T 1.1.l 9 ' %XFXPXGX%X[ U {  .{ W v n ! 2.6.G./.f.] U ' w.(.-X|.G.e.S.2.P ~ Q.`.u.T ' `.xX,XXX5.U ~.zX,Xt.e.6.A.x.x.A.V.A.3.x.S.M.W N $.x.{ [ ] 0.w.0.p.yXFXFXjXg.w.J.F.m.@.%.D.i.g.%XiXhXHXHXkXtX%XtXiX,Xy.l e k Z L z L I 1.3.3.z.M.K.T..XOX}././.(.W.4.L P ~ 1.I T ~ V.H.4.Y ! I J E ~ ! C c 8 c u e C c.c.! ~ A.G.aXKXGXtXrX%X..; 6 7 4 0 g 6 % o o o o X O + % 7 M E ~ z.S.D.N.m.D.T.Y.+.d p s +.+.,.,.>.n.N.T..XK.K.}.xX3X}.~.XXaX<X|.~.J.XX2XfXfXgX,X X!.H.S.m.n.$.$.$.n.;.%.v.x.} M k 9 2 5 z.<XdX&Xf.p. Xg.a.f.W.(.$X-X(.;XzXCXCXCXjXsXf.T 1.z.} 2.W E v w w y p i F ;.M.OX6X6X:X:X:XOXM.u 5 5 i G F +.D +.@.+.-.@.d F T.5XL.%.%.n._.S.~ M ~ 2.{ 2.2.} O.^ E / S.+XbXzXfX,XH.D.b.^ &.3.K.G.u.<.H l R 6.J.G.' x f * % $ . . o ..).1.#.7.5.2.~ W $.2.4.W.@XjXpX*X@X/.!.~.H.x.$.W ^ v.v.3.m.F.V.[ '.NXGXHXhX%X/.e.2.%.W S u N P x.G.V.e.V.m.2.W Q $.n.L.G.1.I E m.$.V A v u i p q 3 5 g n E V.).XXK.6.D A G s s s F +.-.Q ^ @.%.1.x.m.1.m e 9 9 M Z.q.{ { x.H.+X:X<X).y.uXdXg.9.7.!.pX@Xg.h.*XCXkXrX@Xp.' L V v V @.;.m.F.F.m.C 9 v n.z.@.&.$.z.m.6.6.!.3XfXfXpX*X%XsXFXFXiXh.tXrX=XrXkX",
"wX0Xo.0Xh.9.0.4.<.1.4.1.~ l 7 T yXGXFXkXd.] <.5.V.4.m 9 9 8 E x.J.2XsXg.9.' 4.^.#X(.G.C.V.~ m 4.uXcXjX@Xf.).,X;XG.~ Z H.zXzX(.i.~.H.6.6.m.3.1.3.6.S.W 9 2 u ~ ' ^.%X'.h.h.@XrXsXfX*X Xu.6.&.:.:.3.#.1.f.yXlXnXDXDXtX9.9.d.@X-X7.L C I ~ #.#.I W %.%.%.z.S.+X.X.XoX,XfXZXZXxXi.T T 5.2.P v P v.L._.e.5.~ ~ x.c.v.~ P M M P 2.x.c.2.K V.G.|.;XzXzX..f > 6 2 6 2 2 - 6 ; @ X o o o . X + $ & E M.OXoX6X6X4XU.D.T.T.b.+.d s -.,.-.-.,.>.N.R.Y.3.7.}.ZXVX,X$XdXCXCXaX|.G.|.gXaXpX3X|.K.A._._.m.@.A Q $.$.W @.$.v.c.u 2 2 2 N _.bXuX/.g.#XCXfX%Xg.f.).$X;X-X;X2XpXjXNXfX#X' k m S Q W G i w w p G -.z.z.3.x.F.XXoXXX|.}.K.&.4 2 t F n.P.T..X.XK.S.S.z.D V D +.@.+.@.m.H.L.2.M E ! P Y ~ } } ! ( M c M  .W.-X#X!.J.A.1.e.:XaX'./.g.[ - - m A.V.l ; $ $ * * O . O z C.5.6.K.J.V.1.l.2.~ <./.fXNXsX@Xh.%X/.G.} c b S ;.l.l.$.%.3.1.| '.jXHXGXkXrX/.G.5.$.$.W W 2.5.{ e.V.|.:X.X3.S $.v.2.^ 2.P 7.5X6XY v u u B i p w 3 w E x.K.H.G.u.8.T A y y 5 p A -.-.-.@.;.:.b.b.D.F.XXV.v 9 I H.|.(.q.{ { 5.~.bXcXrX9.&XKXFX=Xa.=XjXyXr.a.pXCXNXlXsX,Xi.1.#.^ 2.F.P.S.z.$.$.b r $.M.n.%.%.3.x.A.A.J. X$X#X*X*X=XtXSXHXHXSXtXlXiXiXiXiX",
"wXeXo.qXtXs.r.t.i.!.W.4.P l k 1.aXCXlXh.0.<.G.J.V.{ e 4 9 c 1.A.oXZXKXFX%Xr.4.t./.!.W.G.6.~ l Y >XFXGXNX%Xr.0.4.R L P 6.G.(.-X<X<XW.V.V.A.u.6.u.A.M.v 2 - 9 Y f.GXPXHXDXDXkXtX@X!.i.J.6.I I &.%.3.&.1.!.FXGXDXhXhXj.[ z 9./.~.8.6.x.x.x.A.S.x.x.%.%.:.z.S..X.X~.XX2XVXZXcXaX(.u.C.V.6.#.P I 1.H.1XXXe.1.1.x.L.c.} ^ ^ 2.c.`.+X2.k m S.+X~.G.' H 7 - 2 3 3 5 2 - 2 2 % @ X o o o . X + * g c.+X6XVXzXgX6XoXJ..XOX+Xb.d s ,.>.>.>.,.%.m.+XY.3.1.:XAXKXCXpXjXCXCXaX}.J.}.3XaXgX:XJ.x.c.S.S.m.$.W Q x.A.5.#.2.v.L.Q 4 2 r z.`.>X&Xf.^.iXFXHXFXNX@X/.$XaXzXgXpXfXjXCXcX^.l 2 5 y i a w 5 p A _ ;.P.L.K.D.A.6.S.F.H.V.D.3.v t r W N.T.bX6XgXVXxX3XoXD.x.D p y y p D c.P.M.;.F S v.K.7.~ 1.5.Y k 8 4 2 7 ~ H.H.H.H.A.5.J.yXjXjXdX%Xy.l 9 Z D.+XV.l & & > * O . O h y.| 1._.XXJ.6.3.7.~ ! Q.FXKXkXiXCXFX*X6.C v S A @.;.-.;.z.$.6.W.,XNXGXGXkXsX/.C.5.^ 2.3.L.OXC.' { V.~.OXS.W S l.x.2.l.2.e.bXAXyX[ 7 3 3 5 q u i A ;.F.XXdXcXuX@XW.w.^ V s s F ;.>.>.+.:.n.x.S.K.H.~.aX<Xi.R 4.XX2X2XW.4.| { { W.pXsXy.9.FXJXNXh.*XdXyX@X@XrXjXFXFXFXFX@Xw.6.V.S.L.M.l.^ W C M / ;.v.z.x.A.m.7.A.OX:X|. X@XrXkXhXkXSXGXGXSXnXkXkXhXlXtX",
"wXeXk.0XiXh.f.i./.@X-Xe.T l l 1.~.&X&Xr.<.7.A.S.Z.~ c 8 M 5.Q.#XgXCXFXFXjX@XG.6.i.^.(.G.6.#.k L /.cXjXsXrXd.[ z e m ~ 5.5.V.Q.1X1XW.W..X~.}.:X;X}.7.k 7 7 k ] tXPXIXIXUXDXlXg.p.e.6.D.D.6.6.!.;XJ.u.1.f.FXIXPXlXj...| ' u.-X~.8.V.H.A.K.K.J.K.F.x.3.x.m.M.F..X}.~.}.!.G.w.6.H.~.J.A.A.x.x.6.7.x.(.:X~.6.~ 2.l.} ! ^ $.$.c.P.S.C 5 M S.XX2X;Xe.U 7 2 3 w w w 3 0 7 6 % @ O o o o o O * | _.R.6XVXZXfXpXgX;X$X3X6XzXY.d s n.R..X+XY.D.K..XF.$.W .XVXAXCXdXVXgXgXXXK.K.K.XXxXVX;X8.$.2.2.2.S.K.H.H.(.<X>XW.G.G.P.-.5 4 E _._.|.#X'.].uXFXHXPXFX=Xp.-XxXVXgX2X2X<X-XS.P 5 3 5 y a a w w A -.>.z..X:X,X-X~.6.$.%.$.$.%.%.&.b.K.oX2X2X2X3X;X3XaX3XoXU.F.3.d 5 3 3 A >.B.>.>.F i %.5X3XG.e.-X(.' l m m P V.H.x.2.x.V.A.J.,XCXCXZXyXW.1.~ 1.e.:X:XG.z f f * o . X 6 q.} J ! A.F.A.1.T 1.x.G.aXjXvXjXjXCX<X6.S Q Q A G F -.B.L.6.6.}.pXNXHXHXFXyXf.e.2.W ^ S.oXyX[.f.U K 2.z.P c b z.S.H.G.A.~.xXvX'.] m 9 5 5 v / ;.c.F.H./.jXHXFXsX'.&X(.A.$.%.z.n.M.>.@.n.n.S.H.H.G.W.>XcXdXf.] G.aXcX,Xf.t.t.' 4.>XjX'.9.%XGXHXlX[.&XsXjXFXkXsXjXfXjXrX&X].Q.S.M.;.^ C c u 9 9 5 u / x.L.+X~.A.K.3X3X$XpXjXGXGXFXSXSXNXkXlXhXSXSXhXhXhX",
"wX0Xk.k.lXpXg.f././.#XG.1.I L #.G. X,XW.6.7.6.z.M.$.u e I G.<XaXsXsXyXyXsX#XW.e.W.W.W.e.7.#.P #.W.>Xg.'.dXyX] H k ~ V.2.C C 2.G.G.A.K..X+X+X4X6XXX6.{ ' T H d.SXIXIXIXDXqXj.r.<.#.m.F.U..X3XZXvXfX-XC.^.kXPXPXhXg.y.C.G.~.2XXXp.G.H.A.D.K.J.K.U.T.A.m.m.M.F.U.K.G.A.4.I I ~ m.K.~.J.A.A.J.~.A.A.!.oXXXH.1.~ M M E / E E W W b u r C ~.xXCXFXcX!.l k M b A s S 5.q.[ 6 * O X o o o = [.vXxX}.oX2XZXZXjXpX,X,X2XxXzXU.D +.Y.6X6XxXVXxXxX:XS.W i :..X:X-XXX.X.X}.L.P.R.P..X6XzXoX8.b.3.3.c.~.,X#X&XpXvXCXzX(.H.M.+.5 r c.1X(.(.&XsXrXtXhXnXGXdXi.7.S.XXXXoX}.D.z./ c 9 q y y a F G G S ^ n.z.x.XXxXCXzX|.1.b u b D l.x..X6XzXxX$X#X|.|.}.~.|.|.}.Y.U.F.%.p 3 3 G n.B.n.>.F V W +X6X:XC.aXAX^.y.(.,X>X1XQ.' J ^ 2.m.G.(.dXFXCX*X^.G.e.G.!.<XaX#Xy.l ; $ X . O 6 5.l.M 8 M 2.6.T I c._.~.i.i./.@Xd.d./.e.T %.%.@.F s >.8X5XV.e.|.fXFXJXHXjX/.4.1.^ W ) v.V.].vXyX' 7 b W I m P x.J.`.-XXX}.XXW.7.T 2.^ N 8 A :.c.L.~.6./.FXIXHXkX%XrXaXXX6.3.M.P.B.:.z.n.M.F.K.}.}.i.g.ZXKXiX9.0.].cXcXrX'.^.q.] @XjXsXh.g.kXPXPXlXg.pXKXJXHXCX*X#X@Xf.(.1XH.^ v u b / l.;.5 < < 5 ^ x.Z..XOX.XK.u.!.*XsXCXHXFXNXhXhXjXiXtXlXSXGXSXSXSX",
"wXwXk.k.tXyX/.!./././.G.6.6.x.A.~.(.<X;XJ.1.#.%.z.Q u v 2.).<X-Xf.W.t.w.d.r.y.e.G.W.W.e.1.#.1.G.#X,Xr.g.jXCX).U P 6.F.2.v 8 N E P #.x.3.2.6.A.XXQ.w.t.W.i.0.g.SXIXIXPXmX0X9.r.G.D.D.}.oX2XxXZXjXvXcX(.^.rXkXnXkXg.r.W.Q.W.-X*X@X|.J.8.D.F.U..X+XT.S.m.m.D.K.}.}.#X|.G.6.1.2.x.x.~.XX.X+X:X6X|.J.H.~.XX_.x.E M S / ^ / Q Q G v b b C A.zXJXKXFXuXw.~ S b S ;.P.1XbX>X[ > O o X o . = uXcXxX.XJ.;XVXZXvXpX,X,X3X3X2XK.&.@.R.6XzXcXAXZXZX2XH.W y p G W W %.z.m.m.n.@.b.n.K.:X:X}.F.S.K..X_.1XZXFXvXfXjXjX<X|.S.%.V 5 v S.XXQ./.sXGXFXhXtXtXdX#X7.#.3.m.K..Xz.D i y y s F D S ^ $.;.P.L.V.6.1.3.~.xXKXZX(.T v u C @.v.S.XX2XxX<Xf.u.G.!.Q.^.!./.(.!.J.~.F.Q w 5 G B.M.:.z.;.b C F.OXS.6.-XAXyXuXvXKXvX>XV.! m M W #.7.G.pXZXCXyX>X#X/.(.aXcXsX&Xr.z ; @ X . * [ V.~ c e P J.#Xi.] 6.~.!.7.7.w.t.W.y././.r.7.$.;.F s A B.+XZ.e.1XfXFXKXFXpXG.{ E W $.^ P K G.zX-Xz 6 c x.Q.).(.XX~.).).J.D.6.~ W W l.2.~ M S ;.x.A.G.w.&XHXIXPXGXlXtX*X@XG.6.A.T.T.F.M.n.M.K.K.oX;X/.h.CXJXFXg.] r.&XfXuX].W.4.' !.dXjXrXh.iXHXPXkXd.#XFXFXFXfX$X(.w.4.6.V.2.J c N Q v.I.@.w 2 3 u E E J ~ c.S.2.' G.;X#X=XrXrXrX*XsXfX%X@XrXjXSXDXGXGX",
"wXqX0Xj.h./.!.!.p./.!.G.H..X.XK.~.;XaXxXXXe.1.W C S C W c.~.e.[ m H T ] ] [ ] u.|.-XW.0.5.6.G.-XdX>Xw.f.jXFXyX] [ e.H.$.C b b b c m ~ ~ l k { H.t.t././.!.p.h.SXUXPXnXqXj.g./.XX-X/.,X*X#X;X#X$XsX>X!.t.(./.&X&X'.f.f.W.^.aXZXFXaX(.A.D.S.K.K.T.F.N.m.M.F.+XXX,XyX,X-X(.A.A.6.x.H.L.F.T.OX6X:XA.A.A..X+XS.P S S / Q ) Q G A >.z.I.W I J.3XpXjXrX^.x.W M ~ H._.1X<X>X<.h @ X . . . # g.<X-XQ.H.XXZXFXdXyXpX2X3X;X,XU.@.@.N..X;X<XdXdXaX;XS.D y 5 5 5 y A M.R.P.>.V @.M.T.XXXXXX+XL.K.XX|.,XCXJXFXiXrX@Xw.#.C u 3 5 M H.(.W.$XFXPXPXSXh.s.d.y.1.1.&.3.+XOXx.D V s G -.S..XF.D.3.%..XxXuX].Q.6.e./.dXxX!.5.#.%.z.m.M.A.A./.2X|.7.#.7.e.!.|.p.r.|.,X}.G.).M.s y G B.I.x.F.M.Q Q v.S.n.^ 4.(.zXvXKXJXdXf.4.&.C V E 1.x.K.,XZXVXzXZXpX!.!.,XyXtXsX].| > + X o > C.Q.! l ' !.CXKXsXd.w.!.W.i.f.-X-Xw.!.AXJXvXr.L @.>.A i F ;.} V.XX<XfXdX*X!.e.~ E E / Q m c ! 5.[ g 9 P Q.uXzXcX<XW.q.3.%.z.l./ S S M c E ^ 2.Z.4.| 5.u.*XHXPXPXGXkXqX[.'.).e.J.+X+X.XF.N.P._.!.;XgXdXMXKXJXCX'.y.i.!.(.].(.q.Y L w.pXNXfXrX*XjXhX%Xf.f.'.@Xg./.(.G.6.~ ~ 2.2. .{ 2.v.I.c.A 5 2 8 b b u 0 2 8 u c ~ ~.-X!.r.r.r.f.@XfXZX@X'.*XNXNXhXhXnX",
"qXqX0Xk.s.f.^.f.r.f.g.u.A.K..XK.J.XXXXXX~.6.~ v p b $.$.v.S.I 9 9 v { (.&Xf.0.~.aX-XW.e.e.G.W.'.*X(.<.i.dXKXuX0.{ 5.V.~ M / S S m T C.0.l g 1.~.d.W.,X#Xf.w.h.sXDXDXnXlX[.'.@X@X&XsXdXpX X7.4.4.4.e.e.w.i.f.f.!.(.!.J.J.G.aXJXJXpX!.!.G.H.A.m.M.b.b.z.S.K.XX;X;X,X*X*X#XQ.A.x.:.z.z.n.M.S.U.F.m.m.D.XXOXA.E S A G / v.;.D p ;.7X+X~ c C ~ w.#XyX].Q.5.' 5.S.x.t.| | U ; @ o . . X * f m I ^ 2.W.VXAXjXCXcXfX3X;X.XF.z.:.N..XXX<XaX>X,X X6.$.G a 5 3 y G B.7X.Xn.A s >.R.R.N.P.L.M.S.XX-X|.dXCX2X].^.V.I k 4 2 2 5 E Q.!.w. XCXPXIXHXtX9.T W 2.x.,.z.R.4XM.F F +.+.n.+X6X6X5XK.1.G.<XcXpX-XV.~ $.H.`.~.A.6.D.A.A.A.x.3.6.K.}.m.$.W ' i./.p.g.iXSXsXg.e.z.:.@.:.B.L.F.XXOX2.W $.n.M.$.S ^ C.bXAXCX#Xt.{ ^ D W $.2.S.~.XX3XgXfXgX X7.4.<.d.rXkXuXd.> @ X X > Z.Q.7.4.W.pXFXJXFX&Xg.^.^.;X2XxX3XJ.;XJXIXHX@X' 2.v.Q u p A E l._.1X-XQ.w.1.W Q G G W ;.v.~ Y E E M M x.<XdXyX-XG.x.$.~ $.%.3.&.S M r 7 e ^ H.Z.5.5.e.f.%XkXFXGXSXlXrX'.].|.Q.~.}..XL.M.m.F.K.A.J.aXkXjXFXdX'.@X/.t.4.4.| | ' P P 5.(.pXjXpX@X|./.t.e.C.e.4.{ { 5.5.{ 2.2.S.+X+X_.V.H.H.v.C r r v b c 8 8 2 - 2 2 u V..Xt.y.w.e.4.r.pXFX=Xg.=XsXrXqXh.h.",
"wXqXeXs.9.f.@X;X@X@X/.W.A.e.6.6.x.A.6.4.6.7.2.P v S Q ^ ^ ^ C N u C x.6XZX2X(.XXXX!.e.4.e.Q.(.W./.W.w.r.&XZX>X4.P ^ 2.W S E E J q.bXAX].U U t.-X,XaX2X#X!.p.@XrXlXhXlXsXsXrXrXsXjXFXFXfXg.9.7.5.4.7.e.J.XX-X|.J.Q.~.D.m.e./.KXFX*X!.~.|.~.S.m.z.:.b.%.z.F.XX;X,X,X*X$X X~.K.m.:.;.;.:.:.%.z.n.:.:.m.+XOXK.2.S S a S ;.:.F p W L.S.E u v I !.dXrX/.C.5.5.v.~ P l 7 7 6 * # o o o > ..K 8 7 g l 1.|.ZXZXKXCXdXoXJ.K.F.n.:.b.F.XX<XcXzX<X|.V.z.M.z.G D $.z.D.L.M.>.A d G >.,.G D F ;.m.OX:XW.f./.G.).q.Y C C v r r D S.XX|.u.w.$XFXJXFX[.w.#.&.,.:.-.:.P.R.N.;.-.+.+.>.L..XL.S.c.2.4.XX<X|.V.^ P C $.H.K.e.G.!.Q.G.F.D.M.x.3.3.3.:.W 1.!.#X/.%XnXHXkXh.w.1.z.S.F.P.L.+X5X5XK.z.$.%.l.;.A A 2..X2X;X6.~ C i A G W ;.m.L.~.XX X X}.J.' K ' ^.jXkXh...h $ o . $ ! C.A.G.(.2XfXcXpX@X*XgX$X XxX2XXXG.W.KXJXSXtXg.y.{ E p p A Q v.S.~.(.K.1.C A s G F -.c._.L.A.x.;.W D S.XX(.J.6.$.x.c.b.z.K.oX.X2.^ W I T 6.W.W.G.#XpXkXhXlXtXkXhXlXrX].>XuX>X^.G.A.x.z.%.S.T.H.G.#XdXtXg.r.f.^.W.w.{ l l H n m { 4.w.-XbX,X^.t.| { T 5.} } 2.2.l.2.{ $.z.L.OXOXL.2.2.l.^ W ^ } 2.}  .{ { g & & 2 4 g e.(.W.t.e.e.r.&XNXjX@Xa.a.h.h.h.s.",
"wXqXk.o...g.*XpXjXsXrX/.7.' T ^ E W I 1.V.S.c.2.W E E ^ ^ ^ ^ S V C %.L.OX~.~.G.).Q.7.' t.1X,X,X;X-XG.] y.(.C. .P W W A i b E J (.AXJXdX^.f. XpXCXZX*X@X/.!.#X$X*X,XpXpXfXCXFXSXHXHXFXsX@X/.(.).(.Q.e.H.}.XX}.J.~.K.N.3.3.i.zXfX X|.3X2X+XK.m.v.:.:.D &.F.XX;XdXBXfXpX X~.K.D.m.:.;.:.n.z.z.z.>.@.n.T.OX+Xm.W i b G ;.;.Q b N P M S C ~ ~.ZXCXh.r.t.q.{ ! 8 8 8 9 7 6 * # O O = d.{.Y k n 8 9 r 6.3XVXZXfX XJ.D.m.F.B.%.&.z..XxXZXfX|.J.c.c.+X+Xz.m.2XzX<XS.:.G G F G d t 5 y s z.z.L.J.A.W.(.J.7.~ I ~ m.P.N.m.K.:X<X-X~.t.t./.#X@X/.J.D.%.@.Q F +.>.N.B.>.+.+.F -.>.;.@.S W ~ 2.c.m.$.E S S S D 2.5.e.-XcXxXW.A.F.L.M.%.%.:.@.z.6.(.,XdXFXPXJXkXh.^.G.~.XXXX.XK.+XOX5XOXK.2.^ l.;.A p A P.T.~ 8 9 y y p v E E 5.S.S.K.D.p.#X[.t.U y.%XvXMXh.9.h % O . @ m Q._.G.!.}.}././.@XcXZX$Xi.}.H.H.e.' t./.=XsXrX'.<.H u i G ) 2.H.~.5X+X&.r y y s _ -.c.+X+XK.S.z.Q @.z.z.7.6.6.b.F..XK.K.:XVXxX~.~.F.+X;X3XpX|.p.yXJXIXHXhXh.lXhXlXh.d.^.uXbX].w.3.&.D &.n.K.~./.dXvXg.[ <.J.G.q.5.{ J l 9 9 g Y U ' { G.G.G.G.! J ~ / v b b F $.M.P.z.&.b.T..Xm.W v E S v.`.`.H.H.).:X<X' - & 2 4 J Q.1Xt.4.w.W.f.'.lXCXsXd.r.f.^.f.'.",
"mX0Xo.o.s.'.*XjXCXjXpX!.<.T P C i A Q 2.S._.V.2.W m P v.x.v.v.2.E E C W 3.6.A.A.C.`.H.' 7.;XcXcXvXxXG.<.w.i.e.{ J b b i i M M ! C.yXCXCXsXyX*XsXFXFXjX*X@X#X$XoX-X(.|.#XpXFXHXGXNXkXsX*X#X#X|.-X2XaX/.u.A.J.H.K.K.F.K.F.A.H.oXoXXX:X6X3XK.S.D.M.z.$.D %.T.;XaXZXGXFXCXsX#X(.!.~.c.3.M.F.F.D.A.m.A.A..X.XK.m.D V / c.P.z.$.E b b S W ^ W.CXJXjXh.r.] { Y m M ! 5.5.K z x : o X = &X-Xl 9 j n 0 5 V x.K.~.G.A.m.b.M.P.M.%.C C S.6XzX/.w.m.S.D.F.K.v.F.ZXJXZXA.^ @.,.n.>.+.d p s ,.c.m.S.A.~.XX-XJ.A.K.~.XXoXOX+X+X+X.X~.XX.XK.G.i././. XoX.XD.:.+.G +.:.B.P.n.+.s F _ _ F F G G G F F F A B G Q F Q ^ 1.C.,XAXzXe.4.K.+XS.z.%.%.z.z.V.(.>XyXnXHXHXhXrX2X2X:XoX+XT.L.L.F.L..XF.2.$.^ ;.A 3 5 E ^ 4 2 9 F :.D P 2.2.6.x.F.XX*XfXFXkXh.r.g.rXFXkXj...h $ O X + c H.H.e.J.K.G.u.G.#XzXZXf.e.A.S.S.6.1.<.r.g.tXuXkX).Y v M Q ;.v.V.OX6X7XP 2 3 w p F -.n.P.F.M.v.$.^ ;.m.T..X).~.XX;XxXgX3X,XfXfXpX2X:X:X2XgX,XG.w.rXJXIXHXnXtXtXnXkXg.0.y.).bXXX6.%.D F ,.n.J.-X#XpX*Xy.f I x.{ | | { x.! H 9 8 H { (.C.P &.$.$.%.%.n.S r 5 r i W M.7XF.$.b.K.+XM.@.u u S c.L.Z.3.F.XXzXgXG.H 2 2 c 5.).-Xt.0.t.(.f.9.g.rX%Xd.y.r.W./.@X",
"DX0Xk.o.s.h.%XsXkXtX%Xf.<.Y M 8 w B D E x.L.S.2.C k ~ _..XH.V.6.x.l.^ ^ 2.m.x.6.5.H.`.G.4.H.<XaXzX-Xe.!.;X,X(.T 8 9 v C l.2.~ } 5.i.@XsXsX*X%XpXGXHXFXCXjXjXsX$X!.!.W.w.i.,XdXrXg.d.^.#X!.i.f.@XdXCXfX Xi.e.A.S.F.L.OXOXK.K.F.m.F.+X3X X6.m..XL.%.W D m.6XZXZXFXGXGXFXvXyX].#X#XG.V.K.XX|.;X;X|.-X|.J.D.3.#.$.%.x..XT.x.^ ^ $.;.l.$.1.#XCXdX%X'.y.[ K L { 5.C.1XH.U h > # o . = g.[.l 2 9 u 5 3 5 r u C D Q %.m.M.B.M.z.V p $.+X~.e.w.i.J.J.6.6.v.3.3XKXxXm.2.z.b.n.B.B.>.,.-.>.v.L.F.3.H.:X:XD.G.;XxXxX;X}.A.S.F.D.A.}.}.~.}.}.oX3X2X2X;XA.%.F G d F M.R.n.F G G a s G G -.-.G a a G G A S Q @.Q v.x.H.1XxX-X4.1.A.K.D.3.$.2.S.K.H.Q.@X&XiXlXlXlXrX<X;X|..X.Xm.M.v.;.;.z.M.M.I.;.F p 2 2 < 2 2 2 w P.7X:X:X:XOXF.A.~.;XsXHXGXtXs.d.@XsXNXkX%X9.> @ O . + 8 A.H.e.G.~.~.~.!. X,X-Xw.1.~ z.F.}.i.p.>XyX[.rXkXrX .Q Q z.B.M.c.S.H.2.P u p 5 y G -.n.M.M.v.;.Q $.n..X6XVXxX3X2XjXKXKXfX*X,X;X3X|.J.D.6.A.A.6.4.*XJXIXHXSXiXtXnXjX%Xt.t.C.~.H.x.:.-.-.>.N.oX<XaX(.d.U f C P Y ' { q.x.V.Y m k H 1XzX-XL t p b Q M.:.&.D D D S W 3..XL.S.A.K.+Xb.D i N G F E M C S.-XdXuX|.#.2 9 2.H.).).f.r.d.^.d.9.[ ] ] 0.r.r.i.!.!.",
"DXwXk.s.s.h.tXsXjXtX%Xf.] U m 9 w B u v $.m.S.2.m P V._._.H.e.i.Z.x.c.c.7.6.5.1.&.~ Z._.A.#.1.6.G.6.A.:XZXZX1X' r 5 u C P.H.2.~ 5.~.-XjXdX[.g.&XsXdXpXzXZXCXCXyXJ.A.A.7.T ' 7.w.| | W.(.w.4.t.#XkXFXGXfX!.u.U.L.K.+X5X:XXXT.F.:.n.L.}.p.6.A.oX.X%.D I A.xXAXFXZXZXZXdX#Xf./.aXdXH.A.Q.#X*XuXyX<X,X(.~.D.6.A.A.A.K..XS.2.^ v.c.z.S.S.A.H.G.t.f.g.q.' q.W.W.q.W.>XW.x * O o X X = tXnX..7 2 3 5 5 3 3 5 y a A Q x.x.z.;.^ V i $.L.XX<XdXpX@X/.i.7.2.&.8.;XOXF.m.S.D.N.N.F.P.R.P.M.M.B.:.:.F._.K.A.K.oXOX~.J.H.x.l.z.z.6.J.|.-XXX|.oX4X3X;XG.1.S F d y d F >.;.F F G y p s s F G s s s A G A G Q ;.v.S.F.~.~.W.t.{ 6.6.A.F.b.z.S._.oX|./.|.@XyXrXh.%X*X-X).J.T.T.z.Q F F F ;.M.B.n.@.F i 5 2 < < 3 2 9 +XvXzXxX6X~.1.e.aX,XpXCXrX....y.d.@XfXNX*Xr.h + X . O 6 q.Q.V.V.~.~.|.|.|.-X(.<.T k m x.|.$X<XcXvXrX=XrX#X5.M.M.E.R.R.$.^ k 9 C n.Q A p Q ;.z.n.n.z.:.;.;.n.U.oXgXxXVXZXFXCXfXaX1X(.J.K.6.~ D D W ^ 2.5.*XKXPXHXkXtXh.tXyX&X^.Q.G.6.6.x.n.n.M.n.N.+X2X:XA.Y 7 l ~ ~ Y l K T ! K Y J m P ).bX(.L 9 5 b ) ;.:.$.v.F.c.5.} } v.x.x.2.c.I.z.F A B i u q e M .XzXdXuX(.1.l P 7.A.A.G.W./.yXuX@X@Xf.9.9.f.(.q.[ ' 1.",
"DXqXk.s.s.g.=XsXsXrX'.t.[ U P b b S E $.b.F.L.x.I I 1.1.6.A.A.G.H.H.F.S.6.1.1.1.W ~ 1.V.x.I p p V W 2.G.-X1XG.1.v 5 r u z.F.A.1.5.~.-XdXvXrX9.] f.w.' 4.t.J.Q.W.e.A.J.m.T L #.~ #.2.V.6.1.4.G.$XCXKXJXFX Xi.~.}..XOX4XoXoX+XP.:.%.K.2XgX~.6.~.+X8.&.D 3..X;X;X|.|.oX}.G.G.#X2X#XG.!.#X*XiXsXrX*X/.J.H.K.~.~.K.A.3.z.$.E / ;.z.3.3.F.T.m.#.1.i./.f.t.-XzXuXd.W.>XW.x * O X X # ..HXIXtXU k 8 r u v C D A A F Q l.x.%.&.W V i %..XgXKXKXFXSXjXpX'.G.1.#.A.D.N.N.L.K..XU.D.D.+X+XM.z.;.V @.L..XF.K.F.D.m.x.A.A.z.$.%.%.#.J.,XxX2X:X|.}.|.~.3.C i d y y y y p d s s a y y a s A i a s s a a A G $.v.x.Z.).(.G.w.G.G.c.6.x.m.z.z.~.2XgXpX#X/.@XaX<X/.!.(.).A.m.n.n.:.G G F F ;.z.n.%.;.F A B q 9 5 w 5 5 ;.1X+XA.5.8 7 (.KXrX9.[ [ [ ] y.t.'.=XpX,Xi.h + . . O 7 G.`.V.5.e.G.|.pXdXiXiX*Xi.f 7 { G.|.dXjXFXvXiX%X^.4.v.$.:.z.Q b 8 8 k M E l.^ ^ E ;.:.z.z.z.>.;.:.M.F.}.;X,XgXZXZXpX X(.(.f.e.5.1.#.W C C ~ A.i.@XCXKXGXNXtXrXg./.!.Q.~.L.x.z.z.z.n.B.:.W %.M.3.W 9 8 I V.A.{ m m H H l K Y m l | ).^.y.{ P 2.Z.2.$.$.x._.XX-XQ.Z.1.C b v C B A i p d i i i i S L.zXVX,X#X!.u.e.V.V.e.H.G.i.uXcXvXjXfXuXuXzX>X] g 9 m ",
"DX0Xo.o.9.g.%X*X/.9.[ ' ' Y I F E $.S.F.m.m.S.x.L l L { 6.A.H.H.H.K.S.A.J.G.H.V.V.6.7.#.W V p t b W ~ ! { 1.1.^ q.v.v.W P 5.A.V.6.e.f.>XfX@X<.1.<.R k 7 4 - 2 8 <.H.~.D.7.#.#.^ &.&.&.#.#.A.XX;XNXHXJXFX$Xi.!.oX4XoX.XU..X4XP.z.b.J.gXAX6X6.J.+X}.m.%.%.b.3.2.$.8.A.6.6.G.-X,X/.f.@XdXnXGXFXiX[.f.i.A.V.H._.F.m.%.W D W @.@.@.&.@.n.P.m.7.1.|.zXuXg.#XjXuX(.W.yXd...x O X X = dXJXHXSX/.{ } 2.K._.L.F.z.@.D $.M.m.b.b.N.%.V &.G.pXFXJXHXGXHXSXkXyX!.6.D.D.D.m..X4X:XXXF.m.D.x.:.@.C t @.7X6XL.F.F.A.3.#.3.3.&.C $.b.H. XpXZXzX<X~.i.H.F.$.V A A G a a y y y s s a y y w y p p A A b i i A F l.S.XX-X].(./.!.J.K.A.{ J E / ^ V.aXCXjXpX@X#X>X;X}.K..XF.z.@.+.+.@.@.@.+.-.>.;.z.N.P.l.F _ _ G B B B y i ! b 5 2 & ; <XFXjXd.[ U <.f.].).'.&XpX,Xf.h @ . . # H (.XXe.' ' 4.|.CXFXkXGXPXrXx f m 5.H.~./.%XdXdX,XJ.5.2.E ( u u c M / } ! E ^ v.v.Q F ;.;.:.n.>.Q ;.P.K.U.oX2XfXpXpXpX X!.'.*X$XW.V.A.~._.V.e.~.w.i.>XsXkXkXkX,X Xu.u.A.S.S.v.z.z.%.n.n.@.D b r 5 5 5 M ~ S.A.I I I ! ! { I I m l ' C.#XzX&Xy.W.G.Z.l.^ 1.G.aXaX<XG.! b i p 9 5 5 5 p s G F F G F W x.}.<XgX2X#Xt.V.H.A.A.A.4.W.g.iXjXvXtX&XW.[ l 8 9 v ",
"DX0Xo.` <.p.!.w.] x 7 7 8 e b W 2.6..XK.6.x.x.m.I m L #.A.H.A.u.H.A.7.6.XX6X:X|.(.H.6.$.S S C W x.x.W W I W %.7.~.zX<X6.I A.|.|.G.7.e.G.(.^.W.e.q.T H k 4 7 7 k 5.L._.H.~.A.7.H.S.1.#.#.:.|.2XaXsXjXZXCXaX(.;X2X6X2XU.N.Y.L.P.:.3..XVXZX<XJ.~.3X2X#X~.m.2.$.%.%.W %.W W %.F.:X*X^.#XFXJXHXFXsX%X/.!.G.H.J.K.m.m.z.$.;.-.@.&.$.3.6.x.S.S.6.~.gXFXCX&Xf.#XQ.V.W.^.0.[ x # X . = tXsXkXcX:X~.).XX.X+XL.L.S.$.V D :.:.z.L.OXL.$.S W A.aXKXGXGXSXSXSXjXyX#XH.K.m.D.T.;XzXgXoXD.D.$.V y 0 2 V 6XxX|.~.~.D.3.~ ~ W C V $.J.&XyXpXjXfX-XG.<.7.z.Q u b S S Q Q F G s A G a y 5 3 5 i ^ :.%.Q D D +.x.F.`.xXzXyX#X#X XJ.G.| H k l m 7 g i.zXAXcXjX*X$X X/.~.A.x.:.@.F G ;.N.M.z.;.:.n.L.:XOXc.M S Q F S E / S v u 8 3 & $ & Q.ZXzX].f.y.@X*X(./.@XrXyX/.t.z % X   = { 1X<X!.f.u.u.(.kXkXjXHXGX*X<.R { V.G.G.G.G.(.2X<XG.6.Q B q i u B / l./ ^ ! 2.c.v.Q $.;.>.z.l.z.F D F.5X;X#X,XaX2XpXjXsX*XfXFXjX$Xu.Q.xXAXCXsX-Xt.q.C.W.W.#X<X,X~.7.#.2.} v.c.M.m.:.n.n.D i t 5 4 5 u C E 2.5.' T { {  .5. .Y J l H 5.(.xX,XW.W.!.G.A.6.7.H.e.W.(.A.7.2.$.S 8 b W $.Q @.Q Q +.-.+.S M Q K.xXfX$Xe.A..XXX_.~.q.q.W.G.W.G.1.l 7 6 g M m E ",
"DXeX` ` 0.e.<.U l k 7 7 9 5 5 D m.L.+XK.m.x.3.2.#.I I 1.H.~.G.e.H.J.6.6.J.oX|.A.e.V.1.&.;.l.W %.P.S.^ W 2.3.%.V.XXxX-XA.D.|.2X2X}.6.6.e.G.W.W.~.C.q.1.{ x._.~.G.7.A.K._.J.A.J.:X.Xu.1.~ S.<XxXfX*X=X@X/./.XX3X3X4X6XT.m.N.P.M.&.#.oXaX-X(.~.;XaXgXjXaXJ.3.x.m.F.3.W p 5 p m.:X<XQ./.pXvXjXsXrXrXyX<X:X-XXX~.A.A.b.n.z.z.:.z.K..XK.K.S.D.u.}.2XcXdX|.e.4.5.V.`.].] f * O X . . # h ^.#X|..XXXH.x.c.M.n.z.@.V i i S W z.F.F.z.@.D 1.~.dXFXFXDXSXnXkXsX$X~.K.A.6.F.oX3XxX2XU.F.%.r 3 2 - k OXVX,X X}.!.A.6.5.5.2.~ 2.|.aX>X&X@X@XQ.' L l e r 5 y d A A Q ;.;.F F F a w 5 i @.M._.+X~.c.x.z.n..X7X<XdXjXpX2X,X(.u.e.' ' w.f.0.6 & 7 J.2XZXAXfX*X#X/.H.3.%.@.-.+.+.L.6X7XP.;.@.L.6XzX6Xv.g M Q G b B / $.D b u 9 2 & n `.xX*X@X*X#XyX%X@X/.@XrX].r.r.[ % .   = ' <XxX,X@X|.oX#X[.tXsXsXh.g./.W.G.Q.Q.T..X}.~.XXXXG.6.F y 5 p p G ) E S ! } G.S.^ W Q v.n.n.;.;.F &.+X2X2X$X X X;XdXFXFXfXfXCXdX!.6.e.>XKXJXFXdXi.V.H.A.H.~.XXXXK.x.#.~ 2.L.L.M.W @.n.:.i u p b C E E W P P ! T { 5.q.V.q. . .Y K K T y.W.!.-X-X|.~._.Q.H.x.1.1.e.).V.5.2./ J Z.:X5X`.c.l.@.@.-.-.@.W $.A.2XVX#X4.V..XOX+XH.5.V.L.x.P c g 2 6 8 n n ! Z.",
"qXo.` x ' 7.I L *.#.#.m u 3 3 A z.+XOX}.A.3.#.2.~ ~ T 1.J.XXu.e.J.XXK.6.1.4.6.A.K.6.I W M.P.$.Z 2.x.W W 2.2.2.V.e.i.p.!.3XdX,X}.A.1.3.7.6.C.G.Q.G.G.6.4.!.2XxX>Xt.' I 2.1.6._.6XoX!.G.G.~.#X,XaX>Xi.' U T 6.S.K.U.+XT.N.P.R.F.#.x.:X;X<.' G.-XxXZXFXCX$Xe.H.OXxX,X1.v 5 5 @.T.P.x.6.G.@X%X'.'.&XyXaX2X:X4X:X+XT.N.n.z.z.b.D.OXOXXXXX}.K.J.}.|.,X-XJ.3.I W c.:XbX..; @ O X . . O z -XA.A.V.c.$.Q @.:.:.@.D D A A Q ;.%.3.z.n.>.@.$.A.>XCXFXnXkXkXkXsX$X!.K.F.A.K..X;X2XzX2X~.b.&.I v m T |.ZXdX$XpX,X(.G.G.~.A.T T G.,X&X'.g.f.r.0.' Y Z e 5 y 5 y p $.L.B.$.F A a y p z.P.oX<X6X|.i.6.m.A.3.).6XaXjXfXfX#XG.A.W.!.2XCXFXsXz % % ; H e.~.XX-X|.;Xu.m V F +.+.-.B.+X+Xc.^ Q n.F.7X.X2.c S Q G b B ^ l.2.~ E b u m c.OX;X=X*XpXjXkXrXf.!.,XdX/.d.f.[ @ . . = ] ZXZXpX#X$X,XgXrX*X#XW.w.^.<X<XXXQ.~.XX+XK.K._..Xc.%.G w 5 5 p A B p v W x.L.2.W E Q x.M.n.z.@.F 3.6XzXfX,X XJ. XdXFXFXjXgXpX#Xe.1.1.G.pXFXKXcXG.A.H.L.F.D.K.+X_._.S.b.K.OXL.z.G S G D V b E ^ l.v.2.~ ! Y Y Y ' { | | ' | V.5.{ T K ' 4.e.}.}.}.OX:X1X`.A.2.6.G.1X(.V.5.~ M V.<XxX5XXXF.z.:.z.z.%.@.%.S.:X2XXX{ ~ c..XS.~ I %.$.N 9 8 c N M ( M K y.@X",
"eXo.` ` T 1.1.1.6.~.XXA.M 4 9 V 3.J.;X-XG.7.I I I L P 1.~.oXG.G.~.+XK.3.P l I S.T.#.Z $.c.c.^ Z P ! ~ #.7.2.2.1.6.4.<.i.2XcX,Xe.1.3.6.6.5.e.W.W.G.G.t.w./.pXjXsX^.[ H M P &.x.XXXXXX-X;X Xf.~.XXG.7.1.T P P I 3.N.T.K.N.N.R.P.m.6..XOXT ' G.(.aXcXFXKXfXG.p.aXKXZXG.c 9 i E l.;.W W G.dXjXiX&X'.#X~.J.D.b.b.m.N.N.M.m.x.F.T.+X.X|.XXoXoXXX}.}.|.XXJ.z.@.z.S.5XbX4.; @ O X . . > {.1X2.%.:.Q F G +.,.-.@.@.z.z.z.P.T.m.%.:.:.:.n.l.Z.-XjXjXkXkXkXjXsX#X!.K.K.K..XXXoX;XaXxX}.}.oX+X.X}.;XgXZXjXgXcXcX,X(.(.~.4.l z 4.^.&X].*XrXyX*Xg.t.q.1.^ S r 5 p $.P.P.Q D D A A %.~.XX,XsXsX&Xi.0.6.4.7 6 U K.xXVXgX#XW.G.!.@XfXFXKXjXd.6 % $ & 2 4 Z A.:XaXA.e y G F F +.p p S W E / W C C Q Q u p A Q / E ~ 1.Q.`.H.! M ~ S.K.XX;X2XZXCXFXyXi.(.zXcX&X&X>X[ @ .   = g.JXKXsX@Xg.*XfXBX Xi.e.4.q.e.Q.G.1.T ~ T { 1.2.z.Q W A y w 5 w p q B S E l.$.I I W $.z.m.2.2.$.W z.4XVXVXgX XJ.|.,XCXCXjXfXpX/.5.2.$.x.V.W.aX2X).G.(.:XXXH.F.T.R..X}.+XoX;XH.W b u u b S E ^ ^ ~ ! } ~ P J J Y Y K K [ ' | 5.5.| ' Y Y T 1.D.m.A.K.K.U.m.x.2.x.K.OX1XS.$.W m Y ~.6X:XXX.XD.6.3.z.$.@.%.v.H.G.6.~ E 2.x.~ m N b v c c S / $.$.Q 5.].CXNX",
"eXo.o.9.7.6.u.6.i.}.:X.X~ e I 1.6.e.-XaX/.7.7.e.7.P I 6.~.oX~.J.K.K.6.*.m r v N.L.&.I 2.2.l.3.3.H.Q.A.7.3.x.D.6.2.7.T 1.-XzX-XY T A.H.A.u.G.~.(.^.W.f.f.*XCXNXkXuXr.T J M V W x.A.V.!.;X#Xi.e.6.V.V.V.V.V.e.1.6.D.K.F.D.N.B.D.H.6.6.e.T { 4.| W.,XZXCXgX X|.ZXJXjX<.9 b S S b i A W }.KXJXNXrX'.p.7.1.W Z d D :.n.M.T.T..XoX.X.X.XJ.+X5X5XXX.XoXoXK.A.6.A.~.|.W.[ 6 * O o . . > ].`.l.-.A A D A F @.>.z.n.F.F.K.+X+XD.3.z.>.>.>.c.F.;XdXNXSXSXNXCX*X X XK.K.K..X+XoXoX2X:X}.3XzXVXxXgXfXzXgXyX,X2XaX|.!.!.Q.0.z H 4.t.].&XdXjXFXFXkXiXrX^.W.H.1.W W %.n.$.C S $.%.M.~.#X$XkXNXkXtX[.f.i.0.- @ % &.:XzX2X~.A.D.!.@X=XNXGXjX%X[ - & - 2 r Z 5.OXXX5.I d y y p d 5 5 d G W Q V 5 2 3 i y w a Q c._.V.5.`.5XQ.{ !  .6.H.V.5.A.:XxX2X!.w./.cXZX#X#XpX[ # .   , h.FXFXsX/.f.].*Xg.<.' Y k g H Y P P C M N b b M M b A A B w p 5 5 i ^ / b v u S 2.D.}.}.J.1.! ^ W 2.F.}.:X3XoX|.;X,XdXdXfXjXpX(.q.6.b.z.2.7.L.OX.XV.G.:X:XK.m.M.P.K.oXVXVX2XG.#.E e e b b B ( M M P E E J J Y Y J H m n K T { { T Y ' J P ~ 3.3.x.c.S.M.z.3.z.6.6.P._.Z.^ M c P _.6X(.(.|.}.}.D.3.@.;.F / E P M M M } v.M c c u u M ) ;.v.x.A.~.#XjXIXPX",
"0Xs.j.@X~.}.K.J.D.J.U.A.6.A.(.].!.!.yXZX,X!.|.XX6.1.6.D.K.XX}.J.D.J.A.A.7.m v b.m.2.2.S.x.3.b.T.aXaX/.7.1.x.D.A.x.2.P Y C.;X4.l 1.J.|././././.|.#X#X#X(.,XZXfXfXuX^.5.V.z.&.&.I I #.G.,XpXG.' U } 5.Z._.1X5XXX_.L.R.K.K.N.n.x.V.V.{ U Y Y K m T F.2X;X XoX2XZXKXyXU k / S p y p -.:.}.VXCXkXsX*XW.H.6.&.%.&.@.&.:.b.Y.+XoX}.}.oXK.6.F.T..XK.~.}.U.D.A.K.|.|.f.' x 6 * # O . . # ] 1XL.;.a A A D @.-.n.M.F..XXX:X6X;XU.b.z.n.n.>.%.K.2XjXFXGXFXjX$Xp.u.}..X.X.X.X+X+X+X4X+XT.4X2XVXBXpX$XoX|.|. X|.}.J.G.G.Q.(.t.<.<.] f.&XrXrXhXSXHXFXNXlX'./.|.~.A.v.;.S u C z.F..X X*XiXSXGXnXlXrX'.f.] ; % ; 4.;X3X}.A.x.x.G.!.'.jXFXkXrXt.k 4 9 b E ~ ~ ^ x.2.D p 5 3 5 y a -.>.F +.F i 5 3 y i y y y D L.5X-X5.6.H.^ I { Z.1XXX} 0 8 ^ I I ' ' G.<XaX!.i.|.z O . . , h.jXpX/.p.e.C.t.R z ' P 9 4 k k g n ( E P J c b i A S G B p q 5 5 C I ^ M 8 C $.K.;XgXcXaX!.6.2.W ^ 3.x.S.L..X;X3XgXdXrX*X;X}.G.5.A.+XoXK.A.m.B.B.n.F..XT.M.;.;.n.m.oXAXAXpX XoXXXH.I u u u 8 8 8 g k n k c n n n H K J J ! ! Y Y ! ! J J J M C 2.x.S.S.S.S.S.x.2.} } l.l.E M 1._.XX#X&X,X<X;XK.6.W D b M v N M u c l.I.M c S S C Q n.M.K.|.pXZXjXkXFXFX",
"0Xk.j.h.~.}.K.}.D.A.u.u.!.xXZXjX,X,XpXcXaX X XJ.6.6.D.K.K..X.XK.D.J.|.2XXX6.I ^ #.1.D.+XF.6.6.oXfXcX*Xp.e.V.V.G.S.x.~ H g L 7 7 ^ .X,X#X#X#X@X#X*X<X<X|.!.W.i.f.^.t.C.~.H.b.3.&.&.m.XXzXjXG.U m W %.x.H.XXXXXXOX+X.XR.K.m.%.2.V.G.H.V.5.{ T m k W K.K.K.}.;X2X,X~.T C @.G b b -.n.M.m.A. XyXpX;X~.).V.1.D.F.m.3.3.b.F.XX;X}.}..XS.3.m.F.S.S.F.F.m.6.S.oX<X,XW.' f ; % # O X . o ` 1X_.;.G F G %.B.n.n.M.T.oX;X6XzX3XoXK.S.F.F.n.3.K.xXAXFXCXyXf.1.1.m..X.XXXOX+XoX4X4XOX.XY.U.;XgXBX;Xp.u.J.J.J.~.~.J.H.G.!.,X,X|.y.0.f.h.d.g.tXnXHXHXHXSXlXtXpX#Xe.2.$.C b ^ M.U.;XpXkXkXSXGXFXkXiXg.r.0.4.4.6.!.aX;XJ.u.J././.h.tXkXsXiXrX/.4.~ ^ ;.Q D i 9 v W S S W S i p @.n.;.Q Q A G A i i p p y w S I.1X).{ ~ $.E C W v._.Z.m 9 c C v k Z W 2.V.G.6.u.w.f O .   = g.-Xt.4.4.4.5.e.{ ! 5.W e 2 9 m J ! ~ { ! P N b b y 5 5 y p F z..XA.1.{ { ~ A.XX,XfXcXjXjXaXXXF.#.I W z.n.m.K.oX3XxXgX#X/.A.x.6.V.F.OXOX~.F.b.b.b.N.F.m.3.@.@.>.n.M.OXVXZX,X3XVXVX2X6.c N M P C k 9 J m 9 6 9 n ! ! ! Y H m n n J E E M M c u u E ;.z.c.M.M.c.z.3.^ ^ 2.l.$.2.6.H.(.yXdX*X|.|.~.e.L k N b M / S u q M E c M ^ l.x.D.D.J.|.pXFXKXjX=Xg.g.",
"wXk.s.g.J.D.K.T.U.A.u.(.|.aXCXsX#X@X;X#X#X/.J.H.K.K.}.K.K..X.XK.A.~.,XxXXXV.5.1.3.F..X4XK.J.J.|.jXCXyX Xp.w.e.G.H.V.x.x.1.3.I 4 u .X<XyXpXyX*X@X$X#X!.t.0.' ' 4.y.4.e.G.~..XS.x.A.~.2XZXjXe.m r b G @.n.F.A.A.L.XXU.Y.F.b.#.$.S.~.XX`.C.t.{ W C D S.L.F.~.;X3Xi.q.' ~ ;.Q S Q >.n.B.n.m.K.-X|.~.~.~.G.V..XK.H.H.A.H.~.oX:XoXK.F.S.3.z.n.n.N.b.b.b.$.m.+X2XaX-X0.f % $ # O o . . , ^.S.z.;.A V n.E.B.B.N.}.oXXX<X2X;X}.K.L.K.U.Y.F.~.,XZXfX#X7.l l I N..X~.J..X+X4X6X6X2X.XD.Y.:XxXgXoXu.7.D.m.A.D.S.A.A.J./.*XsX>Xf.d.h.h.f.g.h.lXSXHXHXDXnXlXkX@X4.1.2.W W $.3.K.gXCXFXnXSXSXSXSXsXh.9.p.>X:XXX#X2XXXJ./.sXjXkXkXhXkXsX*Xh.^.W.!.(.).Q.~ e v A W @.W P.L.n.D W ;.$.Q ^ $.%.@.D S i 5 5 w B l.Z.4.{ } ^ ^ W S W W v e I 2.x.2.E E / C P I #.x.e.f O .   # ` { { T 1.1.6.6.x.v.5.! E u b ^ S.c.7.~ { ~ E C b 5 2 < 5 F R.zXZXxX/.u.A.XXxXcXjXjXjXsXpXpX<X}.~ v N V W %.F.oX4X2X3XoXU.b.8.A.K.L..X.XL.L.F.z.F.T.T.M.3.$.%.n.n.m.F.oX<X XoXgXFXzX7.m P M.P.x.~ Y 5.6.P k m x.P.x.{ ! K n j c c c c u 9 2 9 p i G +.:.n.M.n.M.M.v.x.x.S.S.A.~.|.&XjXNX*Xi.w.).-Xt.l 0 k c S S B u e u S ^ x.S.XX<X|.@X>XdXjXuX[.d.r.f.",
"wX0Xs.r.i.K.K.K.F.D.D.K.}.!.(.(.f.i./.!.!./.W.J.H.J.}.}.}.J.U.Y.D.D.oX2X/.e.u.A.K.J.oX;X3X;X}. XzXZX*X@X/.i.i.G.H.K.H.J.~.+X3.9 9 H.gXCXCXpX#X|.#Xi.[ z z 4.W.*X^.y.] f.(.1X~.A.A.|.gXZX$Xw.l e p p d @.n.z.z.m.F.F.F.U.J.J.J.}./.XX;XOX4.2.3.z.:.F.J.J.}.aXvX;Xt.T E Q E S ;.>.n.E.R.T.N.m.6.7.e.G.e.G.e.H.}..X;X}.}.+X+XT.F.m.b.:.:.z.z.z.%.&.@.+.%.K.;X;XXXq.7 % @ @ O o .   = 9.D.J.z.A V @.B.Y.U.}.}.K.}..XXX}.J.J.K.T..XoX:XoXXX;X~.1.Z t 5 D F.D.b.3.b.F.T.6X6X6X.X8.U.4XxXgX;Xu.6.b.6.V.m.D.N.D.~.^.%XhXiXg.g.%XrXrX'.g.h.tXnXFXnXlXiXsX].7.P C @.%.&.#.p.pXFXGXSXhXtXiXkXlX&XW.~.3X3X;X X;XoXi.,XFXHXJXHXDXhXh.g.d.9.f. XsXFXjX^.Y ! $.2.2.x._.+XP.$.W ;.x.A.G.G.x.v.^ / B q 5 5 p A S / ^ ^ / Q E Q b 9 e P V.~.:X~.G.V.~ ~ 3.6.1.e.H.l @ . . + h V.c.x.2.} } 5.2.$.Q Q ^ ~ 2.S.H.Z.2.1.~ 2.v.c.! 8 2 2 v z.T.6XZXCXsX&X/.!.pXFXCXsXrXyX*X@X|.J.R r e i b &.F.+X4X;X;X;X.XF.F.}.oX+XK.T.F.Y.Y.T..X3X2X2X;XoX.XR.E.z.z.A.A.A.;XzXaXXX1.m C v.L.G.G.(.<X;Xu.' T A.H.5.| Y J n q N c 8 8 e e 9 e E W F F @.z.z.x.A.F.H.Z.V.+X.XXXXX;XgXcXcX,Xp.4./.cXzX9.l g c k M ( ( M C W $.2.C.(.-X|.&X,X,X!.0.] t.).>X",
"mXqXh.g.i.D.D.m.8.3.3.1.1.<.<.<.w.4.G.~.~.#X(.A.A.}.XX~.}.}..XK.D.D.}.2X Xi.J.OX6X2XaXgXxX;XJ.!.pXfX*X$X XG.e.e.A.K.A.J.;X:XD.Z r A.xXZXcX$X|.#X,X^.[ f f 4.>XuXtXg...9./.aX<X/.!.#XdXfX$Xu.T E G p i G @.:.z.z.z.m.F.XX|.,X,X X/.|.~.e.P ^ M.P.N.x.G.}.;XpXcXzX^.<.P P m P W :.n.B.E.R.B.%.1.7.~.(.G.5.1.A.~.oX:X}.8.3.z.m.z.%.%.:.:.%.%.%.%.D W @.3.J.|.J.V.Y g - : * O o .   = d.2X<XS.W r t :.+X6X6X;X!.}..X_.|.|.|.}.+X+X+X+XOX.Xm.I P V r 5 A F.N.&.&.%.$.%.m.T.R.D.D.Y.:XxX;X!.A.8.8.8.x.x.V.D.!.$XjXFXSXtXs.'.tXiXlXsXiXh.%XiXlXtX%X[.'.'.7.Z C $.z.&.#.u.pXFXGXSXnXtXtXlXrX@X!..X;X;X;X2X3X}.p.<XKXHXHXHXnXtX%XtX%Xd.f.&XCXJXJXrX..] A.V.6.6.v.v.l.Q D %.L.6X:X|.G.5.{ ;.Q B 5 w y y a a b B A G B S i v Y W.>X-X>X,X,X~.A.F.XX+XF.K.W.z @ X . + h S.7X`.5.{ } ! v r V W 2.5.S.T.V.2.x.c.^ E 2.S.Z.V.q.1.m.S.x.G.(.>XpX&X!.r.'.jXNXpXrX,X,X|. Xu.3.&.b.:.@.%.F.R.L.T.+X+X+X.XoX:X6X:X.XK.K.OXOXOX6XxXxXfXZXZX2XOXm.3.m.b.3.x.OXxX|.u.#.l r P 6.G.;XZXAXxX;XK.e.e.V.V.4.{ P c u S b c k T V.C.V.A.3.$.%.x.V.H.).~.K.H.V.v.L..XXX}.!.#XyX<X#Xf./.>XCXvX%XW.{ Y P P E / D W ;.x.2.6.G.!.^.-XaX;XW.w.4.e.~.|.",
"wXwXlX*X XD.u.8.#.I I I I Z H <.6.4.0.t.W.|.oXY.m.K..X}.}.~.~.K.D.A.J.;X;X;X|.;XaX2X$XpXzX;XJ.J.,X2X$XoX|.~.J.H.e.1.7.!.zXxXJ.I m 1.XXuX>Xp.w.^.<X1X| g g | ].uXMXMXh...d.yXjXsX=X*XuXpX#Xu.3.l.;.-.;.-.-.@.@.>.n.z.m.}.3XZXfXyX/./.G.~ C D %.n.z.6.~.$X2X,X*X>X@Xi.4.<.] q.e.b.b.n.N.N.B.b.m.~.XX-XQ.4.I 2.A.|.;X~.1.I C @.%.%.b.N.R.U.K.D.m.x.x.z.x.H.~.6.I k 9 6 6 ; @ X   . > &XcXaX}.x.v 5 V T.VXAXgX$X;X;X:XxXcXdX#X~.F.x.&.%.z.&.v b s d d &.T.+XU.b.x.v.:.D D &.z.F.}.oXaX3X XJ.J.u.A.A.x.A.K./.jXIXIXDXh.s.h.h.tXhXSXSXhXlXlXtXh.g.d.d.A.3.D V z.N.z.1.8.oXCXGXFXnXkXkXiX=X/.G.A.J.}.;XxX6X}.w.|.ZXCXdX&X@X%XsXKXFXrXd.tXGXPXHXlX..9.|.XXV.1.~ ^ Q F A D x.`.<XcXzX^.0.#.3.F y w w 5 p p w 5 5 y p a p u G.AXFXnXkXrXi.A.~.-X:XOX+X}.i.x % O X # h 5.1X-XG.6.x.I 5 4 p %.c.V.A.F.x.2.l.;.W N ~ H.1XzXcX2X:XK.z.1.4.W.2XyX@X/.@XsXNXpX&X,X;X#XoXoXoX+X+XT.F.K.K.A.m.M.M.F..XXXoX:X5X:XXXXXXX:XXX~.oX2XaXfXZXZX3XJ.#.3.F.:X+XS.L.OXXXXXK.#.m &.m.XXxXZXVX2X3XoX}.H.A.6.4.~ M u p A b c Y (.xXzX6XoX}.K.T.1X<XbXbX-XQ.G.q.} } S.J.J.A.H.(.(.-X&XjXvXFXFXFXvXaX(.i.6.x.l.$.$.P.S.6.6.H.G.(.XXXXG.G.u.e.6.A.}.",
"wXwXlX@X/.D.D.D.6.&.%.@.W Z Z 7.}.#Xf.w.t.J.F.D.A.J.oX}.}.}.K.~.D.A.K.;X;X|.i.!.;X$X X$XxX;X}.|.<X;X;X X X;X2X2X~.1.1.!.xXaX!.L n m ' y.t.T ' t.(.).| z z z ` d.lXFXkXs.h.tXkXnXkXkXkXsX Xw.6.S.n.:.:.z.:.F A G Q :.m.K.xXZXCXfX$X~.6.I V V S D ^ 3..XzXZXpX&XdXjXjXyXiXkXkXpX!.3.b.n.M.B.F..XXX|.(.W.6.I L 1./.dX;X6.I D -.>.b.Y.+X:X6X2X;XK.A.6.x.x.S.F.7.C n 8 9 f : O .   O [ dXvX3X;X.X6.Z v b.:XVXZXVXzXaXxXAXKXgX|.H.S.;.C v C C b b G >.M.+X6X6X6XoXU.K.N.:.V d &.M..XXX:X2XoXoX:X;XOX.XF.S.F./.fXPXPXnXh.g.h.%XtXhXFXHXGXnXkXiX%Xh.f.t.m.%.D D n.n.b.m.J. XsXFXSXSXkXhXkXiX@Xe.~ 1.m..X:X:XJ.6.6.6.1.R <.e./.,XZXCX&Xd.kXPXIXHXtX..] G.XX5.P M S b i i v V P q.pXKXCX'.7.x.^ p 5 3 3 5 w 5 w u p i p y S XXCXFXSXFXsXr.<.u.~.XXG.1.z x ; % @ O * ` q.H.`.J.S.A.~ D D $.M.S.S.m.%.%.^ ^ @.C e 4.,XzXZXFXfX;XA.2.3.6.i.$XyXrXsXkXNXFXfX'.!.;XgXgXgX2X3X3X3X3XxX2X_.K.D.b.n.T..XK.F.R.}.oX2X2X3XXXK.F.}.:XgXgX2X~.I Z m.7XzX<X~..XXX<XzXzX.XD.U..XoX3X;X|. XoX}.oX.XK.6.2.E u u p i b M ~ :XxXxXaX;XoX}.~.XX).).).W.).W.| P M ^ 2.c.c.S.Z.!.aXFXFXSXFXjXjXjXcXuX].XXXXH.1.^ S.K.~.|.W.W.W.H.7.[ <.e.A.6.6.G.",
"wXqXj.9.y.A.A.D.m.m.m.3.%.#.I 1.|.cXyXi.u.A.m.D.A.}.:XoX}.}.K.U.F.F.~.~.J.6.7.G.}.$X X$XgX2X$X$X;XXX;X|. X3XzXzX<XJ.J.;XdXzX(.H k P ~ 5.| T ~ 5.e.' K g 6 ; ; x s.uXuXd.[.hXkXSXSXGXGXkXh.7.D.+XR.F.b.b.N.,.V 5 t @.F.~.yXvXjXsX,X~.2.C I &.$.C N ~ |.CXFXFXCXFXFXFXkXNXJXPXFX/.#.b.N.S.M.D.XX~.G.i.t.V.I L G.zXFXZX X3.:.n.n.N.Y..X;X2XgX2X}.u.1.2.x.6.x.7.~ ! C m 6 @ X   . > D.aXuX X;X2X;X8.I 3.K.:X2XVXZXZXVXZXaX~.A.M.P.:.E S S Q F F -.>.S.+X5X:XoX}.D.m.n.B.b.&.b.S.S.F.L.D.D..XXXoX+XM.&.D D e.2XCXNXhXtX%XsXjXjXkXHXIXPXDXkXiXtX'.W.V.6.$.E W l.z.n.F.(.>XvXFXDXGXSXNXkXiX*Xe.~ &.z.M.L.S.2.3.&.C V Z I 3.6.1.q.w.<.w.kXIXIXPXtX9.] 5.5.~ m u u v M C C v 8 k 0.cXJXvX>XG.} V 5 3 5 5 5 w s -.-.G d d &.-XjXNXFXFXiXr.<.6.3.' l ; $ @ @ $ @ + *  .V.Z.H.A.A.m.3.m.+X7XL.m.z.:.E P ~ ^ l.P l e.xXfXfXsX$X/.6.6.S.J.(.<XdXjXCXFXFXFXrXr.p.$XgXfXjXpX|.}. X2XZXxXXX.X+X}.F.Y.U.D.M.z.8.3XZXzX,XXXK.3.A.OX2X;X}.m.E W z.L.K.A.A.!.2XZXZXZX,X|.4X2XoX;X}.u.J.}.}.K.U.F.x.^ S B G Q G S W 2.H._.XX;X2X3XG.' H ' | | q.C.Z.5.J v Q l.c.S.D.A.G.xXKXKXNXiXyX#X/.>XfX#X~.).Q.1.~ 2.A.-X,X^.d.t.{ 4.<.r.!.A.2.2.u.",
"wX0Xo.` <.6.m.F.D.F.N.m.A.6.1.I i.zXCX#Xp.6.A.H.~.OX2X4X}.U.K.K.F.U.U.J.6.*.&.3.J.~.Q./.dXZXgX,X;XoX3X;X|.;X3X;X X X3XVXZXZX;X<.{ 6.2.6.5.7.x.V.5.n g 7 6 & * ; ` d.y.] ^.jXSXDXPXPXPXSXh.<.6.m.n.E.N.b.F.z.@.b t A F._.].yXdXyX(.Z.} } H.}.XX6.P H !.FXFXlXiXiXjXjXtXrXSXJXjXg.7.N.F.F.3.m.oXOX~.W.W.H.1.1.3XKXKXCX$XA.n.B.B.N.U.XX;X<X2X;X~.A.7.#.1.5.6.7.~ { ~ U > O .   o ..4X2X%X'.,XpX$XJ.7.6.K.K.}.3XxXVX3X}.7.&.%.n.n.:.:.z.n.>.+.F +.@.z.n.P.T.F.m.z.D W b.F.+X+XK.8.b.m.&.Z I ! L e 5 5 2 5 M 3.#XZXCXSXSXSXSXkXDXIXIXPXDXhXtXtX'.W.u.3.x.M.z.3.z.b.x.u.,XZXFXFXHXHXFXFXjX*Xe.E C C D W W D D D @.:.b.m.m.7.P m k L 7.jXPXIXSXqXd.t.e.I C b b P { V.V.3.z.$.k k w.aXZXdXQ.2.W G V A y 5 p -.>.>.>.+.G 6.-XjXSXFXFXiXg.e.6.L 7 & $ @ $ $ $ + O *  .c.6.e.V.H.F.D.D.+X.XG.z.%.W I m ~ x.x.~ R u.2X,X#X#X/.G.e.u.H.W.(.,XvXFXCXjXjXrXf.[ <.;XgXfXjX2X}.D.u.;XaX-X!..X:X3XoX}.K.m.v.@.#.-XxX<Xt.6.x.7.e.~.;X|.G.1.W M m I W T t.#X>XyXCXsX@X X3X2XgX2XoXY.K.K.A.6.3.x.v.Q F Q ;.c.l.$.%.^ ~ 1.A.}.6X6X(.[ ' | {  . .} { E c u S I.+X.XU.K.J.~.;X|.W.w.V.H.A./.#X(.A.G.G.x.v.7.1.C.>XyX^.f.!.#XpXdX#X7.#.2.D.",
"mXqXj.r.] 1.6.D.F.m.m.A.~.K.6.I T W.fXdX Xi.W.G.A.K.U.U.D.D.m.8.F.U.oX}.u.I L #.A.G.V.V.-XzXZXfXpXdXgX2X|.}.~.!.i.u.!.gXZXzX,X}.K.S.$.$.^ 2.2.2./ m 7 2 & & 6 z X.[ z x r.vXHXPXPXHXGXkXh.] I C F @.n.K.K.K.T.x.v v %.N.K.XX`.W.e.v.} Z.:XxXxX1Xe.L 5.-X)...[ r.&XrX%X=XhXSXsXg.w.D..X}.A.D.oX6XxX<XXX}.G.u.$XcXFXjX Xe.6.m.b.F.OX6XxXxX2X|.G.C.5.~ ~ G.Q.5.{ ' H h : O .   # d.xX;X/.yXcXZX@XJ.}.K.K.S.J.U..XT.N.&.V A _ -.>.z.n.M.P.n.@.F D &.%.b.N.N.D.D.b.C I S.+X6XOXD.m.D.S.3.k 4 8 9 3 5 5 3 2 3 t ~ :XKXKXHXFXNXlXGXIXIXHXSXhXlXtX*XW.6.m.L.OX.Xm.@.D E I 6. XpXjXFXFXFXFXsX/.{ J v i D Q W @.%.:.:.M.F.F.F.S.S.x.~ Y { /.yXuX%X'.'.].^.6.Z V @.P.:XbX-XK..XS.I v v 2._.}.A.3.:.n.M.M.@.F -.,.-.:.>.:.z.G.,XCXFXFXNXlX[.t.6.I 9 & - 6 ; ; $ O X $ ' H.Z.C.K..X.XF.b.m.b.3.z.x.H.G.4.{ x.5.! L A.2X;X(.|.XX!.i.W.~.!.f.^.].>X&X/.f.y.' T 4.~.;XfXZXdX XY.p./.@X/.!.J.|.3X2X;X~.x.$.C P 4.x.} P ~ 2.5.x.H.`.(.e.T Y z U 0.(.bX&X^.'.@XpXsX*X$X;XgXZXVXoXU..X+XF.&.I $.;.-.-.;.^ l.n.M.;.C M M ~ x.+X:XXX5.{ 5.2.} { J m n k e C x.7XOXD.D.L.2.Z c c g c v $.~.,X(.e.e.W.S.5.5.{ ' (.aX>X#X#XuXKXJX$XT I :.F.",
"wXqXtX'.<.*.8.m.b.3.3.A..X.XA.#.H T @XdXuX[.].G.3.b.b.m.D.D.D.8.D.oX:X;X!.6.1.5.e.V.2.W 6.|.ZXCXCXFXZX,X/.!.!.}.+Xx.e.~.(.W.t.w.5.~ W Q ^ l.l./ / n 7 7 9 m K C.H.[ f h [ %XFXPXPXGXSXkXh.[ k 9 5 p 3.:X6X3X;X.X3.v d D @.%.D u m E ^ x.-X<X;X`.5.J k g 6 6 6 Y -XuXlXNXGXSXsXg.9.J.:XxX2X3X3XzX2X;X;X;X|.W./.>XfXyXf.e.6.m.6.A.K.XX-X(.K.A.e.6.5.{ { `.-XG.G.q.f * @ O o   # h.FXaX XuXVXVX/.u.|.oX.XK.8.3.%.>.-.G s _ _ -.,.B.B.M.P.Y.N.n.%.b.F.P.R..X.X}.U.D.D.OXzX:XJ.A.H._.bX6XA.e 9 8 q B B q 3 3 y V 3./.jXFXNXiXiXkXSXFXSXNXiXtXyX>XG.2.z..X6X+Xm.3.W J P T y.f./.@X@X*XpX=Xt.Y M N v ;.M.x.m.m.z.z.b.m.m.D..X.X~.~.G.t.e.7.w.i.@X@X%X*Xi.Z V :.OXcXZX#XK.}.XXD.Q A @.z.z.z.z.M.P.+XY.N.n.n.>.n.n.:.b.m.A.$XFXHXFXjXiX@Xi.e.6.P 9 9 k f f $ X X @ X._._._.T.T.L.S.z.z.c.N.3.e.xXZX;X4.1.^ #.T G.:X<XQ.~.G.i.f.#X;X^.t.w.4.0.W.e.' { 1.$.2.6.G.,XCXdX$X XpXNXCXsX Xp.}.3X3X1XQ.6.W m M M v u u S S E } S.H.Z.' T 4.t.].rXSXFXjXrXd.W.|.VXVX3X$XzXAXZX X7.N.4XT.$.I %.@.-.-.$.^ E $.B.^ M u u N E x.S.c.1.W ^ W E ! } { I T $.$.1.~.J.V.x.~ C u r 8 4 2 2 u H.zX,XG.W.<X`.5.5.1.! { G.-X(.].dXJXJX/.l v %.D.",
"qX0XtXf.w.A.U.F.b.%.b.D.A.m.z.2.^ L 7.yXsXyX<XW.7.#.@.%.b.F.T..X.XoX2XgX2X|.G.e.q.5.~ m k L x._.uX<X>X#X#X(.!.;X6XoX7.I Z ' ] ' { $.W Q $.c.l.S S M P { e.C.).W.0.[ ` ..[ ..%XkXGXGXFXsXr.K m e 5 E OXVXZXZXgXaXK.C r r i p 5 9 C ^ ~ 2.5.5.| { P g g 9 3 2 & g (.cXFXHXPXPXFX=X4.!.xXZXZXaX|.J.8.7.7.A.H.).!.(.-X^.W.W.J.e.6.3.{ Y L m L ~ 5.C.Z.2.5.`.1XW.XXC.; O O O o . o j.KXFXaX#X#X).4.4.K.+XT.m.:.@.+.,.-.F =.s G s -.R.R.N.M.R.R.4X4XR.T.R.T.+XoX:X:X;X2X6X6X}.J.D.A.K.zXAX4XZ 5 q E O.) a 3 5 A Q C W G. X$X,XpX*XrXtXlXtXiXsXyX@Xe.~ @.S.K.A.A.G.f./.rXyX*X/.i.t.0.w.!.|.H.{ E C S z.B.P.P.F.b.3.z.m.%.b.D.H.H.~.XX-XG.6.6.G.|.cXjXsXf.T E ;..XgXgX*X}.XX.XS.:.@.-.>.n.:.:.%.N.R.R.T.F.D..XT.D.D.m.D.i.#XZXKXGXSXsX@Xu.i.G.6.J v k g 7 $ X X @ ` -XQ.V.2.%.x._.S.l.@.F d 3.AXAX2X8.1.z.m.A.G. XoXH.A.e.e.t.-XaX).G.e.{ 4.w.7.T 1.3.3.6.1.1.!.dXdX>X$XCXJXJXCX$Xp.!.}.J.e.6.#.W E / Q S B S A p i M E } ! K ] /.jXMXtXtXMXlX[.y.' ~.2X:XoXoX2XzXxXJ.H Z M.M.$.$.;.Q ;.%.@.E S E / ^ / ~ E E S Q ;.W S b v v m V.XX;X;X,X2X~.4.e.`.~.2.C N S / ;.B b u y ^ 1X5XH.A.`.V.7.{ ~ E n m Y 4.0.t.aXzXe.l P %.m.",
"0Xk.g.i.J.}.OXR.F.b.b.m.3.%.%.z.z.~ 1.#XgX,X(.W.7.W W :.n.Y.+X+XU.oX2XzXgX3X}.u.e.x.1.m 0 2 2 9 l T W.<X<X(.G.|.xXxXw.L I G.(.G.4.W V V $.c.z.S u C z..XH.t.t.q.[ &XJXvXg...9.s.h.dXZX>Xy.{ 2.P v x.xXAXKXZXzXaXF.m u S b p 9 c } c.E m J V.S.2.Y 5.x.E u 4 - 2 [ uXFXHXPXPXGXrXp.}.;X3X2XoXA.#.T L l 1.W.W.t.W.W.G.W.W.Q.V.7.~ Y L I I L P 4.H.q.Y ~ G.(.(.(.t.; O O # o . . , dXcXaX XJ.T Z I b.F.m.z.%.-.-.,.-.+.+.+.G s @.R.7XN.N.E.R.4X6X4XR.Y.R.+XoX:X6XxXzXxXaX;XoX|.}.G..XXXD.e 3 N / ) F p 5 d -.n.x.3.3.1.7.A..X;X>XrXsXsXjXfX-XG.#.C ^ c.H.H._.|.fXFXHXGXkXg.<.1.1.7.G.XX.X2.$.Q W D z.B.L.F.3.3.m.b.%.z.m.x.m.J.:X:X~.A.6.u.,XAXJXCX@X!.A.6.~.2XfXfXoX}.K.m.z.:.z.N.n.z.:.:.:.B.F.Y.K.+X6XOXK.K.OX:X2X X XCXKXFXpX#X!./.G.5.} V.e.U ; @ X X @ X.1XZ.{ ! ~ 5._.5.C t 5 5 V .X6XoXm.3.L.+X:X|.#X,X XG.V.G.W.W.(.(.W.C.e.q.C.e.1.6.V.A.6.2.6.u./.].#X$XjXFXFXfX@X/.G.e.A.A.7.I P ~ / Q F B B V b i u N K K K i.vXGXlXj.d.'.^.t.| T 7.w.f.;XoX|.}.K.2.v r v D @.$.$.n.N.m.$.E ( E ~ l.v.x.x.l.$.W / S v V V S ~ _.zXAXZXxX2X(.e.e.`.+XD.W b D ;.c.v.;.A y i l.L.S.5.2.~ I P J n 8 9 9 k m Y 7.e.' L ~ z.x.",
"0Xk.9.p.oX3X3XoXF.b.m.m.3.&.&.z.m.2.1.G.-X~.e.1.^ W @.:.b.N.F.m.8.}.xXAXVX3X X!.,XXXJ.5.n 4 2 2 3 v ).xX,X!.G._.;X3Xi.R u.ZXFX@XT k u F z.;.Q p b C x.H.4.| | | r.dXJXFXiXd.r.[ z 0.i.e.q.e.6.~ 5.XXzXZXZXCXaX#X7.k c M u r e J ^ ;.b n { 1XxX).Q.XXH./ b e 4 2 8 <.%XsXSXnXtXg.p.J.J.G. X;XK.2.~ I l C.1X(.0.A.G.G.G.C.V.5.~ T 4.6.A.x.#.P { Z.V.H L V.Q.`.-Xy.: O O + o . . # ` ,X,X}.D.%.I I %.m.b.%.-.-.G -.-.>.n.n.b.%.N.7X7XY.N.F.R.4X6XOXR.Y.R.R.4X4X;X3XgX2X3X2X3X3X:XH.~ m m 7 2 5 w 5 3 5 y G >.n.L.F.F.m.1.1.#.H.#XjXCXFXNXdX#Xu.1./ @.:.M.N.F.J.dXFXHXHXkXg.] 4.5.2.A.A.m.6.z.^ W D W ;.c.m.m.F.L.D.$.#.x.m.D.K.:X<X~.m.#.4.|.zXKXfXpXxX:XA.A.oXVXKXVX|.A.2.%.b.N.R.Y.N.b.:.:.:.b.N.A..X+XK.D.D.H.XX6XXX7.!.pXcX$Xi.G.J.u.5.x.XX<X..- + X X * C.1X5.K k I _.H.H e t y p V ;.F.b.:.z.x..X3X-X<XaX2X(.G.|.,X^.W.W.W.(.(.W.W.V.e.K.XX(.x.2.c.H.J.G.W. X$XrXiXrX*X#XG.1.~ S.G.2.W ^ $.$.D b b W ;.Q b E V.).W.rXGXGXkXh.d.t.| ! H ' Q.|.pXVX;X~.u.7.@.D V i A F -.n.7XR.n.%.S M M E 2.x.Z.S.S.v.^ $.v.$.E P ^ 2.`.xXxX,X-X1X|.u.7.G.~.J.c.E D :.v.v.;.s 5 5 p ;.l.W E W E C C S C c 8 k E 2.#.~ 1.6.x.b.m.",
"wX0Xs. XxXzX2X}.8.m.F.F.b.%.%.%.z.3.3.6.V.m.2.Z v S @.:.n.n.b.:.%.Y.zXZX3X XoX6XxXzXxXK.M 2 2 4 5 E OX<Xi.e.H.~.;X2X*Xr.u.zXcXW.L e V n.z.Q s d b ~ H.C.{ { { Y ' ^.dXjXiX^.(.y.l k l Y x.c.c.m.H.:XxX$X/.!.A.e.1.Z u C m e 9 e v u 9 m C.<X2X(.-XQ.{ N u c u 9 8 m Y l z z U *.4.x.z.x.A.OXF.l.^ M J ).zX>XG.1.u.i.G.V.V.6.1.1.6.H.V.6.^ P { q.5.Y m { V.^.uX[.> @ @ # o . . X % t.(.~.U.U.m.S.F.T.n.>.-.s y y -.M.+X4X4X+X+X4X2X.XR.R.R.R.7X+XR.E.R.R.+XoXoX;XoXoXXX:X4X4XOXm.m 0 0 2 2 2 3 5 9 u i G -.>.n.B..XXX1X-X!.w./.dXFXKXCX*X#X}.J.x.D W :.@.W T r.%XkXFXsXh.y.t.G.G.x.3.%.z.S.c.z.C u A Q %.M..X+XK.3.$.x.S.G.J.!.|._.x.E #.S.XXaX;X#X<X:XD.3.~.ZXKXAX3Xu.3.z.N.N.F.R.N.n.B.N.m.D.F.D.D.D.b.3.#.I m.OXK.I T 7.e.7.1.6.A.8.6.x.~.-Xq.- + X X * C.1X{ m 9 P +XZ.Y H ^ x.$.Q ;.z.b.:.2.A.K.}.}.J.G.u.e.i.1XxX,XXX|.#XdXzX,Xi.6.A..X:X;XG.6.6.K..XH.e.J. X*XyXpXpX,X/.6.T e.H.S.3.W ^ v./ b E M.+Xc.m W (.bXvXFXGXnXtX^.| [ K { ~ H.xXZXZXfX$X/.G.A.D.b.$.Q F F G @.n.n.n.:.@.A p V ^ l.x.S.S.x.5.A.OX+XS.2.^ } v.6.1.1.i.aXxX Xe.G.G.~.H.2.W l.v.c.;.i y y p F / Q W $.$.^ ^ ^ ^ W E ^ M.L.A.7.V.L.S.6.3.",
"wX0Xg. XaXaX;XJ.m.Y.R.Y.N.N.b.3.8.b.z.z.2.%.@.C C W @.:.b.z.%.%.&.m.:XxX|.u.A.+X;X2X:XH.I 9 e C C 2.+XXX6.1.A.G.@XjXvX*Xf.i.G.#.v V @.z.^ C p y u } `.V.! ~ P n l 7 g [ w.C.G.5.H 9 9 n ) l.l.x.L.L.A.1.T Z C W ^ C e 1.~.G.I Z 9 0 9 J G.(.W.V.V.{ ! M c M ( S b b 8 4 4 e ~ x.m.$.G S C &.W S P I { (.cXdX#X5.6.~.`.J.A.5.e.u.}.XX5.I P P ' C.C.[ g K | ^.cXtX> @ * # o o . . $ ] XXH.+X4XOXOXOXT.b.:.-.G y d ,.E.6XVXAXVX4X:X4X4X7X7XR.4X7X4XR.E.R.R..XoX4X4X+X.XK.K.U.U.D.%.b q q 9 9 9 P H.OXOXS.$.$.>.-.>.F.-XcXFXcXf.t.-XpXfXgX$X|.;X3XA.@.@.@.D C T t.[.kXSXsX[.d.r.W.|.A.~ E z.+XOXT.@.p y i G %.c.c.6.n.b.S.~.!.!.u.6.z.@.V W z.x.G.J.~.K.A.3.W m.xXAXKXgXJ.b.N.E.B.N.B.B.F.R.U.K.F.N.b.2.A..X_.{ P P W I Z I %.&.W I 1.6.8.6.1.6.H.T - + X X % | H.! 9 9 C x.H.(.>X,XaX;X.XS.b.N.T.+XoX|.J.6.L e k I V.1XbX-X!.!.;XZXAX$X<.7.A.A.}.}.i.u.6.A.XX~.p.f.$XpXsXjXfXsXpX$Xi.7.G.H.S.%.@.;.;.G Q L.7XL.~ 3.-XdXvXjXsXh.9.] J H M ^ x.K.;XZXzX,X XJ.J.}..XK.M.;.s y y p s -.@.-.@.S i G $.v.2.x.V.e.A..X6X6X_.l.~ E J m v C e.bXZX<X!.~.~.~.Z.V.S.M.c.;.G p p s s _ / ^ ;.$.2.x.c.v.z.c.x.x.L..Xc.2.x.P.m.&.~ ",
"qXqX%Xg.f.G.J.F.F.T..XT.T.T.F.b.b.:.%.:.:.@.D W 2.z.x.M.x.z.z.:.&.%.m.K.D.3.3.z.m.c.5.1.2.5.H._.e.e.H.H.3.3.6.7.i.xXFXcX|.r.<.I v C $./ E C p p M E ^ ~ J m 8 u b q 9 9 e ~ 5.{ T ! ~ ! E M b S $.$.Z e v V A G ^ V Z }.ZXZX;XV.Y [ [ { e.C.' P } v.Z.~ ~ { ~ E M N 9 5 5 v Z.5X5X6.V 5 5 r u b T 6.e.1XaXaX!.0.5.H.~.Q.V.6.A.(.<X;X| H m H ' Q.`.X.g l { (.].s.h * * # o X . X ; [ G.S.K..X4X7X4XF.:.-.F -.-.@.n.T.4XVXzX2X3X;X4X4X4X4X4X7X7X7X+XR.+X4X4X4XoX.XT.K.F.K.R.F.b.3.S S ^ c.c.P 5.6XAXAX6Xm.$.@.@.@.n.T.<X<X;Xu.~ M.`.oXoX}.}.:X4XF.x.z.$.2.2.V.#XuXlXMXtX'.g.f.(.>XG.k e %.T.+X.Xz.d y 5 p G $.%.$.z.F._.1XpXyX~.1.C V C W z.3.6.m.6.1.$.@.@.3..XxXVX2XU.F.T.Y.E.n.>.>.E.4X4XoXD.%.$.W S.5X+X5.W &.@.W @.@.%.&.:.S.H.A.6.7.{ ! 6.Y - + X X $  .O.J q u M ~ !.gXJXGXvXfX;XA.#.m.6XVXZXVXJ.P 9 4 4 v 5.).-XW.4.' G.2XaX!.4.u.e.6.H.J.}.~.e.i.#X<X,XiXCXFXCXCXNXNXCXCX,XG.A.H.H.M.$.@.;.-.>.b.m.^ v &.G.].>X].w.U l m n e p G c.K.~.!.!.A.A.S.F.+X.XK.M.@.p 5 5 y G >.;.@.Q D D @.z.c.x.S.K.~.~.~._.J.x.2.~ / E E E W !.bXcX<X(.|.OX+XF.M.S.P.R.n.G p i G F F Q 2.S.c.2.5.S.S.S.P.P.S.L.L.3.E D $.@.D ~ ",
"0XqXh.9.[ <.7.3.m.F.T.T..XOX.XD.z.:.@.+.@.@.&.$.x.F.+X.XD.x.z.:.@.@.%.z.n.z.@.D Q $.x.A.A.XXxXxX-XG.e.6.3.6.6.6.i.#XsX>X~.(.G.5.~ E ^ ^ W C C Q ^ C u c c c e b F G p 9 9 M 5.V.Z.V.c.2.S u 9 u F D u u W z.%.W $.C Z }.ZXZXxX].d.yXjXdXi.L e e E c.H.V.A.A.~ m P M q u u Q +XxX6XA.P r y p V 2.~.G.e.G.XXG.w.4.{ { | e.V.S.H.(.aX-X| l g 8 n | C.| g 7  .t.` h h * * # o X . = ` | Y m e W F.OXT.b.%.+.+.n.P.L.OX2X4X2XaXgX6X;XT.4X4X6X6X6X7X7X7X4X7X9XVX4X+XY.b.z.b.P.T.F.z.z.$.1.A.OXL.~ 6.6XZXZX2XF.m.%.%.@.@.:.M.x.z.%.C @.v.S.D.A.K.oX+XT.K.J.G.(.-X&XuXuXtX%Xg.g././.@X>Xt.m v @.b.F.F.6.A r 5 r V @.$.@.$.c._.>XFXCX,X7.L P 2.A..XXX|.}.K.6.3.$.%.#.3.D.K.U.K.T.+XOX+XF.@.&.Y.7X6X6XD.%.@.D b.T..XF.&.%.:.;.%.:.%.&.z.+X7X_.e.1.~ ~ x.4.2 @ X O $ n } M v M M E 5.<XKXFXZX2XJ.6.2.3.XXaXAXcXy.g 8 8 9 q M 2.G.A.7.P 1.K.~.H.G.~.W.(.W.(.;X;X#X*XpXfXfXsXjXfXdXyXyXyXjXzX-XH.V.G.H.S.z.:.;.:.:.:.$.E u C #.4.5.Y l l m E E b p D m.XX;X!.u.8.3.b.n.P.m.z.b.%.%.@.V V @.B.B.b.b.:.@.@.n.F.K..XOXoX}.K.J.3.Z C E ^ v.V.Z.H.<XxXbX|.G.J.:X+Xm.W W M.R.M.W G G F F F @.z.P.P.x.5.x.c.x.x.m.N.M.n.%.D V S D S ^ ",
"wXqX0Xs.9.w.6.1.%.b.K.T.+X4XoXU.m.:.+.+.@.:.b.m.K.K.H.G.H.m.z.:.z.>.>.B.B.@.d p D 3._.K.D.;XaXdX1X!.u.3.1.7.6.V.H.!././.J. X|.A.{ P  .c.Q V M l.c.2.E M E ~ } 2.;.;.F b v b O.I.H.Z.S.~ v u p i A Q D W %.z.x.x.x.&.I H.-X/././.>XdXCXCX/.P g c M 2.V.H.OXZ.E E P N q 5 y G P.7X5XS.W A s s S F.bX(.0.' T P T e.u.t.w.7.3.H.Q.(.uX].| g 0 2 6 l ! K f 7 l * $ % > * @ O X .   = d.d.g 2 - 9 V.2X4XD.%.@.>.:.m.T.2XxXoXoX;XzXVX4XD.U.4X6X9X9X4XR.7X4X4X6X6X4XR.E.%.A V +.;.$.;.:.l.A.oXXX7.P 7.:XVXVX+XS.M.z.:.%.@.-.-.;.>.@.D %.z.S.~..XU.Y.U.K.D.K.oX3XfXpXrXtXtXtX%Xg.!./.|.#XQ.4.3.:.&.b.K.K.m.%.@.I I W ^ $.Q 2.J.$XFXKX,Xi.e.A.Q.<XxXVXzX2XoXA.m.z.m.3.&.W @.%.M.F.|.2XxXoXb.&.b.+X6X6XK.m.%.&.%.b.b.3.3.:.@.:.%.R.N.#.T A..XJ.6.~ W ~ Z.C.7 + O + * j ( M u S / ! ! 5.W.-XXXA.2.$.v.m.Q.zXZX/.z 6 8 c e 8 u W M.v.W c C z.S._.XX#XyXgX'.#XcXCXCXjXh./.2X*Xd.t.] z l [ 0.q.q.1.2.G.XX_.m.b.S.z.:.b.F.S./ S C C N v E ^ ^ $.;.z.z.m.K.|.xXfX;X}.m.3.b.N.n.%.z.P.7X6X+X6.D.F.P.S.L.P.z.%.b.D.L..XoXoXJ.K.U.b.T { 2.x.V.V.6.K.<XxX;XK.A.H.XXK.I 9 5 $.L.L.2.;.-.Q Q F :.M.S.S.c.S.A.c.c.z.z.b.n.n.:.@.S S E E P ",
"wXqXk.j.h./.J.1.*.b.N.N.Y..XoX}.F.b.b.b.b.b.F..X:X}.6.~ 6.x.z.>.:.b.n.n.b.I r r I A.5XoX}.}.;X>X(.J.D.8.1.1.{ Z.G.H.J. X,XaX;XG.I l 3.M.x.P N W v.c.H.G.S.S.I.V.l.;.S S B E 2.Z.H.H.x./ v b B / z.v.l.2.2.7.2.x.S.6.Y 1.G.e.t.|.pX,X,X;XG.Y J E M ~ 5.S.S.~ c E S N p 5 5 s :.L.OXS.W A A d V F.<X-Xt.[ l U <.$XNXfXpX*Xg.f.G.~.~.e.P k 2 6 g [  .Y g 6 % $ $ $ $ @ + O X . . = [.C.l 7 4 9 7.1X4XD.%.D @.z.%.3.K..XXXXXoX:X2XoXb.F.+X6X2X2X+XR.OX4X4X4XR.U..XR.b.e 2 2 4 5 D L.;X<XxX~.1.r v 2.T.R.B.b.N.n.n.>.>.>.>.>.-.+.F G +.b.OX+XF.n.m.m.K.~.}.oX2XyX*X=XMXkXsXrXg./.~.H.A.D.3.%.&.z.+X5XoX~.XX~.x.&.E W S V 3.;XKXJXNXpX,XfXfXcXCXfXdX2XoXJ.6.%.F.T.m.&.V D $.F.oXgXxX2X}.A.A.K.T.F.3.x.b.3.&.#.2.3.$.%.$.W &.R.+X#.I I W W ~ &.E W 7.4.6 + X + * j J M M M $.v.2.m v L z.2.~ / %.m.-XvXfXr.7 2 3 5 q c b Q $.W b u b ~ 5.A.W.'.*X/.f.g.pXcXcXdXt.] W./.<.U l 9 7 9 9 g K #.3.J.6XOXD.b.H.S.z.F.OX:XS.%.l.$.D E x.L.F.3.N.R.7X:XoX}.gXCXzX3XD.%.:.n.B.B.n.F.4XxXVX2X:XOX.XoX2X:X.XS.F.~.}.~..X.XJ.K.K.F.7.G.XX_.A.e.1.3._.:X:X}.K.H.Z.^ e 4 4 C L.OXK.c.^ / Q %.A.A.V.Z.c.c.m.m.n.:.%.z.z.z.:.@.-.W W ^ E ",
"wX0Xo...g.#X}.6.#.b.m.m.D.Y.T.4XT.F.E.E.N.N.K.+XoXK.1.{ 1.6.z.:.:.,.%.3.2.~ 2.m.2.A.2XxXaX;X,X1XXX~.K.A.7.1.~ x.x.V.A.;XcXxX-Xq.Z v ^ c.v.E M ^ 1.Z.+X+XL.x.2.^ / A i u b Q 2.S._.`.c.$.V S ^ S._.L.x.2.2.~ P I T l 7 k T 4.t.XX<X(.t.4.Y P ~ ~ ~ 5.G.H.2.M u ( B N b 5 5 i $..X5XOXM.C i r C x.XX).G.t.t.f.sXFXGXGXGXGXjXg.r.G.A.I k 9 6 7 n Y { ! g 6 & $ $ & $ @ + + O X . = d.{ m m 9 4 E L.+X3.V V @.:.%.%.2.6.D.K..XOX.Xu.b.Y.4X:XoXU.m.R.2XVX2XoXY.N.E.7XR.Z - $ & 4 3.6XZXZXzX;XG.T e p p b ;.F.T..XF.:.,.>.>.,.-.+.G G F n.T.M.%.,.:.M.P.L.S.H.(.#X&X&XtXjXFXkXh.f.G.e.6.2.x.z.E 3.+X:X}.~.1X<XXXA.~ P P C I  XKXJXGXCXvXCXKXAXfXdX$X}.Y.F.8.%.D.+XT.%.V V %.K.;X2X2X<X:XXXK.7.I Z Z #.m.A.7.A.K.m.&.D D D +.N.E.m.W u m C C C V C ~ I 4 @ X + $ 8 j j v b W l.l.m e v $.x.l.^ W 6.;XcXyXW.H 4 2 5 q B S G V u e u C 2.7.5.G.(./.0.[ ' 0.i.f.w.U U G.#X4.' m 8 e 8 8 k } S.K.~.oXU.b.3.H.F.F.+XOXXXF.n.M.n.:.3.F.+XR.m.F..X6X6XoXoX3XVXVXoXD.z.b.n.n.N.N.R.oX3XxXxX2XoX;X2XZXVX3X|.XX;X|.~.~.~.J.J.K.K.A.~.:XXXA.3.2.z.S._._.~.K.V.{ P M E / ^ c.7X+Xc.S Q ^ S.XXOX~.6.x.D.S.S.z.x.z.%.l.n.z.Q Q $.l.M.c.",
"mX0Xo.o.s.#XXXe.1.8.m.m.D.D..X4X4XU.F.F.N.F.U.}.XX.Xe.6.G.G.c.%.S %.F.~.6.1._.T.3.6.|.cXZXZXaX~.Q.~.}.}.G.6.~ #.v.x.A.-XaX].t.' m N S ;.;.^ E ^ 2.z.c.c.2.} ^ W / A a B B S $.x.F.L.S.l.W $.c.`..X_.S.2.2.~ M c k 9 4 6 k Y 5.H.~.G.! m c P ~ #.H.XXOXK.2.C u u B B S B u b v.5XzXxXA.v u u ^ x.4.V.t.(.gXvXGXHXGXGXHXJXGX%Xr.w.1.L m l g 8 n c g n 7 & & & & 6 g ; $ $ # O X # f { ^ J e 9 v $.K.3.I &.z.z.:.%.%.%.x.K.oXoX~.A.m.XXzXxX;Xu.1.A.VXAXVX4XT.R.R.+X+XD & & & P W.cXFXjXsX*X<X(.I p y 5 D P.:X6XXXu.@.+.,.,.-.F F -._ ;.z.&.G F F z.T.R.A.e.G.|.~.i.@XjXFXvXuX^.0.{ ^ ^ :.%.@.:.F.T.D.!.yXcXfX#X7.Y ~ P L u.ZXKXvXsXrXpXpXpXaX;X}.D.b.b.b.b.D.+X+Xb.&.&.A.XX2XpX,X@X;XXXJ.7.7.w.w.w. X;X,X3X2X}.3.&.D D F @.N.R.3.C v m C V V b C P 4 @ X + * q N ( ~ ^ E W 2.~ P P M.F.z.$.~ 6.-X,X(.t.I 9 5 5 a A G G C W ^ %.z.x.u.G.#XaX#Xt.' U K H H H H Y H.XXJ.1.Z u u u C E 6.+X:XXXD.m.8.x.A.K.T.+X~.J.D.N.b.n.M.M.K.T.R.Y.}.oXOXOXoXoX}.U..XD.M.n.M.n.N.N.E.T..X4X3XgX2X;X;X;X2XpX=X*X,X;X!.!.!.~.~.H.S.D.D.D.A.e.$.&.z.c.x.S.c.V.v.2.! E ^ ! ^ / } c.c.2.Q $.l.`.xXAX6XK.F.T.K.A.m.F.P.m.;.l.;.@.F Q z.P..X",
"UX0Xo.o.r.!.~.G.6.6.m.K.K.K.U.U.U.F.D.D.D.F.U.oX;XXX|.|.W.e.5.W M 1.xXAX~.P 5.6.~ T e.-XaXaX(.7.G.XXoXoXJ.6.~ { 2.x.m.J.!.e.1.Z k r u b S S / l.2.^ ~ M m P S S S G A G G D ;.l.z.z.x.z.W $.x.G.V.x.z.$.W E S v 9 e m n m P ~ 1.5.6.~ C E $.~ 2.S.OX:XH.5.^ S B u b Q ) B B v._.<X5Xx.v e S x.H.V.t.f.W.^.yXjXFXFXSXGXGXFXrXf.C.6.5.H.H.' g g 9 0 g 6 & 2 g j ( Z.| h f * O X X * K { K I M P m.XX}.D.D.D.z.z.z.%.$.m.+XOXXXH.H.D.oXzXZXzX!.*.*.}.2XoXm.3.%.z.V.^ 9 & & J K.aXCXkXhXhXjXCXdXG.%.&.+.%.D..X:X.XK.z.@.>.B.>.F -.-.>.n.n.z.@.F G :..X.XJ.J.~.K.u.7.i.yXCXFXjX@XW.G.e.5.x.%.W W 3.m.D.}.zXFXCXpX XG.V.1.I 1.~.;X#X X/.g. X X}.K.R.N.b.m.N.Y.E..XoXU.}.3X2XpXjXCXfX'.!. X$X3XfXZXCXCXjXjXjXjXfX,X!.u.3.#.%.z.F.D.3.P v v D C C v C P 9 $ O + 1 i N O.H.H.5.{ 2.x.c.x.S.L.%.P 6.XX<X~.0.' E b b S F F S S l.L._.A.H.).|.,XaXpX@Xf.4.' ! Y T T { 1.A.H.K.K.S.$.C Q P.T.XXxXaX|.D.N.m.x.m.N.P.K.~.}.K.N.m.n.m.N.T.+XoX+XoXoXoXoX2X2XJ.&.&.3.F.F.m.U.T..XT.+X+XOX2XVXgX;X;X}.!.#XyXfXpX|.|.#X#X|.~.A.m.x.F.F.x.$.W @.z.:.D %.$.! E ( B ^ } J M M ! l.l.^ W $.x._.:XxX;XJ.U..XK.V..X.XL.F.;.Q Q Q G Q v.x.S.",
"UXqXo...r.i.G.A.A.m.6.~.XX}.A.6.u.F.F.K.K.}.}.;X2X;X<X:XG.{ J ( K V.AXKXJ.k m W ~ ~ x.G.t.y.' 4. X<X;X}.A.#.I 1.7.8.A.K.}..XK.1.Z u i V W W W W v.H.~.5.W S S S B B A A G ;.:.;.$.2.x.S.x.2.1.x.x.7.%.$.W S S S C S Q ^ E C E $.{ 1.2.^ ~ ~ ~ ^ } v.V.x.2.} E b u b Q / b B / ^ 4.V.2.v 4 P S..XQ.W.>XW.] [ ] f.rXiXrXrX%XW.V.v.7.G.5XxXZ.k 8 g g ( N 9 c  .} ^  .X.` h * O X . + > K | 6.5.5.~.6X3X}.J.A.3.z.:.:.%.m..XXX~.H.H.~.J.(.;X<X~.7.I #.%.V 5 5 4 2 2 & & & 0 H.2XZXFXSXSXSXNXCXiX@X}.}.oX}.D.J.~.~.~.T.M.n.B.:.F G G -.P.7XT.z.D D :..X.XXX-X-X~.W.G./.%XdXvXyX/.>XyX#XG.A.3.W C W 2.m..XzXZXfX,X;XoXT.N.%.&.3.A.D.}. X2X$Xp.6.3.b.M.M.F.P.Y.R.+XoX2XCXKXCXjXNXFXsX@X X X*XjXFXFXGXGXFXFXSXkXkXkXjXfX3XJ.1.1.D.x.1.I k e C E D C P P 2 $ + + h a B H.5XXXe.e.6.G._.H.A.S.$.Z V.5X6X_.T m E E v.P.z.P M W S.:X_.5.e.~.Q.-X,X;XW.w.4.{ ^ { 5.x.x.2.x.c.M.OX5XK.$.%.F.OXxXxX-XG.H.F.n.z.n.n.M.M.+XXXK.K.F.F.N.R.OX5X:X;X4XoX.XU.:XxX:Xm.#.8.U.U.XX6X6X3X.X}.XXoX3X2X2X;XoX}.}.;XaXZXfX,XdXZXfX$XJ.m.x.z.z.z.%.W %.M.$.u 5 5 i E M N B E ( M M M E E ^ / $.z.m.F.A.J.J.u.U.K.A.A.+X.X3.$.@.W S S A S ^ ^ 2.",
"mX0Xo.` 0.i.G.u.K..XA.G.XXoXA.1.3.m.D.K.+XOX}.|.#X-X|.W.G.! 8 c m V.xX<X6.k 9 N ^ ~ v.5.| | 0.#XfXdX'.!.K.b.#.6.u.J.D.K.XX:X:X~.3.%.:.n.m.F.3.I -.OXVX,Xe.E B M b i i b S ;.;.^ / W ~ c.L.x.{ x._.H.x.2.l.v.l./ Q Q $.l.W M C W 7.6.m.6.6.1.~ ^ E P E ^ l.O.( v v v B B p i S E n n S S e E c.x.i.(.uX).q.U z U 4.4.U H L I ^ Q ^ v._.+Xc.E M c q M M b / l.^ M k f 6 ; # O X . X @ z ).XX_.(.<X6XoXK.A.6.3.%.:.:.%.b.N.D.D.A.S.F.b.3.A.F.b.&.V G d y 3 2 & & & < 2 2 V +XZXFXFXFXFXFXNXfXpXpXgXzXgXgXgXdXpX-XG.F.B.n.>.-.+.s a G c.+X7XS.%.W :..XoX,XaXaXpXaX>X#X#X>X,X Xf.pXAXcX$X!.J.D.6.3.3.3.b.K.XX$X$XoX|.U.Y.m.b.S.K.G.}.fXcX&X4.L D :.z.N.N.N.F..XoX,XCXHXKXjXkXhXiXtXiX$X X/.*XjXNXNXNXkXsXkXhXsXjXCXCXgX Xu.6.7.6.#.#.v 4 5 D $.#.~ I & @ O @ j A ^ L.xX1X~.~.V.G.~.H.5.2.W M 2.`.+XS.! M E E S.7XS.P C 2.F._.6.I #.x.V.A._..XA.3.2.$.W ^ 2.2.l.2.z.%.%.K.:XXXA.m.H.(.].(.C.V.~._.D.b.:.>.:.3..XOXXX+XT.R.K..XOX:XXX|.+X.XT.K.oX:X:XoX}.}..XU.3XVXAX2X.XJ..X.XoX|.#X;X2X2X3X;X*XpXpXaXfXZXZX3XJ.m.x.z.z.$.V V z.S.^ u 9 5 p B b b b 8 q b S E S M P } 2.2.D.D.6.e.G.~.K.6.1.x.S.M.E C D D S A G S E / ^ ",
"qXk.o.` 0.e.A.A.K.+XJ.A.~._.m.W I &.3.D..X.XH.~.}.~.H.V.x.2.E b E ~ 6.1.I N v W 2.4.e.t.W.|.,XfXCX<Xf.J.OXOX~.J.~.XXK.m.S._.:X-XU.D.3.D.}.xX,Xw.I J.zXuXC.! M u p p u E / W / ^ Q S C l.S.c.2.x.H.F.x.7.V.L.c.^ $.$.2.6.2.~ ~ ~ $.3.A..XXXA.! n 8 g k M E ^ N q q q u b B B S / ^ M v b b ! } E { W.aXbXW.e.V.5.| Y n e r i Q $.S S V S / ) O.^ Q / ( S / ^ E M 9 6 - % O O X . + ; [ | e.G.C.6.A.K.K.D.8.3.3.b.b.b.b.m.m.D.F.D.m.x.m.m.b.%.@.G A G d 5 5 4 2 4 5 w D N.6XzXCXBXNXNXjXpX,X*X*X,X<XdXZXJXJXZXoX#.&.:.>.-.-.+.a p p S c.T.L.M.3.2.F.:XzXfXfXfXjXsX,X,X-X~.D.8.!.zXKXcXfXcXpX;XoXK.6.#.T 6.}.;X;X|.Y.U.F.F.T.~.!.|.zXzXW.' v d V %.b.N.E.F.+XoX,XCXGXFXkXiXtXh.h.[.@Xi.w.!.#X@X@Xg.@X@X*XrXsXsXiXrXpX#XG.u.7.3.~ I k - 4 V $.3.2.~ 6 @ O @ h B ( ^ H.K..XK.V.5.e.V.6.2.~ m E l.v.^ P E S C l.L.S.~ ~ 3.x.V.6.W I $.z.z.M.n.b.z.:.@.@.@.@.;.z.z.z.E Z 7.XX;X/.|.XX~.C.e.e.~.OXXXF.b.@.&.W 3..X:XOXoXR.U.F.K.+X.XK.K.U.U.N.F.U..XoX6XVXVXOXF.T.7X9X6XT.K..XK.oX2X2X;X2X;X XW.G.w.t./.,XfXzX;XK.D.m.m.$.I v v W 2.^ $.W ^ C u B S b u u S E ^ Q E v._.5.1.T.K.x.e.V..XL.#.I ^ E S b b V A B b F n.;.E E ",
"qXk.o...7.e.6.5.6.5.6.V.m.2.&.V V C &.z.F.K.A.J..XK.S.x.3.%.$.$.$.E E P E $.%.;.V.G.^.'.>XxXvXdXpX/.u.~.bXzX,X/.W.~.7.W 2.m.K.J.H.D.A.J.@XpXZXpXr.y.(.W.{ M b u p p S I.S.^ M ! O.S C W @.^ 2.x.2.3.3.6.A.K.A.#.~ 7.6.H.~.H.V.{ I $.L.6X5X~.5.L 9 4 9 N M E M 9 q v b B F Q Q c.S.2.q 9 u m n g H C.dXzX#Xe.x.V.z.W A G s G n.z.b p 5 y M E ^ / l.O.( ( ( E ( N f 6 - % O o X . + h | Y k m H e m 3.L.L.S.V.e.6.x.x.6.m.A.F.K.K.M.m.m.3.%.@.@.;.-.-.-.,.:.:.:.l.) A :.7XxXxXdX3XpXgX3X2X,X2X2X2X;X$XgXZXFXfXJ.3.@.,.-.F G s s a a F z.m.N.F.K.A.A.XXfXcXfXdXfXfXdX&X-X~.K.D.e.|.fXcXjXFXFXzX;X}.K.3.I %.L.5X:X|.}.}.U.U.D.D.|.3XxX;Xu.3.&.+.D D %.E.T.U.}.}.$XpXjXjXrX%XtXlXFXsXd.z l u.|.!.i.f.i./.@X@XrX%X%X*X&X&X(.G.6.3.#.I v 9 r V &.$.^ ~ 8 $ O + 1 / B M C &.3.3.2.{ { V.G.2.E u N c c N E E M C $.M.M.l.2.^ ~ Z.+Xz.I @.&.%.z.b.B.z.@.@.;.:.>.>.;.z.c.2.2.v._.:X,X2XXXL.F.V.~.;XOXJ.x.z.&.&.&.K.OXoXoXoXU.F.D.N.D.N.U.+XU.Y.b.F.Y.Y.F.oXVX6XS.%.z.P.R.T.D.D.F.D.;XZXVX2X!.4.' { v.1.4.}.3X2X,X!.A.F.F.K.S.z.z.3.z.%.$.l.x.L.6.C b S / B B B b E E E S.5XH.5.K.6.4.V.V.S.x.m v b N q p A a i B i b c.^ M M ",
"wX0X9.<.e.e.6.6.1.T &.%.%.&.W V A F %.z.M.S.K.K.K.S.c.3.%.;.l.x.%.@.;.@.M.L.P.m.Z.1XvXcX,X].^.0.4.4.V.1XpXdX#Xf.t.Q.w.7.7.D.D.m.A.J.|.#X*XdXdXvXdX^.t.4.P M C E B B l.I.L.v.M E ^ ^ E M E 2.6.c.6.4.#.6.A.>X<X(.y.0.(.dXsX&X^.7.I ~ A..XXX;XxX$Xy.l 9 8 c b b 8 9 M E Q Q ;.z.F.H. .k 9 9 0 9 0 6 K `.5X5.&.z.z.%.:.M.n.@.F >.>.A p u b B E S S ( ( M ( O.} J 8 7 6 - $ O O X X + h O. .k 9 7 4 4 e 6.XX<X-X(.Q.}.}.F.F.F.K.K.A.m.m.%.%.@.:.@.@.:.n.B.R.OXOXOXR.M.@.@.T.5XxX2X;X$X3X3X3X3X2XgXgX2X;X2XfX,X XD.:.B.>.@.+.s a a +.-.;.c.F..XoX2X6X.XA..X<XOX-X-X-X-XXX_.L.F.L.S.A.Q.~.~.;XgXfXoXJ.~.A.3.8.U.:XxX<X;XoXXX.X.XY.}.:X;XD.3.%.z.%.%.b..X6XxXoXD.K.;XaXfXsXyX*XiXSXGXjXy.f l 6.H.G.G.p.p.p.!. X X/.g./. X$X#X!.e.#.$.&.W I P I D C P ~ P - O O h ) ;./ S C E ~ ~ C ^ Z.P.~ 8 9 u v b C ;.$./ W ;.v.l.l.%.@.C c.7XT.^ D +.,.@.@.n.n.:.@.>.:.;.;.;.n.M.F.T.J.XX<X:Xe.T 1.F.K.XXxX3XJ.m.m.m.m.U.oX}.}.oXoX.XF.3.z.b.b.N..X}.N.N.N.N.N.N.U.9X6XD.:.,.>.:.@.:.M.N.U.4XFXKX:X5.L H K J M 5.aXVX;XG.A.F._.~.}.+X.XU.F.c.z.2.6.~.aX,X5.C S B b b A v C E &.A.5X~.{ R m Y ! } } ! c u y p N N p p u i b b B / M M ",
"mX0X9.] 7.6.e.A.6.7.$.%.@.Q Q Q @.>.z.z.z.m.F.+XF.S.m.2.%.;.v.x.b.+.F n.T.OXL.2.2.XXxXbXi.z ; - 6 H 5.XX,X*X&X|.,XzXzXxX;XD.7.3.x.K.:X2X,XpXyXpX>X(.G.6.~ 2.v.c.^ M A @.z.v.^ ! ~ ^ M v $.H.C.Q.Q.).e.q.(.FXKXCX@Xg.iXNXSXsXyX/.e.1.7.6.u.(.zXFXcXt.g 7 c M M c M E / / ) $.c._.A.5.m 0 2 2 2 & & 9 C C C W z.c.M.P.T.P.;.Q ;.Q S S S Q S B B B a y u B ;.v.E 8 4 - & $ @ O X X # h | ! J n 9 0 - - L H.bX6X;X~.XX+X+X.XT..XT.D.z.b.b.:.:.:.:.:.,.>.B.+X6X5XOXT.K.m.3.A..X:X2X2X3X:X3X2X3X3XgX2X3X3X2X2X#XJ.8.:.:.:.>.,.+.s A +.:.z.L.4XzXzXxX<X.X$.D ~ &.3.m.M.S.F.M.z.z.n.n.:.n.n.b.D.oXoXJ.J.}.K.D.D..X:XVXVX2X3X|.oXoXoX}. XD.8.&.D :.%.z.K.xXZXaX|.}.}.|.,XgXpXsXCXFXFXFXsXw.l l 1.A.G.i.G.t.i.!.!./.g.f.f. X;X/.w.' ~ 1.~ ~ P m I C P I 4.~.L # X h c.c.^ ;.@.3.S.~ v W x.2.e 9 u E ^ W S $.l.^ ^ $.^ l.l.l.$.~ c.+XL.$.D -.-.=.s +.F -.>.:.>.-.>.>.%.P.7X+XA.G.~.H.~ v &.F.+X:X;X;X}.Y.U..XoX4X4XJ.D.}.oX.XN.3.3.b.b.N..X.XY.N.E.E.F.T.OX6XOXb.@.>.B.:.@.:.K.L.F.4XAXAX!.U T 1.Y N e R aXKXaXt.e.~.+X.XoX:XOXK.x.2.2.6.G.2XAXzXJ.W b b G _ -.$.S.F.D.6._.H.{ P P ~ ! E M M n 9 5 p b B B S E Q S v M ^ / E ",
"wX0Xs.9.4.4.6.6.A.x.$.Q Q F A F :.n.n.b.%.z.M.S.F.F.c.$.$.z.M.M.z.Q S $.M.S.x.^ 2.6.e.e.Y 7 & 2 7 H 5.`.,XyX,X$XzXAXZXgXoXD.3.2.6.J.|.#X*XpXpX Xt.t.G.A.Z.G._.H.v.E p p %.P.P.v.E b u 8 M 5.| q.).<X-X^.'.FXJXJXDXkXkXkXkXkXFXjX'.w.#.I 1.W.uXCXcX'.z 7 c J E S ! ! E / $.l._.1Xe.{ M 0 0 6 - 2 k m v v $.v.l.z.-.-.Q Q S A A -.Q Q B Q F G A B p 5 5 p S ^ E g 2 - % @ O O X X # f K g n n 9 9 4 - 6 ' G.Q.e.1.I 1.m.K..X.X.XD.b.:.b.:.:.:.:.>.,.>.M.F.F.F.D.S..X:X|.J.D..X4X3X:XoXoX4X;X3XgXgX3X;X3XoX;X}.8.%.n.>.>.B.B.n.:.@.%.n.T.:XxXaX/.w.#.V 5 2 5 S z.B.M.n.M.%.:.>.>.>.>.B.P.K.J.A.A.U.}.oXoXoX}.}.;XoX}.}.oXoX3X6X3X}.8.b.%.%.%.$.6.+XAXZX*X!.|.;X;X3XgXfXjXKXGXNXsX$Xp.*.L 3.J.~.!.|.>X&X#Xg.@X Xp.g. X|.u.*.R Y ~ 2.} P J W ^ I { C.1X4.@ X h c.;.^ ^ $._.xX(.I ~ 2.2.M e M ^ l.2.$.W C P ^ z.2.v.v.5.^ W %.n.M.%.@.,.+.d y y s -.-.F +.-.-.:.l.L.+XS.3.m.D.S.2.I N.7X+Xu.e.}.:X}.}.2XxXVX3Xu.w.D.U.Y.N.m.F.+X4X.XOX4X.XY.T.T..XOX:X:XF.&.A +.n.B.N.N.OX.XD..XzXfXu.T 6.1.} P k 1.xXKXaXw.A..X.X}.}.;X:XK.3.Z ~ V.~.<XbX>X~.x.%.$.:.:.;.M.+XOXT.m.x.x.2.2.c.l.J c c c c 8 u S B / ^ S.L.P.E N E v.c.^ ",
"wXqXh.f.6.1.3.3.2.$.^ Q F A s F n.n.M.M.z.3.z.n.b.M.M.$.W ;.n.m.x.;.Q E S N C ;.c.! P ~ ~ J g 8 9 J H.1X-X-X~.~.;XaX,X!.G.D.m.3.V.|.,X*XyXfXaXf.{ 5.A.F.~..XXX_.Z.^ v N v.+X_.3.b 9 9 9 u M P ~ V.Q.Q.0.9.yXGXJXFXSXkXlXMXkXsX%Xd.0.7.1.6.!.yXfX&Xf.Y m M ~ l.;.} E M M ~ H.bXuX4.l g g Y C.^.).).V.1.6.A.c.$.@.F A b b S G B Q n.:.A b G S B i q 5 u B E ! Y ' l - @ O O O X X # f c 0 9 g 7 9 4 - & 6 g l 6 - - 7 m x.5.7.x.F.P.b.n.:.n.n.>.,.,.n.n.n.b.b.x.S.:XVXzXoXY.T..X.XoXoX:X3X3XgXVXVXgX;XoXoX6X2XJ.3.b.n.B.B.R.6X6XN.2.N.T.+X;XXXG.~ 8 3 5 5 5 p >.L.B.n.z.:.n.-.@.F >.M.K.U.D.S.K.}.}..XoX;X}.~.J.6.7.D.oX4X3X2X2XoX}.K.F.N.z.m.J.oXVXxX X!.;X2X2XpXpXpXdXCXCXrX X}.K.6.1.A.OX1X>XzXCXjXjXkXsXpX&X'.#XoX8.L m E $.$.$.^ ^ 2.x.2.{ 5.K.H O o h l.F / ^ $.L.xX-X#.@.$.z.F.2.^ l.S.M.x.%.C E M.OXL.c.x.1.W V F F :.:.v.%.@.@.F A F >.,.G d F @.l.v.P.M.$.W :.P..X~.}.U.L.K.6.7.G.;X;X$XdXVXVX;XJ.7.1.3.D.F.K..X6X6X3XVXVX3X;X2XgX;X}.}.D.W u r V :.N..X4X6X2XoX}.&X(.1.T ! { } { 4.t.-XAXgXi.~.+XU.K.}.;XXXx.W p C v.T.K.e.e.G.S.P.P.S.z.z..X:XA.3.%.$.%.$.2.S.S.J c M ! E ! v.l.S ^ H.`.+XS.E S / l.^ / ",
"wX0Xh.f.1.P I &.&.W W G s y y s %.z.L.+XL.M.z.:.z.n.:.W D / ^ $.z.$.^ E M b E %.v.l.! ^ ! ( n g 8 ! _._.V.{ T { e.A.A.A.K.K.K.A.A.XXaXpXyXaX(.' I 7.x.m.A.K.~.J.H.x.5.x.H.+Xx.e 2 2 3 5 u i b S ! 1.5.' U ] d.h.rXkXlXtXlXtX'.y.<.T 1.G.#XdXfX*Xf.7.1.^ ^ v.c.l.2.E u v 1.,XvXuXr.z g g 5.aXvXzX-XG.x.S.m.3.$.$.S v u b G @.b M c.I.;.B b b B b i B / c.L.Z.W.].0.; @ O O o o o > l g 7 0 f 7 7 6 2 & & & & 2 2 - 2 9 m 8 7 v v.R.P.n.%.b.n.>.+.,.n.M.n.:.:.:.S.OX:X4X.XY..X+X.X}.6XVXgXpXBXFXFXpX X}.oXVXZX-XH.F.N.3.%.m.3XVX6XL.F.R..X~..X+X2.u t i a y w _ P.n.>.n.n.>.@.A A >.n.D.K.F.Y.R.U..XY.}.oXXXK.D.D.m.D.U.oX2X:X;X;XoX}.+XT.U.}.3XaX2X$X X$XgXZXfXgXgXgXpXgX2X!.u.8.A.K.6.{ V.Q.^./.*XjXCXFXCXCXjXdXaXQ.T e v C E @.&.%.z.c.c.A.2.W 1.6 O X h Q G S E D x.XXA.W V S z.+XR.c.2.v.M.L.M.z.$.L.6X+XA.A.2.W D @.@.%.z.M.n.:.:.M.n.:.@.,.>.W W $.6._..Xz.V V +.B.+X2X;X X}.J.J.oX;X3X2X,X3XoXU.J.~. X}.H.A.T..X.XoXoXoX3XVXVXgXgX2XJ.T U m e 9 M 2.F..XOXoXoX4X6X3XpX#XG.4.T 2.V.`.uXuX&X2X$Xp.J.}.K.K.oX6X}.6.W p C z.B.z.W ^ S..XOXXXJ.A.A.+X:XD.I D W $.l.x.P.L.! H 5.`.H.Z.Z.} S / v.v.} ! S S S S ( ( ",
"qX0Xj.0.m r v W W Z W W V i i V W %.S.L.H.c.%.%.Q Q Q Q Q Q ^ ^ l.;./ S Q ;.W D ^ ;.S u c c c 8 n l.Z.} } ! ! ~ { 2.2.x.F.+XXXK.m.F.~.~.!.~.e.~ ~ 2.z.z.6.6.6.6.A.K..XL.T.S.M 2 & & 3 y y y i b E 2.v.! m 7 6 6 [ g.tXhXkXtXd.] T m T ^.CXJXFXh.] { 2.l.l.c.v.l./ b 9 Z !.cXCXsXyXf.' R 6.e.q.4.1.7.x.c.c.x.2.$.2.^ ^ ;.%.;.S C } l.l./ q q A A G Q $.c._.XX>XzX].f @ # O O O O h K g 9 7 7 6 2 4 4 9 m 0 - 2 2 2 2 9 M M e v W M.n.:.&.:.B.n.:.:.n.M.n.n.;.-.>.n.@.&.+.,.M.P.K.K.OXxXVXVXCXKXFXpX X}.oXxXzX,X}.~.J.A.7.6.}.6X6X_.A.b.A.H.OX5XZ.b ;.l.G i y a _ F F @.B.>.A y 5 d @.b.K.oXoX}.|. X X;X3X|.J.J.U.T.D.A.J.}.;X3X3X X X.XU.oX2XZXAXVX;X;XVXAXAXZXVXfX2X;X;X;XD.7.7.J.U.7.l k l l g l 4.y.t.W.'.@X].t.' k 7 v ^ &.#.&.#.2.x.A.c.3.3.b.; @ O h $.F D Q W W ~ C V u u z.+XF.v v Q :.3.b.M.S.K..XU.+X.XS.2.2.z.M.z.:.:.,.,.+.>.n.z.%.&.S.+XF.3.m.:X6X3.i y G :.F.1X;X#X$X@X*XBXZXZXjXpX-X7.1.G.,XZXAX,XD.D.U.K.A.8.3.3.XXxX|.6.#.L k 8 k e e V.5XxX;X|.J.7.D.~.#XdXpX!.u.3.&.A.xXKXFXyX X X XoX|.}.}.3XxX;X|.J.1.#.z.;.D b S M.5X6X<X;X;XXXoX+Xm.D D S Q l.l.S._.C.[ q.`.Z. . .{ ~ ! ^ ! c S / S B S B B ",
"qXk.9.[ k 9 v &.W #.S.z.Q @.@.$.W ^ ^ W P m k k m M S / Q ) Q D ;.;.S u Q n.$.C v C p 9 M M b N ( } / S E / v.2.^ 2.z.v.2.c.c.$.D W #.#.1.#.2.z.l.$.;.2.2.2.^ $.F.+X_.F.m.%.C u 9 0 5 p y 5 u i S Q } P C 5 2 - 8 e.uXjXkX[.r.' Y m L W.vXJXFXf.U ~ / ) l.l.l.} Q u 5 ~ <XCXCXZXZX,Xi.7.6.! m m E 3.S.A.H.S.m.3.6.G._.H.v.v.2.} } l.;.S 5 3 p G ) ;.3.S.A.~.<XbX>Xx @ # # # O @ h K n g 9 7 7 9 N E M.L.2.4 2 2 3 3 9 b / $.$.%.W &.@.@.,.z.N.E.Y.F.N.m.z.@.G d p y t 5 t d @.%.3.3.A.+X6XVXZXfX$X|. XoX3XgX3X3XgXgXxXgXJ.7.K.OXF.D.m.6.D.K.S.~ W c.P.z.) a a a i p G n.F p 5 2 5 p W ~.3X2X#X#X,X,XxXxX:X}.}.XX}.oX;X}.w.}.gXgX3X$XJ.D.U.2XzXVXgXoXoX2XZXZXfXgX3XoX}.oXoXU.u.u.}.oX7.e 4 4 2 & & & & - - f l l l g l L 2.A.A.J.D.8.1.1.m.6.A..XQ.; @ % K x.$.W F Q F i d i p r E x.v 2 2 5 V %.z.x.OX+XJ.D.+X.XF.2.^ $.v.;.%.Q @.@.@.&.7.V.V.1.H.xX2XJ.7.}.xX|.#.Z D &.D.XX#X<XpXsXfXCXKXFXfX/.e.U T ~.dXFXZX,XD.m.D.D.z.%.D v ^ S.! e 5 9 c u n q 9 3.xXAXaX|.J.J.}.~.i.,XgX/.3.%.b.6.~.xX2X$X XaXzXzXaX,X,XaXfXfXzXzX;Xu.6.^ C V D x.+X:X3XxX6XOXXXK.%.D @.Q Q $.^ 5.Q.Q.| 0.Z.V. .} { } ^ ^ / b S F B b S S S ",
"qXk.` z l v C Q z.c._.S.z.x.v.l.^ ^ W C v N P ! ! M q u A G i r y p 5 5 E c.S.! P E Q M ( E E ( S b b u b ;.S.2.E ^ 2.z.N 8 u b S W %.b.m.3.m.M.z.v.l./ / ^ ^ z.L.+XK.A.6.3.M.z.l.C p p a p p G Q _ W e e y 5 2 0 5.<XsX%Xg.t.' { Y l ' @XjXpX[ l I Q ;.@.2.v.l./ b i 2.bXCXcXaXaX,X}.G.e.V.$.W #.m.H.H.J.K.D.u.6.F._.A.2.2.l.l.v.P.n.G y 3 p F ;.l.L.+X6.6.A.Q.w.g % @ = # O O h K H k 8 0 9 ( $.B.R.+XM.r 2 4 3 5 5 q / P.P.l.@.@.+.,.+.W F.7X5X.XF.b.;.Q Q A D :.@.5 5 y s &.F D V Z 3.J.|.oX;XaXaX;X3X4X3X3XVXAXCXjX!.P D b.M.c.L.F.D.z.D i a -.>.-.) G s s A s A G y 5 p p u u Q +XaXfXBXZXgX XG.J.F.m.D.R.#XzXZX X7.p.xXZXcX<X|.}.D.}.}.}.J.8.8.Y. X@X/.g.J.D.U. XoX}.}. X6XXX*.k 4 4 2 2 & 2 & & & & - 7 l Y 6.A.A.K.|.2X2X|.7.*.1.u.}.oXC.; % g H.`.Z.~ D ;.;.@.F Q S S ^ $.v r 3 5 d B.F.F.K.XX~.K.K.S.z.@.D G F -.z.^ W Z 5.-X<X2X:Xu.u.;XxXXXu./.xX2X Xe.6.A.u. XgXZXZXZXfXBXpX/.' R L m P S.XX#X-X}.H.F.F.F.R.n.D e p V v u p p v V b b 8 C D.;X<X;XpXjXgX3Xu.f.oXL.$.@.z.S.3.3.8.~.,XzXAXAXZXCXCXBXCXZXZXCXBXoXK.V.x.%.%.x.K.~.XX;XXX}.J.A.v.Q A S -.W P } `.1X).0.{ } } ~ } Z.H.l.S v N B G S B G G ",
"wXs.` z L D C I ^ x.c.2.~ ^ l.$.$.$.^ E H Y Z.`.V.e 2 3 3 5 5 2 2 3 3 3 B H.5X:XK.c.c.c.Z. .E E S r 9 8 b O.I./ c M ^ C 4 5 p A @.z.F..XOX.XF.D.n.;.Q S Q $.2.c.K._.V.A.m.m..X:XXXm.D A F +.F Q n.n.S r 5 5 5 5 u 2.).].).W.e.| 4.4.{ R w.'. Xl e E v.$.@.;.v.c.l.Q -.S.XX-X~.H.(.,X!.D.H.S.m.&.&.3.x.x.2.x.m.x.c.H..Xm.$.$.z.$.;.;.-.F G B A A $.L.6XOX6.W W L f - % # * @ O O = z Y n c 9 A ) B.P.Y.R.M.V 5 3 5 5 w 5 u W P.B.&.&.@.+.G V m.6XVX3X}.b.W G G n.7XVXXXI D z.M.M.3.^ b 3 3 r W L.<XxXgXoXU.T.D.oXdXZXgXw.l t 5 p @.P.+XT.z.-.s y p A G G s p G >.n.-.s 3 3 S M.P.2.Z 1.<XsXNXFXJXjXr.L k V +.&.N.(.:X:XJ.7.e.~.3XoX}.}.J.J.F.m.#.I I 1.1.1.1.*.T #.b.U.oX;X;X3X2XxX}.T m e 4 5 4 2 3 9 9 t 4 2 4 9 W 3.6.A.J.|.3XzX|.u.6.6.u.|.-X| * @ 7 H.1Xe.W G W Q ^ %.%.W W x..X6.k p &.A.aXgX}.N.F.U.oX~.3.&.%.D V &.A.J.F.#.L e.2XcXcX<Xp.w. XcXfX*X2XfXZXVXpXfXdX/.$XZXfX2X,X$XJ.1.L 9 9 8 v E S._.G.G.H.K.K.K..X6XR.&.r 9 p V A A b i i B A i u C #.A.XXdXdXzX2Xu.7.b.3.$.#.A.oXK.1.6.K.}.;X3X2XfXgX*X*XfXgX,X,X;X4X}. X}..XA.3.z.m.K.H.A.A.6.z.;./ S E E C M v.5XbX-Xy.|  .} } } Z.H.^ u u b B F Q / E / ",
"mXo.x l I S W D W } } C b M E E E W ~ E H n q.5XH.k 2 2 2 3 3 2 2 3 9 3 u H.zXzX<X .} `.1XH.l.2./ 9 2 5 u O.;.M c C W W b b W Q @.c.H._.:X+XF.S.:.D V u S $.x.S.+X~.e.V.A..X:XxX<X+XM.z.z.n.:.;.M.B.v.$.$.$.Q Q Q x.V.G.).~.e.1.Z.C.C.W.].vX<XH 4 b >.Q Q ;.;.@.%.@.>.M.F.m.1.6.K.oX XU.XXZ.2.%.3.7.1.2.2.2.5.x.x.K..XN.b.z.z.V r r i F -.-.-.@.%.L.7X+X3.S N 9 6 - $ * # O O o + > K n M v D M.M.n.n.M.M.F p w 5 5 w y y v W M.:.%.@.+.s d %.:XAXVX2XK.V y s B.7X6X1XJ._.+X:X:XK.x.^ V t 5 v z.XXXXG.e.c.x.7.5.i.~.t.l 7 5 5 5 s :.M.F.z.F y 3 5 p a G A i F n.B.-.y 3 i S.OX+X6.T !.gXrX=XrXyXW.<.L t p d D $.D.K.u.G.A.A.3.*.*.*.#.m.D.1.L m P T 1.4.1.' 7.I l 3.+X6X2X2X2XxXxX~.1.Z e r 9 4 4 C c.z.&.+.r 2 4 v I I T T <.G.#X|.G.G.u.u.w.w.z % @ - ' ).6.W W Q ^ $.%.%.%.W K.VX.X#.C b.6XZXcX|.u.K.oX3X~.1.&.z.%.W m.6XxX<X6.<.u.#X@Xf.i.i.t.#XfXcXdXgXZXCXCXZXCXdX,X;X XJ.<.[ 4.T k e e r p C Q z.A.A.~.:X:X|.~.}.4XR.%.v p V G A b i b b A G A p u C 2.F.!.H.J.K.D.6.3.z.#.A.3XZX2Xp.e.u.8.u.G./.;XoX X X$X$X X XJ.U.}.;X3X;X}.3.&.x..XK.6.1.~ $.z.l.;.^ C b M ^ H.1X(.G.5.{ v.} 2.} 2.v 5 u A F Q Q Q ) Q ",
"0Xo.x l C D Q S D W E N v m M M M E E P H H { H.x.N 4 0 8 c P ! c e b 8 c x.-X`.7.l l Z._.Q.! m 8 4 2 2 u M b M E ^ $.l.Q W $.$.l.V.H.~.XX~.m.3.&.V V v C ^ 2.S.+XXXH.G.~.:X2XxXxX6XOX+XT.F.m.z.m.M.L.L.7XOXL.S.x.x.2.5.H._.V.6.5.~.<XzXjXvX^.z 4 5 p A W Q A F @.F Q z.z.%.%.D.U.oX:XoX.Xx.W ~ %.2.! P ! ^ 2.2.V.OX+XD.m.S.z.i 2 - 3 y A >.,.,.%.M.T.T.$.b u 9 9 2 % @ # # O o O @ 6 g M W b.P.z.&.:.%.z.;.A w 5 w w 5 5 p V :.;.W V D s d D F.zXZXzX}.I y y A +.:.b.A.J.XX;X$X_.A.c.z.D p V ;.S.A.1.1.2.! ! T { ! T C p 5 5 5 d -.z.P.z.S t 3 5 p D ^ F +.n.L.B.s 5 d n.:X2X,XW.i.yXFXiXg.p.w.u.6.%.S A s G F b.N.m.A.K.D.3.#.W &.&.$.~ Z k m I 7.e.i.G.G.D.T e L A..X.X}.}.!.J.<.L Z e r 9 9 2..X5X+XD.m.%.I W &.P l l l k L 7.i.i.t.t.w.' 4.[ : @ % z e.6.~ ^ $.2.2.2.3.%.$..X6XU.#.I 8.6XZX,X!.u.K.oX}.D.3.3.F.m.~ A.VXZX2X/. X;X#X!.i.J.J.(.(.f.w.w.i. X2XsXsXrX*X X!.7.I H H L I C N b p i F $.$.%.b..X2XxX2X;X}.K.D.3.&.V p i V A Q ;.Q S S D b u E 2.x.2.^ W &.%.z.%.$.3.oXZXKXsX@X!.u.8.7.6.u.J.}. X X X}.}.J.u.D.oXgXBXZXaX7.I 2.S.F.A.7.1.2.l.2.2.2.S.l.M N x.).).H.5.I ~ V.V.^ C u 5 p G _ ) ;.;.;.Q ",
"eXo.` z M F / W E m c N C C M b v b u N J E E E E u 9 Y | W.1X].| k c m M I T H 6 - 2 g 5.' g 0 2 - 2 5 5 8 u P ^ %.v.M.c.l.$.$.x.H.XXXXQ.G.6.W D D W S S S P l._.K.A.A.S.K.J.}.2X2X+X.XF.D.m.M.z.%.x.L.OXOXH.V.x.x.$.$.V.`.Z.5.~ 6.+X2XxX>Xt.1.n p y A Q F A A i B Q c.z.%.W $.b.;XxX|.u.~ P ~ :.$.M c c C W ^ Q.OX~.T..X+XS.T 9 2 2 3 q _ >.>.+.@.n.n.Q i u r u 7 & @ # # O O X + 6 n E S.R.F.%.&.%.:.n.n.F y 5 5 w 5 5 9 p A v C m.D.I v D &.w.|.|.m.&.D A p t p &.A.XX<X-XW.H.A.3.%.@.D V Q z.z.#.~ E M P P } l.$.Q A y w d -.:.z.c.$.S S V r i C E F >.P.B.-.p p :.+X2XzXuX@X'.pXZXpXg.e.u.J.K.m.@.A G G @.B.b.3.7.F.D.z.&.W %.%.%.^ ~ T ~ 6.A.G.G.XX}.7.I v e m I I L l l l l k v v u 9 e x.OX5X.XD.F.N.m.m.D.m.1.T L l l T 7.e.w.t.0.] t.t.> @ @ h ' | 1.~ 2.5.6.6.3.m.S.Y.T.F.3.%.b.U.oX}.D.U.U.A.7.6.b.N.m.m.2.6.Q.W.i.J.,XZXaX/.u.i.J.V.' l 7 r l 1.J. X X$X;XJ.7.T T e.f.g./.G.1.c 4 r V / Q @.b.U.4XxX3XoXJ.m.D.D.F.;.V i S S ^ v.l.W E W b C Q %.2.&.C u i @.:.&.%.F.:XgXZXfX$X X X!.p.p.p. X X$X$X$XoX}.}.D.}.;XZXKXKXCXp.L ~ x.c.c.x.x.x.2.~ Y V.5X`.! m ! V.Q.A.} P v.`._.~ C S A S B Q l.S.c.c.$.",
"eXo.` H ! Q ^ $.1.1.1.~ W W S b p w 5 u C / ^ E b e K Q.uXxXxX>Xt.H ^ v.W m g 6 2 & & - 2 7 0 0 2 2 7 8 k u S { 2.#.%.M.c.2.^ 3.H..XXX!.i.H.6.I D $.^ Q S C b M l.x.l.2.z.#.L I m.F.K.F.D.F.S.M.:.D S z._.XXG.e.V.A.x.2.v.`.H.} ~ I 3.x.H.Q.W.|.H.%.G A @.F G i p a ;.L.L.;.p 4 m -XxX#Xg.<.R 2.z.W b N v k m C } Z.V.c.H.-XXX}.H.4.! E ^ v.>.>.-.+.-.>.>.Q S u e 7 % @ # # O O O @ 6 P 2.+X7XK.8.8.%.b.n.n.@.p w p a i i p i p e H.ZXZX XR I z.3.3.8.3.%.b.M.%.@.z.F.;XaXxX|.y.2.$.^ &.W C b b V e 9 8 e C C E l.M.v.G i y p F :.z.n.z.@.Q @.%.A t t C z.N.K.x.D C %.F.oXfXjXiX@Xg.g./.p.e.V.G.}.oXD.I p G +.:.b.N.A.D.8.3.I C W W &.%.2.D.L.K.F.x.6.e.~.e.P Z V v e r r r 9 r k Z C u v i 9 9 e 3.U.D.J.}.}.J.J.J.}.~.J.G.4.<.1.*.7.6.e.<.] ).g.> O @ h z z T 1.6.4.e.~.oXoX.XF.m.N.F.Y.N.8.8.8.8.T..XA.6.6.z.b.%.z.N.m.1.T 7.u.(.aX,Xi.7.7.4.1.L e e v Z I 3.D.U.}.~.6.T H ~ ,XCXnXSXjX^.H 7 4 v Q ;.v.m.D.K.oX}.D.D.m.D..X+XM.C b Q W E / S E E S C S D W @.W V r p +.:.z.m.F..X}. XoX X}.oX XJ.J. X;X2X3XgXgXgX;XoX}.oX3XZXJXKXsXp.T 1.2.S.V.6.A.V.5.T U G.xX-X0.{ P 5.1.! P E c.OXH.~ E / G S b ^ v.S.c.V.V.",
"qXo.` H ~ ^ } x.V.XX1XZ.~ ~ S b p w w p B Q ;.Q M c H.xXzX:XJ.0.' I c.L.2.P n 7 6 f 6 2 6 g k 4 3 l ! ^ H 9 C e.L.x.&.$.$.#.7.x.~.:XoX(.|.~.6.W W $.Q / S S S b / l.l.$.%.%.E W &.&.W %.D..X.XK.z.V r ^ T.:X~.A.V.J.L.A.6.A.V.2.I C D @.Q z.T.:XOXn.F A G G G i b F n.P.F.z.F p &.<XZXZXcX#X4.{ 2.^ ~ ~ P m C M m E $.W x.K.-X6XxXaX2X<X:X.Xz.%.>.-.@.@.;.n.c.#.l ; % @ # O O O + * 6 k 2.7XOXU.U..XT.Y.F.z.%.i p A G G G S D i k XXKXKXjX0.T x.P.F.m.1.%.F.OXoXD.U.oX3X2XoX6.I C S Q ;.@.D S V p 3 3 u b S b A W @.Q G b d A @.3.b.B.:.D p r r 9 - 9 x.OXoX1X~.8.#.D.oXxXBXsXrXiXrXg.<.T T 1.1.8.U.D.m 9 p +.:.N.T.:XzX-XT 8 7 t r V W $.S.K.e.1.I R T T L v k V D A V V i u v C C C v b b r 2 - v 6.A.}.|.;X X!.p.i.w.G.-XoXJ.' L 1.8.e.' <.(.g.> O @ > h z z 6.G.A.G.-X3X;X}.K.K.}.4X3XD.3.7.6.3.D.D.3.2.z.b.3.3.b.m.b.3.3.3.3.e.(.G.' T T #.1.P L 3.b.#.3.6.u.A.6.1.R m l T pXFXHXHXnXh.` z l ~ 2.z.m.m.m.m.D.N.b.8.m.K.+X.Xz.C v S S b v u b S S A G G D D V v u C W l.M.c.P..XD.8.u.u.J.}.}.!.!.oX;X2XaXZXZXZX2X}.J.J.oXVXZXcX/.7.6.m.5.S.V.5.V.G.J.5.' w.;X>X^.e.2.^ E P E ;.c.P.} E S ;.Q b u %.M.M.A.F.XX",
"qXo.h l ! l.x.A.}.:X1XH.{ } ! E S b i b B G Q G S S L.5X5X3.e 9 b E l.c.2.1.Y g K | [ g H 4.P 4 r V.6X+XH 4 P K._.6.L l P 6.V.e.G.;X;X2XxXXX7.&.Q W W / S S / S E $.Q W $.M.B.B.%.%.&.b.+X:X;XXXD.P e Z S..XK.A.A..XOXoX}.K..XXXG.3.Q Q F F :.b.m.%.A i p @.m.S.A.m.S.S.m.z.M.P.OXxXxXzXVXbXG.{ 2.l.;.$.W W W Q $.P k e V ~ e.XXzXZXZXZXZX;Xm.%.>.-.-.%.%.c..XoX6.f % @ # O O O @ ; 6 9 #.+XOXoX4X6X6X.XY.b.%.V B D D Q W W :.$.J G.cXcX-X4.1.2.S.OX7XA.b.K.OX;X}.J.}.~.J.3.I Z D Q @.;.Q W F V 5 5 p Q Q M u u u p b i b A ;.v.z.z.:.V r 4 2 - & & m :XAXZXZXxX+XD.Y.oXgXZXfXsXjXGXjXg.1.1.7.m.A.U.N.Z r p D &.1.e.(.<XG.7 - - 4 t r v I #.T T L L L L L l m v V D D D D D C C I v v V C v k e k *.3.8.J.}.|.}.i.~.!.<.<.p.J.6.l 9 l 6.G.w.r.@Xg.: # @ * > h z ] i.t.t.t.t.G.A.J.XX3XxXgX|.u.#.W #.3.3.#.%.b.N.3.3.7.3.3.A.A.A.1.1.e.7.L l L ~ ~ T 1.~.:XXX|.oXXXA.4.R z L H U /.FXHXHXsXs.9.g.,XaX(.e.6.b.b.m.m.3.#.~ b.T.+XJ.3.^ I E C m C E $.W C b b S S S V v v $.S.c.3.S.F..X}. X XJ.J.!.}. X X$X$X,XgXAXAXZX;Xu.1.1.D.:X;X!.w.7.8.A.V.e.e.e.G.|.XXG.w.w./.<X|.e.3.2.2.^ / l.c.2.~ m E %.W v r %.m.m.S.K.~.",
"0Xo.h l ! $.S..X|.aX<Xe.K { } l./ S b N b B S G A F n.S.$.u 9 q B Q l.2.6.~.e.8 J `.Q.H ! Z.5.b W <XAXXXU 4 E .X.X6.L 7 m _.(.t.4.i.!.-X<XQ.{ P D W Q W / Q / Q S C C W %.z.M.n.z.D.F.K.|.#X,X;XXX6.I W m.D.D.A.N.K.XX2XxX3XgXzXxXoX8.m.P.n.b.b.2.C u 3 5 z.5XZXxX-X-XXX6.v 6.6XaXaX|.A.H.H.A.V.l.$.;.$.%.D D >.L.V.m 4 4 r P 4.-XaXgXpXpX$XS.z.-.F @.:.z.6.XXxX3X[ % @ # # O O @ ; f m 3.H.Y..X4XoX.XU.F.n.D A A Q @.@.Q W z.x.x.G./.7.I Z W 3.8.F.N.%.+.A.:X6XD.7.7.1.$.D D D @.:.:.;.%.F s p t y A z.2.N e 8 p y u p N S x.L.M.%.Z C ~ 6.L 7 - & r OXKXKXFXVX+XD.Y.Y.oX,XyXrXZXLXGX*Xp.J.~.XX+X+Xm.#.E W E k 9 7 7 k 7 - - 2 7 Z Z Z W Z l P ~ ~ I #.#.I P I W I I Z V D C C Z v v C C Z I 3..XoXU.|. X!.!.!./.3X;Xw.<.<.e.7.I 9 k 7.#X*XpXkXg.: @ @ @ % > x [ [ U U [ [ <.1.7.u.!. Xg.p.1.P Z #.7.7.8.m.D.~.F.J.K.D.A.~.i.w.R U 1.{ T P P T T U ' !.<X;X$X;X|.[ z U <.4.U x 9.=XrX=Xg.y.d.dXZXAXyXf.8.m.F.K.D.3.~ P 2.A.D.6.6.3.2.7.6.6.x.A.D.~ P Z m I I P C v m ~ 7.#.#.m.J.XXxXVXxX2X;X;X3X2XgXgX3XpXpXgXdX$X!.7.T #.3.A.A.7.<.4.A.u.e.w.i.!.i.~.t.7.e.w.i.;X;X7.k { 5.2.2.x.c.x.D.x.2.3.#.E I M.F.A.A.A.u.",
"k.` x J W l.c.S.XX<XQ.Y m P 2.l.O.^ E S A a i s A Q G i p a S V F z.z.$.K.zX-X7 8 G.XX1.P m.A.v.H.zXxX~.{ P 2.H.c.1.L 8 m e.;X/.[ [ 0.|.-Xi.1.P W $.@.;._ W $.S S b b W ^ 2.m.S.S.J.~.}.!.@X*XpX,X}.8.m.x.x.x.2.3.%.m.:XcXZXxX3X;X;XoX:XaX<X:XK.#.r 3 2 k G.cXJXFXiX>X~.Z r I OX1XXXK.~ C ! 5.M.v.$.$.@.-.A p :.OX6XK.r 5 I 4.L ' G.>X;X1XJ.x.$.F Q z.M.x.6.~.zXzX4.: @ # # O O @ ; f J 2.7.6.K..XF.F.Y.N.$.C C %.M.P.z.$.W 6.H.}.u.T k c C %.b.b.%.I d e I m.+XH.~ Z C C W $.:.z.z.z.%.@.+.V t t i S $.$.I C u u e 8 u p b ;.v./ v l 7.2XxX#Xw.#.r r 1.6XAXfX X7.%.N.U.oX X/. XBXKXCX@X/.@X-X+XU.8.#.&.@.$.W v r 4 - 4 k R 7.6.4.1.#.E D Z L L 1.1.*.T *.1.3.3.1.*.I I I Z I C m l m Z Z L T .X6X2X3X3X;X X Xg./.$X#Xw.<.<.7.6.&.m l 4.(.pXjXkXg.> * * @ % : f x z f h x z U U [ <.w.t.w.4.<.[ T 1.4.A.}.G.u.p./. X/.f.!.f.p.<.' ] ' <.4.4.e.5.4.' 4.i.|.|.i.] U x x [ W.!.] x z ] [ x x ..f.#XzXgX#Xi.6.J.J.J.H.6.' L T 1.6.e.e.e.V.H.J.~.J.~.K.6.1.Y L I P P P ~ I P Z l L I 8.oXgXZXZXZXZXfXgXgXVXVXgX;Xf./.}.~.6.1.1.#.T 1.6.6.{ 4.G.(.#X@X=X=X@Xf.[ 0.9.r.g.*X2X4.7 g 2.S.c.A.J.~.}.oX}.W.H.e.e.H.H.6.T 7.7.",
"o.` z ! ^ l.z.3.6.5.T P m M E E ! l.l.Q G A a a A B p 5 w p A A F %.2.z.OXAX-X7 4 e.<X~.! ~ 1.l.L.XXXXH.5.2.l.x.5.1.P m H T W.#X]. X|.,X<X-XH.~ $.;.@.Q @.6.A.v.^ ;.z.3.2.A.K.~.`.].-XpXfXCXcXjXjX;XG.A.x.x.z.&.W V I A.XX(.t.[ T 1.x..XxXZXZX,X6.5 5 v 6.;XKXJXSXrX!.5.v e ~ P.OX.XA.#.I 1.6.x.c.z.%.@.-.i t :.6XVX2XU I J.,XW.U 4.(.~.G.7.$.Q @.Q / ;.;.2.H.OX-X<.; @ @ # O O * h g P ~ ^ #.z.D.D.F.m.%.E C C 2.S.P.l.C m 1.H.XXJ.#.D &.z.S.D.z.I r 4 9 e Z ~ W C V D &.%.z.B.n.x.3.b.z.%.D u p i S ^ ~ ~ $.C v 8 9 u u u b M u e T (.cXvXcXyX}.D.T U J.3XoXu.*.I 3..X2X;X/.@XgXCXsX@X/.|.}.D.&.l e Z W 2.3.#.#.L Z 5.XXaXgXaX;XG.6.3.#.I L T 1.4.1.#.#.3.m.D.3.#.I L Z I W I l l m Z Z L T J.oXoX|. X$X2X2X*X@X@X@X$X Xp.u.7.1.1.4.e.w.w.r.d...> : : % : : ; f x x f f f x U [ [ <.<.[ [ <.<.4.' ' <.<.U x ] f.g...` ` [ [ [ 0.y.<.' 0.t.i.G.w.<.<.r.f.w.z 7 % ; x 0.(.f.[ x f x x x > f [ ] [ ] y.7.7.1.<.4.' ' ' T T T 1.e.w.e.t.i.w.7.7.G.H.6.6.1.' ' U H T 1.T H l k k 7 l 7. X2XpX2X2X*X$X$XpX,X Xp.[ [ 7.w.' T { 4.1.1.5.e.| ] W.&XpXkXtXtX%Xd...r.&XjXlXiX%X] g 9 ^ S._.e.7.C.Q.#X,XaXaX#X!.f.t.4.<.4.7.",
"k.` [ Y ^ ^ $.^ W m m P b M M N M E $.Q G A B A A p 5 3 w a A G W ^ 2.A.XXaX(.l 7 4.xXxXK.~ E Q / P I ~ ~ ^ $.2.Z.V.' Y H H 0.#XaXaX2X<XaXxX:XV.2.Q D Q n.:X:XOX.XR.R.S.S.L.OX<X,XpXfXCXFXFXFXCXjX>XG.A.6.7.3.z.W v v m H k 7 7 4 2 9 ~ K.<XzXzXF.e v m.;XcXKXFXrXf.R m m I } 2.x.D.m.m.D.J.~.6.A.M.n.;.Q p 9 F ~.6XxXG.H.ZXKXjXe.T 6.7.~ v C Q -.Q b G Q ;.x.3.4.R 7 * % # O O * h K ~ W E E W ^ W E V v N v b C $.$.C 9 v x.K.F.D.8.A.F.S.D.b.z.W v v b v v v p u V D %.b.b.n.D.F.F.D.D.F.m.I k v W ~ I P I I v 9 9 8 8 9 9 9 r T G.>XdXyX@X#X$X|.Q.7.*.7.u.3.*.Z 1.}.xXxX$X,XfXsXyX X}.|.~.3.e r k I 1.G.~.!.e.7.u.;XzXCXZXZX3X XJ.7.1.1.u. Xp.7.1.1.*.#.3.3.#.I L Z I I I P m L L P L m l ' 7.7.3.7.8.J.oX;XpXfXBXZXBXfX#Xw.4.u.}.!.' x x x x h > : : : : > > f x f ; > f x x x x ` [ [ ] 0.[ x x x x h h x ..` > > > f > x ` ` ` ` [ ` x x x [ ] ] ` f f : ; ; z <.[ x x f f f z z f f x x x z [ U ' R U z U x x z U ' ] 0.w.0.0.4.' U ' e.e.4.| ' 4.4.' U U [ z z z z z g ; > f x x ` [ ] ] <.9.9.<.` x x U [ U z [ e.t.4.w.w.w.0.d.*XsX%Xs.j.h.s.s.h.iXkXlXtXd.[ l k P 2. .T ' | 4.w.!.;X=XsXCXrXh.f.^.!.i.",
"eXo.[ U P S / W V M N C E S M M J P E E S S S Q Q ^ Q A B G ^ z.l.5.V._.<XaX-X1.C 5.-X5X.X6.^ S b 8 c m m I ^ c.H.H.{ T T [ 0.#XaXaX-X/./.,X2XXX2.W D %.R.AXzXOXF.3.z.M.P.L..XXX#X,XsXfXdX>X].#X-X!.V.G.V.A.`.:X~.I k 8 4 2 v v 4 4 5 p D 3.K.+XS.2.x.XX2XfXjXsXd.[ L ~ A.~.e.I ~ 6.J.:X6XaXaX`.6.2.z.l.) F i i E S.OX.XXXKXLXKX|.L m W v.%.S A F F b A Q >.z.W m l 7 ; > : @ O # h { } W M v v k 9 9 9 8 e e e r 9 4 4 4 &.K.K.m.8.A.K.U.D.6.7.#.&.W W $.D v V P W W &.b.D.F.R.U.OX4X+X.X:XoXu.R P ~ { I H l Z m e 8 e 9 7 7 7 e m.;X&X%Xg.f.g.g.$X#X/.i.7.1.6.7.*.I 1.~.aXgXzXZXjXdX;X}.J.D.W 9 e I 3.6.!.-X~.e.e.!.dXZXfX$X X!.i.u.7.7. X2XgX*Xa.<.1.#.#.T L L m Z L I I I L P T P P L L l I *.T *.I R R 7.}.,XpXfXpXfX$X Xe.w.W.2X2XW.[ x f x z f > : : : > ; > > > > ; f f > : > x z z z x x f f > f h h > > > > > h h h x > > x ` ` h > h x ` ` ` h f x x x x x x f f x x z z z z x x z [ [ ] [ z z U x f ; ; f z z [ z ` [ ` [ [ [ z z [ 4.' [ [ ] 0.[ [ [ [ x z [ [ [ [ x > > > > f x x x ` ` ` [ ` ` [ [ [ [ [ [ y.t.0.0.0.r.f.g.[.h.s...s.s.` 9.s.g.j.h.[.9.[ K K z K H [ 7.4.U U [ <.9.rXJXKXrXd././.i.",
"0Xs...z k 8 8 b G u u E E / E ( ! 2.x.v.l.l.;.;.l.I.L.c.E E l.M.P.H.~.:XxXcX2XV.! 1.G.J.V.$.Q S b M ^ x.6.1.1.V.Q.V.' ' { { q.>XzXdX,X/.p.!.|.J.x.@.+.%.+XxX;XD.I 5 5 u C #.e.w.w.y.0.[ z f 6 7 l ' G._.G.Q.<XcX1X' m c u p A A b u i i p 4 7 l Y 4.`.XX/.f.'.'.4.U { Q.<X<XA.T 4.|.2X,X2XZXvX-X~ Z W ^ ^ S p t 5 u 1.6.~.CXJXFXG.l k ;.P.B.D S A V i F @.-.;.$.I 8 - f [ > @ O @ h { ^ E C C C Z Z v e v Z Z k 9 4 2 4 v x.XXXXe.e.A.D.K.K.6.4.1.~ W E C u r r ~ V.A.A.D.K.+X4X6X6X2X}.p./.|.i.' T 1.1.T 1.5.{ P k m m l k g 9 l G.xXaX#X|.$XoX*XyXsX2X X7.*.T <.*.L 7 k 7.|.pXZXZXcX;X}.A.3.Z r C $.x.e.e.i.w.w.<.w.$X,Xg.R l g H 7.7.p.$XVXBXpXr.<.1.#.T I m l m L P I R T R T T T L L L I 1.1.1.1.*.I L <.p. X$X X/.g.p.w.e.4.w.|.;Xi.[ f f f f > > : : : ; > ; ; f h f f f f > > f x x f f f f f f h ` ` x > h x x x ` ` ` x x ` ....` x x ` ` [ ` x x ` ` x z x > f f x U [ [ ` x x h x x x x > : : > ; : > f x ` ` ` x x x x ` ..] [ z z [ U [ [ ] 9.9.9.......9...9.0.0.[ ` ` ` ` [ [ ` x x x ` ..9...9.r.9...` h f f h x ` ..r.d.s.........` ` 9.d.9.....9.9.] ] [ U U U ] t.w.4.4.4.] <.d.sXkX%Xa.d.t.r."
};
