/* XPM */
static char *_fceff36e70945d6a77c5bb021e8a376fOpzfyz5nD5tIQfy[] = {
/* columns rows colors chars-per-pixel */
"152 40 244 2 ",
"   c None",
".  c #08335E",
"X  c #052850",
"o  c #023B6C",
"O  c #094677",
"+  c #114B78",
"@  c #15557F",
"#  c #0A426A",
"$  c #0B4D83",
"%  c #0A558B",
"&  c #165B8C",
"*  c #165885",
"=  c #0A5C94",
"-  c #055C96",
";  c #135D94",
":  c #1B628C",
">  c #0C649C",
",  c #0A669B",
"<  c #1C6494",
"1  c #12649B",
"2  c #1C6C9B",
"3  c #196698",
"4  c #1B719F",
"5  c #236D9B",
"6  c #256A94",
"7  c #23729D",
"8  c #2C789F",
"9  c #33779C",
"0  c #2D6788",
"q  c #0C6BA6",
"w  c #0A68A4",
"e  c #196DA5",
"r  c #0D72AC",
"t  c #1373AC",
"y  c #1B75AB",
"u  c #1D7AAD",
"i  c #1974A8",
"p  c #0B76B3",
"a  c #157BB3",
"s  c #1B7CB3",
"d  c #147DB8",
"f  c #2374A3",
"g  c #2C7BA5",
"h  c #247CAC",
"j  c #2B7CAA",
"k  c #2676A6",
"l  c #317BA4",
"z  c #237DB1",
"x  c #297FB2",
"c  c #206CA2",
"v  c #1C84BB",
"b  c #1A83B9",
"n  c #0E81BF",
"m  c #2B81AD",
"M  c #3482AA",
"N  c #2483B5",
"B  c #2B85B4",
"V  c #2D89B6",
"C  c #2284BA",
"Z  c #2C86B9",
"A  c #248ABD",
"S  c #2C8BBB",
"D  c #3385B3",
"F  c #358AB3",
"G  c #328CBB",
"H  c #3A8CB7",
"J  c #2D91BE",
"K  c #3391BE",
"L  c #3B92BD",
"P  c #4A95B9",
"I  c #5299BC",
"U  c #4389AE",
"Y  c #6398B6",
"T  c #1A89C5",
"R  c #1F94CB",
"E  c #248CC2",
"W  c #2A8EC2",
"Q  c #238FC9",
"!  c #338EC1",
"~  c #2693C6",
"^  c #2C93C4",
"/  c #2494CA",
"(  c #2C95C9",
")  c #2D9ACC",
"_  c #2B99CB",
"`  c #3394C4",
"'  c #3A95C3",
"]  c #3499C7",
"[  c #3C99C5",
"{  c #3296C9",
"}  c #349CCC",
"|  c #3B9DCB",
" . c #2C9DD2",
".. c #269AD2",
"X. c #339ED1",
"o. c #3A9ED1",
"O. c #36A0CF",
"+. c #3CA1CE",
"@. c #35A2D3",
"#. c #3CA4D3",
"$. c #3EA9D6",
"%. c #3DA6D9",
"&. c #3DAAD9",
"*. c #34A5D8",
"=. c #35AAD9",
"-. c #3FB5E4",
";. c #439BC5",
":. c #429ECB",
">. c #489BC5",
",. c #4A9EC8",
"<. c #44A2CE",
"1. c #4BA3CD",
"2. c #54A4CB",
"3. c #57A4C7",
"4. c #43A5D3",
"5. c #4BA6D2",
"6. c #44A9D6",
"7. c #4CAAD5",
"8. c #44ACDA",
"9. c #4BADDA",
"0. c #40A5DA",
"q. c #53ACD5",
"w. c #52AEDA",
"e. c #58ABD5",
"r. c #45B1DD",
"t. c #4CB1DC",
"y. c #5AB0D7",
"u. c #54B3DD",
"i. c #5BB4DC",
"p. c #5DB8DE",
"a. c #56B1D6",
"s. c #62A6C9",
"d. c #63B6DD",
"f. c #63B9DE",
"g. c #6BBBDE",
"h. c #62B1D5",
"j. c #79BDDD",
"k. c #73BADD",
"l. c #61AFD4",
"z. c #4CB5E1",
"x. c #4DB9E4",
"c. c #44B4E1",
"v. c #54B6E1",
"b. c #5BB6E0",
"n. c #55BAE3",
"m. c #5CBBE3",
"M. c #5BBEE9",
"N. c #56BFE9",
"B. c #45AFE0",
"V. c #63BCE2",
"C. c #6BBDE3",
"Z. c #63B6E1",
"A. c #72BEE2",
"S. c #7FBFE0",
"D. c #78C1DF",
"F. c #55C2EB",
"G. c #5DC3EA",
"H. c #5EC3E7",
"J. c #5FCCF0",
"K. c #65C1E6",
"L. c #6CC1E5",
"P. c #63C3EA",
"I. c #6CC5E9",
"U. c #6CC9ED",
"Y. c #64CCEF",
"T. c #73C3E5",
"R. c #7BC5E5",
"E. c #7CC8E7",
"W. c #74C5E9",
"Q. c #7AC6E9",
"!. c #75C9EB",
"~. c #7CCAEA",
"^. c #68CDF2",
"/. c #77CDF1",
"(. c #6DD3F4",
"). c #7BD5F5",
"_. c #76D7F7",
"`. c #7BD0EE",
"'. c #82C6E6",
"]. c #84C9E7",
"[. c #8BCAE6",
"{. c #82C6E9",
"}. c #84CBEA",
"|. c #8BCDEA",
" X c #8AC7E0",
".X c #94CEE6",
"XX c #92CEEB",
"oX c #99CFE9",
"OX c #84D1EE",
"+X c #8DD1ED",
"@X c #94D2ED",
"#X c #9BD4ED",
"$X c #9BD7ED",
"%X c #85D4F3",
"&X c #8CD4F1",
"*X c #88DBF7",
"=X c #94D5F1",
"-X c #9CD6F0",
";X c #94DBF3",
":X c #9CDAF2",
">X c #9ADDF8",
",X c #A3D5ED",
"<X c #A4D9EE",
"1X c #ABDAEE",
"2X c #AAD6ED",
"3X c #B0DBED",
"4X c #A4DBF2",
"5X c #ABDCF2",
"6X c #A1D7F1",
"7X c #B3DEF2",
"8X c #B9DFF1",
"9X c #97E3FA",
"0X c #81E0FA",
"qX c #ACE1F5",
"wX c #A7E7FB",
"eX c #B4E2F4",
"rX c #BCE3F5",
"tX c #BEE8F7",
"yX c #B4E6F9",
"uX c #BDE9FA",
"iX c #B9E7FA",
"pX c #B4E9F7",
"aX c #C5E6F5",
"sX c #C3E6F4",
"dX c #C9E6F5",
"fX c #C4E8F7",
"gX c #C9E8F6",
"hX c #CCEAF6",
"jX c #C4EAF9",
"kX c #CDEDFA",
"lX c #D3ECF6",
"zX c #D2EDF9",
"xX c #DAEEF8",
"cX c #CEF2FD",
"vX c #D4F2FC",
"bX c #DCF3FC",
"nX c #D8F7FC",
"mX c #C5E1EF",
"MX c #E2F4FD",
"NX c #EBF9FD",
"BX c #E8F7FD",
"VX c #F9FCFE",
"CX c #E3EFF4",
"ZX c #C3DFEE",
/* pixels */
"s.f.C.T.=X].<X7X5X,X}.4XzXzXlXlXzXaXrXeXrXjX+X:.m.v.4XMXaXgXaXaXgXsX7X@X8X<XT.5X,XsXxXxXzXzXsXe.8.L.b.L.|.@X@X$XbXbXzXaX5XxXBX#X7X7X} #XsXrXsXhXgX1XaX1X8XgXaXsXaXaXgXgX7X5XdXeX}.XX,X5X4XrX} 6.@XW.K.+Xu.0.b.K.&.R.lXaX@XW.'.<X6XXX#X@XXX#XR.'.@X<X|.].i.R.R.u.C. .*.vXXX}.$XsXbXlXgXkXbX7X#X@X7X1XXX5XrX#X=XR.",
"3.u.i.g.:XXX#XeXtX,XT.,XxXhXkXlXhXrX8XgX8X[.i.[ C.m.L.xXhXgXsXtXsX7X7X,X1X$X@XaX1XgXzXbXgX8X#X` 9.b.u.C.T.R.4XrXgXxXlXgX<XgXMX$X.XzXq.T.5X1XrX2X8XrX8X2X8XhXdXlXgXrXxXbXv.#.rXgX}.|.#X5X5X5XT.u.~.~.8.T.V.8.t.v.T.L.].hX1X+XR.5X,X@X].R.|.|.~.R.|.$X@X{.C.R.R.p.V./ @.vX].T.+XkXbXtX5XgXkX#X#X6X<X$X@XXX<X|.=XT.",
"g.C.L.~.T.-X5XeX5X,X,XsXbXfXeXzXgXeXsXNX6X%.} } n.n.T +XbXtXsX8X5XrXlXrXT.{.$X5XfXvXMXBXxXNX|.T *.u.b.Q.{.c.|.ZXeX5X5X|.R.rXeX|.K.6Xg...@XgXeX$XzXxX1X#X2XMXxXvXvXxXVXbX#.~.4X}.|.}.}.#XrX,XL./.&X+XL.I.V.8.V.i.!.W.C.5XhX#XT.7X|.#X#X<X<X-XQ.%.I.V.m.!.u.~.C.C.z.n.7.qXf.T |.kXbX6XqXrXtX@XL.iX:X1X,XXX|.Q.=XA.",
"l.C.Q.Q.f.+X#X#X[.,X8X8XhXrX5XaXsX7XzXBXb.m.b.o.%.%.n Z.tX#X#X,X5XeX8X#X8.=XrX@XzXbXxXbXzXNXd.} X.v.V.Q.{.b.L.R.5XvX5X#XrXxX5XC.9.V.u. .R.zX$X{.aXkXaXoXf.fXsXgXvXBXvXV.t.OX!.+X}.}.}.{.5X@X..M.u.L.m.m.9.@.@.5.L.L.v.M.@XtX#X|.'.5XrX7X@X:X~...$.6.9.i.b.&X{ !.b.n.u.#X4X .o.5X1XR.6X4XkX:XK.u.{.aX3X,X].R.].V.",
"2.i.i.f.d.{.].}.4X7.u.{.#X4XtX5XrXrXkX:XB.!.I.9.0.@.T o.uX4X@X$X7X@X|.5X9.4XMX#XbXMXfXeXzXhX%.@.@.z.V.L.~.L.L.Q.V.5XkXhXdXXXT.Q.y.9.m.T.}.tX5XW.5X7XvX5X4.R.R.R.4XR.!.8.v.K.t.T.Q.{.|.~.=X6XX.n.4.u.+.5.t.P.m.#.b.T.m.z.b.jX|.C.+X:XrXiX+XW.C.R t.v.t.u.v.q.b !.b.%.&.C.Q.Q 7.g.@Xf.T.#XuX=XI.T <.fX1X4X].Q.T.i.",
">.9.9.u.b.~.f.C.L._ C.|.R.'.:X|.,XrX[.6.m.}.C.w.8. ./ T 4X:X#X,X4X=XR.6Xn u.vX5XrXrXeXtXbX$X..}  .v.V.C.T.n.z.E.{.T.-X-XV.%.R.@Xe.o.b.&X~.$XeXL.7X5XeX[.i.T.'.T.g.!.@...t.I.u.V.Q.~.}.{.|.4XA.} / %.8.y.#.H.).t.v.C.b.v.8.L.v.8.9. .0.I.I.m.I.8.t.t.$.0.&.A 4.b.9.v.8.d.i.b 4.b.kX|.E.&XL.t ` d v g.L.@X}.C.d.q.",
"3.t.9.v.u.u.) 8.i.u.-X@X].E.~.'.1XfX5.%.&X&Xb.@.%.) @.d ~.4X4X4XeX4XA.R.p Q eXtXeX1X$XeXMX[.R }  .8.L.m.m.b.z.V.R.{.T.L.C.C.}.i.y.q.9.Q.}.@XfX$XgX8X#X|.#X[.].'.rX*Xp T 4.=Xi.W.~.}.|.|.@X$X-Xi.E t } ).v.n.P.v.L.V.$.v.t.8.n.z.9.%.r.9.$.8.C.V.n.u.8.8.%.y 5.9.u.p.9.C.b.b } n.BX$X#X@XI.r t a { f.C.T.T.y.w.i.",
">.8.| 7.q.#.@.#.u.V.|.XX|.Q.C.R.kXQ.a u.%XQ.9.( @.@.@.v 4.4X#X4XjXeX+X}.d ~ MXgX8XhXXX#XkXf.T X.0. .K.b.n.V.C.V.V.{.~.T.Q.|.T.#.d.f.6.u.T.~.sXeX,XtX#X|.$XR.R.@XnXo.w T T qXi.W.Q.}.}.|.@X@XeXA.C = E (.m.M.n.b.|.Q.8.v.n.t.v.v.b.z.v.m.v.r.b.C.u.v.t.x.N.1 | m.i.u.u.!.4.r 4.| MX6XiXyXC.a N A 7.9.b.i.C.i.y.7.",
"I 4.<.u.y.#.} W } i.R.#X].|.L.].rXv b u.%XQ.9.) %.@.@.} T =X#X-X4XeXR.C.w C vXqX1XrX#X=XqXi._ #.z...P.V.t.m.C.C.V.C.C.L.W.R.i.5.d.f.9.9.C.~.5X#XR.fXXX'.$X#X@XjXvXr v Q T 4XT.~.Q.].}.}.|.|.rXR.A % } U.m.n.9.b.#XL.u.b.r.z.z.t.t.t.t.u.u.v.m.K.t.b.u.v.n.= W (.u.u.p.V.[ r #.^ bXiXtXvXW.y | { u.{ 4.9.9.u.i.:.",
"I 9.6.q.u.8.} C #.W.R.|.].R.~.R.g.C ( 4.~.~.9.X.#.@.( +.v e.iX4X4XtXd.7.> z +X~.6X8X4X-X4Xu. .o.x...z.L.u.I.W.C.C.C.C.W.C.i.u.u.f.y.7.7.V.C.].XX{.MX'.A.fXbXtXgXg.r 9.4.p q.T.#X{.].].].|.].5X|.A > x.U.K.P.t.9.#Xu.b.L.%.r.c.r.9.9.v.V.i.b.m.V.u.b.n.G.6.= S P.u.u.m.u.{ v #.#.kXiX1XcXj.w ` ! n.:.9.i.} d.T.>.",
"h.L.y.v.9.8.z.#.i.=Xb.%.C.}.+X4.} 9.I.%.N.P.} } { ^ A X.^ y iXqX<X#XoXV.d #.G.u.|.@X@X@X~. .#.8.m.9.8.v.u.V.+XR.V.T.m.L.b.0.9.w.b.p.u.9.i.C.K.C.#.hXXX#XxXxXsX+.E R.V.V.%.=.XXrX~.Q.Q.Q.Q.Q.=XQ.h G J.C.K.I.t.%.L.u.[.[.p.9.0.u.9.6.6.t.7.@.#.C.#.t.9.n.` O N.t.+.+.W.!.^ 8.$.v K.nXhXnX>.> :.2 #.N ' b.q.`.9Xu.",
"l.*X~.b.b.m.P.#.9.'.C.9.L.R.C.7.6.9.).6.r.$.t s #.@.` { r.< g.#X<X.X#X5.t 8.&.*.C.{.[.|.p./ 9.u.V.V.b.V.b.u.W.C.v.u.t.b.i.t.V.C.u.b.u.9.u.i.V.u.T R.8XdXCXmX<X#.b.iXp.i.8.@.D.XXQ.Q.L.T.R.T.{.!.c Z J.m.b.u.#.8.9.8.XXk.t.9.4.u.7.t.%.$.9.#.} Q.4.8.} 8.#.O U.t.| #.u.V.} 9.#.s b f.uXBXL h ' B N.N ' v.} 4.v.8.",
"P I.1.] o.4.u.^ f.'.4X$X|.{.Q.y.7.7.!.t.x.{ > z f O . . 1 o G 9X#X[.6X! w #. . .V.W.L.u.@.X.9.9.b.b.b.L.b.u.L.b.u.t.t.9.8.v.i.C.u.i.9.7.i.u.u.v.#.|.dXrX7XA.@XA.4.T.9.6.6.%.eX:XT.I.C.L.W.C.!./.; ! Y.9.m.K.M.z.} +.j.9.u.9.4.u.#.9.4.%.9.9.#.K.9.6.( r.#.O /.8.4.u.5.u.w.w.#.C v t D P 2 B [ [ X.{ 9.` e k j ` ",
"P i.1.9.t.t.9.A ~.C.C.f.V.T.}.w.| b.I.4.6.^ C t O $ 1 u ( 2 e :X@X}.-Xx w @. .@.v.v.t.%.8.t.9.8.t.u.0.v.b.t.C.u.u.v.b.v.0.t.b.C.u.i.$.0.p.t.5.u.V.'.].|.u.4.-XXX7.I.6.%.$./ V.T.b.v.b.b.m.b.I.P.3 ` ).9.F.P.G.r.} 6.d.5.u.9.0.9.#.6.6.6.8.7.6.b.4.8.@.G.} ; ~.` 9.K.u.n.L.V.w.W A C N 1 > { 9.' S Z i k 2 3 3 u ",
"  g.T.!.q.| 4.^ }.C.#.#.#.7.9.#.#.).I.( ` b v d <._._.0.@.[ 3 |.$X|.OX! 1 X.*.#.t.t.t.t.b.u.t.9.9.b.8.u.V.t.b.b.9.t.v.t.u.b.i.V.u.i.#.8.i.9.4.b.p.f.C.=XR.A.=XT.#.m.%.0.8.X.4.9.t.u.u.v.u.v.n.m.1 u Y.#.@.@./ _ ] 4.7.7.9.9.6.6.6.4.8.6.8.8.6.u.+.8.#.Y.r.` p.e } | 4.#.v.P.K.9.#.$.x.t.S :.t.K { h u | } #.0.) ",
"  2.M ! ' | [ x C.L.u.b.m.b.b.V.9.K.5.A ^ ] 4.u.(.H.7.1.} | 2 y.4XC.C.:.= o.x.%.0.u.u.8.t.9.8.9.8.u.8.u.C.i.b.b.t.u.u.t.z.t.9.V.u.t.X.6.9.6.6.C.i.i.u.p.4.7.y.5.%.t.#.6.8.#.%.8.t.t.u.u.u.8.8.M.= e F.} _ r.} ( | #.4.6.6.6.6.4.6.#.6.6.0.4.6.t.#.8.#.r.A > f z +.} 6.^ } v.t.8.5.#.#.<.S | 9.Z 8.0.$.8.8.z.z.r.",
"  k.eXL.e.V.d.2.u.b.u.b.m.u.t.T.E t W } u.!.&X%X} { } 4.@.} z :.U.4.i.5.% { M.8.6.t.9.8.8.8.8.8.8.t.8.t.b.p.b.i.t.t.t.t.9.8.8.u.9.9.$.t.6.9.4.t.u.#.| { v C u y ~ @.@.@.$.@.%.%.#.+.#.6.8.#.%.%.o z F.O.@.z.@.^ 4.6.4.4.6.#.#.+.$.#.@.#.8.#.4.u.] #.} ^ s #.B v #.#.t.8.8.I.r.O.} } ` +.+.u.I.9.8.&.&.%.@.*.O.#.",
"  s.fX4XD.&X=X~.u.9.#.9.6.) #.m.{ q.C.~.:XR.W.!.n.8.) E ( ^ C C 9.5.d.2.q v.V.v.9.9.9.9.8.8.0.8.9.8.8.8.9.8.9.8.8.t.t.9.t.9.t.v.9.9.8.n.6.t.9.9.V.u.9.<.C s N N ) X._ ) } ) ) X.^ E E ^ { o.| { $ ) c.} $.%.} ) S ` W | | } ] ) $.%.} @.8.| E #.) } A } 8.^.G s { } 4.v.#.P.#.b ] #.#.8.$.v.I.m.8.8.$.#.%.&.r.9.",
"  8 d.V.1.XXQ.C.#.#.6.O.+.( ^ 6.| u.C.C.f.C.!.~.}.i.5.| N y y y S X.^ ^ W ^ @.8.4.5.9.u.9.5.u.b.8.#.9.v.8.#.} ~ } } ) } ) ( ^ ) 4.5.| ` #.$.-.t.` s = - % - t W r t a r w w s 2.4.s q w - % - t q , a t > > i s C r q h , , r u v n b v ) v w > a v s N B e 1 f 4 - = , w N L 2.' ^ E v a s 6.t.7.f.w.6.4.| w.L.",
"  U L.w.d.#XC.U.7.i.f.d.R.].{.}.9.Z.T.L.T.W.+X}.iX:X}.m.#.{ C A S } Z y = > v ^ { A C A v v } | b d T / _ / ~ E / ) _ / / _ ) _ } 4.W v | { t ^ t S y.i.1.p.f.g.j.].=X@X@X:X#X;XjX4XuXqXOXT.h.y.2.G s A s y S u b E ] p.9.<.| | ' ' L 2.1.;.[ L K ` K z B K ' ,.| | 7.b.K.~.;XwXA.9.b.C.i.f.C.p.L.T.V.C.C.u.+.q.",
"  I 9XQ.:X@XT.C.u.T.Q.}.@X|.E.}.V.~.~.T.W.W.C.5.w.8.b.t.8.9.8.#.#.{ % ; G +.#.E S G G Z s u ! ' C ^ W ` { ^ 5.e.5.w.y.y.d.d.p.i.,.7.5.:.` ' $ e = S.pX+XyXcXkXcXvXgXfXtXrXfXjXeXxXMXNXVXVXVXVXNXNXBXlXtXkX<X~.#.tXjXeXhXbXnXtXrXkXfXsXxXbXnXcXvXuXeXeXyXqX9XW.T.} t.~.OX@X#X4XqXrX5XjXfXjXiXyX6X7X@X].}.@X#XR.Q.",
"  U *X}.;X|.~.d.9.6.@.@.@._ ~ } +.i.d.4.9.9.#.o.9.4.4.X.^ { | ^ <.G o % U.wX>XW.}.&XwXwX=X5XiXuXvXBXNXNXBXvXbXkXeXrXeXrXgXgXgXgXR.@XyXpX<.Z e K.%XQ.i.V.R.T.g.d.4.4.q.7.7.u.i.p.T.T.g.T.T.].#X,X+X@XqXQ.C.q.4.G.=X@X@X].R.R.E.E.9.6.4.#.#.9.u.u.T.OX;X+X+XU.u.%Xv E i.m.L.T.T.E.}.].'.R.C.g.T.T.|.6X+X{.|.@X|.@X",
"  I %X~.~.T.C.f.j.1X1X1X1X<X<X3XR.+X~.T.|.|.@X#X4XqX=XR.g.i.1.{ F.%.% y ^.%X~.C.}.}.OX~.V.C.T.C.y.y.C.E.].R.~.W.|.|.|.|.|.XX+X@X{.|.$X:X} r | wXwX~.!.C.L.T.C.C.C.L.Q.K.m.R.Q.W.+X|.T.R.W.C.T.W.!.I.L.b.M.6.K.9XT.T.W.~.}.|.|.+X=X-X#X@X+X|.+X~.I.!.`.K.C.b.m.).r ^ =X~.!.Q.~.~.R.E.{.].{.].}.}.].@X@X@X#XXX|.].",
"  s.Q.T.~.g.C.i.R..X X.XoXoX#XoXT.T.C.L.}.+X|.|.|.@X$X5X7X4X:X:XP.r.@ o P.*X~.!.!.Q.~.!.W.!.~.~.}.~.Q.T.T.T.T.L.W.Q.W.T.L.R.}.}.R.R.$X+X#.t o.wXW.C.L.V.K.L.I.T.V.T.E.T.V.T.W.T.E.].'.{.{.R.E.T.I.!.L.K.V.} w.wXT.W.T.L.Q.R.{.{.{.|.@X#X:X@X+X|.!.!.~.!.L.T.%XI.r 4.4X~.W.T.~.~.R.R.'.'.'.'.|.{.T.~.'.].XX[.|.|.",
"  j.Q.T.W.g.g.q.|.[.k.j.j.j. X.X'.'.Q.W.].{.W.~.oX[.[.|.].|.|.@X(.~ % o 8.9X~.Q.L.L.~.Q.L.L.L.L.].].{.Q.Q.~.T.L.].|.|.}.{.{.}.}.W.T.#XT.E q u.wXn.m.m.m.V.m.V.C.b.C.W.T.V.C.L.T.R.R.R.R.R.R.~.'.T.T.Q.L.C.t.| uXC.C.L.C.C.C.L.C.R.].|.|.].'.].{.~.~.!.!.T.T.OXC.a t.#X~.W.T.R.Q.R.{.{.].R.R.|.R.V.R.R.R.|.|.].XX",
"  j.T.W.C.h.f.d. X.X[..X.X.X,X3XXXXX].R.+X@X}.|.#X#X$X$X|.|.=X:X_.b e % v *XL.C.L.L.L.T.C.V.K.C.R.R.R.R.R.W.T.L.].].'.'.{.].{.E.R.T.+X}.~ , k.pXC.C.b.p.V.b.V.V.C.V.T.R.T.C.b.b.T.T.C.A.T.L.C.L.{.|.oXR.L.u.{ iXT.C.C.C.C.C.V.i.R.E.{.].'.'.|.].'.~.T.T.W.L.W.m.z v.@X}.~.~.}.|.R.R.'.].R.T.].T.T.Q.T.T.].].R.@X",
"  L.*Xi.7.q.i.f.R.[.[.R.].R.f.C.T.|.5Xu.T.XX@X@X{.#X4X#X+X|.~.!.~.w.| % Z 9XQ.I.4X~.&X+X9.9.v.v.V.p.C.T.T.C.T.{.C.C.V.C.L.T.R.C.E.].@X;X' $ 1.*X+XT.C.T.f.i.i.V.p.i.b.V.i.u.t.t.b.C.T.'.C.L.|.|.Q.T.L.K.I.t. .4XT.V.L.L.p.i.i.9.L.C.V.C.L.T.Q.T.E.R.Q.T.T.E.!.u.$ Q.&X~.~.R.{.T.C.C.W.|.C.C.{.V.'.[.|.].|.].R.A.",
"  f.(.:.5.y.V.i.R.R.A.u.f.T.C.V.L.|.<X9.].@X@XXXV.|.+X|.#X+XQ.C.f.i.<.$ G ).C.L.y.| T.:Xu.8.t.9.A.C.A.A.C.T.R.].V.C.V.V.V.C.C.C.T.R.R.*Xf.% 9.).i.9.4.0.u.p.u.u.9.9.9.u.u.t.9.u.b.b.C.R.C.t.b.b.L.C.V.m.K.H. .=XV.#.b.u.9.t.t.9.b.V.t.i.b.b.C.C.L.C.V.L.C.T./.M.O ).&XT.T.C.C.V.C.C.T.|.g.p.T.f.k.R.].R.'.R.i.d.",
"  <.M.:.5.y.i.u.C.R.C.9.V.C.C.C.C.R.@Xu.|.@X#X|.9.C.V.V.Q.}.!.u.q.w.' % | _.i.b.6.4.b.}.9.$.t.8.C.R.[.].|.[.|.[.V.V.b.V.b.b.C.L.T.C.i.E.b.5 7.K.i.u.9.4.V.E.f.u.@.@.@.#.%.%.8.6.t.9.t.t.%.*.@.*.b.M.m.v.m.M.=.!.X./ W.6.8.8.t.u.t.u.8.9.u.u.p.C.V.b.b.V.i.u.v.8.O /.&XC.C.V.d.i.A.C.V.'.[.f.'.i.C.R.R.R.R.T.i.i.",
"  [ G.5.5.q.q.<.u.R.f.0.V.C.C.i.L.|.#X9.C.#X@XXXv.z.c.&.&.z.z.%.:.9.G % #.(.u.t.V.p.f.}.8.$.9.8.i.V.V.w.u.b.C.T.b.b.v.b.u.u.b.C.T.R.g.T.` & 4.9.f.u.w.w.i.f.u.6.X.X. .X.@.@.*.%.%.0.8.u.t.8.9.u.t.n.u.&.8.r.*.U.} @.L.@.9.9.9.t.u.u.8.4.t.i.u.u.b.u.u.b.b.m.v.#.$ ).~.C.C.L.C.f.C.T.9.C.#Xp.T.i.C.R.A.g.R.f.p.C.",
"  P ^.v.w.<.5.4.5.p.f.8.p.C.C.C.V.].XX0.V.,X#X6Xu.v.z.z.r.z.r.&.[ ` [ & 5.^.9.8.d.u.i.}.$.%.8.8.%.9.t.u.b.b.V.L.b.u.v.b.u.u.u.t.f.L.p.!.G $ n.7.u.7.4.4.#.} } } #.6.$.#.0.4.#.$.%.6.t.u.t.8.0.9.t.b.M.%.r.x. .C.u.u.i.#.i.i.9.9.u.u.9.@.@.9.9.t.b.t.t.u.b.V.v.} & *XL.V.m.V.V.p.f.T.u.V.#X9.d.f.C.C.d.w.g.f.f.u.",
"  F ^.M.w.1.1.4.5.i.d.6.v.i.b.C.u.i.A.i.b.oXQ.u.9.z.8.8.8.t.B.&.u.' b.; | N.| +.i.u.u.~.#.@.8.6.%.t.t.t.u.i.V.C.u.9.9.u.t.9.t.t.p.p.y./.` % F.<.#.4.4.6.8.4.#.#.} #.#.#.#.#.#.#.@.#.0.t.8.$.%.0.u.t.@.) N.P.#.L.4.#.w.4.9.w.7.7.9.9.u.#.) X.6.9.u.t.8.t.n.n.t.E < 0XC.p.u.t.u.i.y.f.u.L.@X7.i.V.f.i.e.q.f.A.~.u.",
"  g (.M.9.:.[ 7.7.i.f.6.u.u.u.u.#.p.g.w.u.T.#./ 0.t.8.8.8.8.8.&.b.:.G.j ' x.] ] u.u.w.~.4.@.6.6.0.t.9.9.u.u.i.i.9.9.0.9.8.6.8.t.i.y.y.U.V ; F.| #.#.#.4.4.4.#.#.] } } } +.+.@.#.X.} X.#.$.@.@.#.+.$.} A %.v.^ m.} 9.7.4.9.u.9.5.6.4.9.9.+.} 6.u.u.9.8.6.9.z.+.e f _.C.u.t.9.u.u.i.i.y.T.R.u.f.i.p.i.y.y.g.f.{.OX",
"  M ).m.9.| ` 4.{ 5.d.+.8.u.u.b.#.T.].b.u.4.E ( 8.t.8.8.%.%.%.@.7.u.U.B F t.#.| t.u.7.V.+.#.#.#.%.0.5.9.u.u.t.t.6.9.6.8.9.4.6.9.u.u.u.U.L & x.6.#.#.| +.+.} } } ] } ] } } } #.O.} X.} X.#.@.) ) } *.t.A W #.^ N.` u.5.4.u.y.u.u.9.#.8.9.7.| #.w.9.9.0.4.6.N.| = m _.p.t.t.t.u.u.u.u.w.i.f.C.f.u.y.p.y.q.y.y.d.OX",
"  9 x.[ 5.5.[ } V V.y.[ 7.u.9.t.7.2.9X1.d.7.:.<.8.0.$.$.#.#.8.*.p.K.(.6 f %.} @.#.9.w.5.6.9.4.#.#.4.#.9.f.7.<.+.4.6.6.9.9.9.8.9.6.9.9.P.[ 2 ` ] &.#.| | } } { ^ ( ] ] ] } 4.+.( ] | | +.+.#.#.| 6.6.n.:.k 4.+.#.` | r.| 4.4.6.#.5.5.i.y.p.| S 7.#.0.4.#.0.t.F.4.< F.<.i.9.u.V.u.p.i.q.7.u.u.9.v.8.9.w.q.u.i.q.f.",
"Y 9 6.' ;.<.<.| G w.7.' 5.u.9.6.1.1.wXH a.q.<.:.#.#.#.#.#.$.%.#.1.N.G.. f c.} } | 4.9.| 7.6.+.} } } | i.1.5.5.1.#.6.8.8.0.$.#.#.#.6.4.u.' 7 B K ) { { ^ ^ ^ A S ^ S { ] ] | | ^ ` ] +.| +.+.+.+.6.| #.M.f 2 | S C ] 8.{ { } +.{ ` | 5.5.q.| A v.+.4.4.| } #.x.D O F.[ 7.4.9.9.u.i.a.7.<.7.6.| #.<.:.1.1.7.f.2.2.",
"  9 | ;.;.[ 5.<.k ;.1.G 7.7.5.4.2.2.;Xj u.b.u.7.+.#.#.4.#.4.4.#.1.t.F.X k -.} ] | 4.9.4.n.t.4.` } | ' i.>.9.q.7.6.6.8.6.#.#.| ` #.4.<.u.[ 2 h V S ^ ^ S ^ S N S A B S ^ S K K V ` ` | | | | | [ 4.| ] n.H * N N h ] | ` | | +.` h [ [ :.6.] ^ N.[ | | | { +.r.j + F.:.6.6.4.<.+.1.5.| | 4.4.+.<.:.[ :.1.5.e.1.1.",
"  : K >.L L <.;.H 5.1.;.u.7.1.4.q.2.%X2 u.u.7.w.5.4.#.4.+.#.#.#.i.t.P.X 5 } ] { | | 1.:.b.5.4.#.+.:.| K.1.5.1.7.6.4.6.#.| #.+.| 4.4.<.5.[ < f h A S S S S A C B S S J ` S S S B ` J S S S ` K K | | S 4.m.& h ` N ` K K [ ] } K f G ' <.<.B z 6.[ ] ] ` ` #.r.B + z.[ | | :.| [ H ' L G ' [ [ +.1.:.5.q.q.1.:.[ ",
"  0 D L F L ' L L >.>.<.9.7.1.;.L 1.I.* b.7.5.w.4.4.4.4.#.#.#.#.y.F 7.X 2 h h A D D F D 1.4.G N L [ [ K.L 1.' ;.| | [ ` S G ` ` <.1.<.:.' 5 m V h N N S V S N N h B B V V V S J h k k j B V ` ] ` G h K L # m V h ` V S ` { { ^ D m L 1.[ V m | V B K S S ` | 2 # 4.K ' K ' K G D L L G K G S | L L ;.;.,.;.D g ",
"    l g F F F M M F M F ' 5.5.;.F 7.i.* :.:.7.9.:.[ | | [ [ [ S P 9 ;.. + 3 4 u k j k 7 g g 7 @ * + D 7.7 j m D x j k 7 5 < & * * * * : < * : : 2 2 2 2 < < * @ & : : < 2 2 2 f @ * & 6 5 6 5 k G G G <.6 + l l * 7 h j B G V ` g 5 5 F F 7 7 F f h h h h h ` 3 O G ' ' G V V B D G B B G V S ` D j j g F ;.9 U "
};
